P2
108 88
4095


   0    0    0    0    0    0    0    0    0    0    0    0    0    0    0    0    0    0    0    0    0    0    0    0    0    0    0    0    0    0    0    0    0    0    0    0    0    0    0    0    0    0    0    0    0    0    0    0    0    0    0    0    0    0    0    0    0    0    0    0    0    0    0    0    0    0    0    0    0    0    0    0    0    0    0    0    0    0    0    0    0    0    0    0    0    0    0    0    0    0    0    0    0    0    0    0    0    0    0    0    0    0    0    0    0    0    0    0 
   0 1074 1581 1655 1712 1608 1861 1705 1883 1737 1940 1864 2038 1860 2050 1842 1986 1898 2209 2001 2200 2010 2294 2061 2298 2021 2270 2118 2293 2093 2357 2228 2454 2126 2363 2329 2414 2268 2404 2309 2461 2262 2442 2266 2539 2385 2456 2311 2474 2214 2444 2282 2470 2288 2440 2288 2547 2159 2465 2344 2585 2173 2512 2305 2441 2251 2453 2266 2417 2230 2395 2225 2321 2089 2266 2114 2346 2122 2235 2082 2387 2115 2410 2116 2262 2074 2261 2123 2225 2030 2297 2093 2165 1972 2362 2173 2158 1956 2266 2003 2115 1948 2124 1897 2135 1701 1463    0 
   0  968 1514 1498 1718 1658 1938 1730 1828 1804 1822 1717 1861 1858 2030 1845 2021 1863 2137 2042 2179 1956 2202 2059 2215 1958 2274 2025 2242 2062 2453 2106 2312 2106 2362 2244 2429 2270 2422 2330 2500 2307 2389 2191 2531 2340 2482 2336 2574 2245 2438 2283 2417 2275 2466 2276 2501 2234 2465 2295 2597 2213 2451 2203 2373 2283 2501 2263 2411 2291 2476 2237 2362 2172 2349 2181 2414 2180 2290 2098 2252 2109 2322 2093 2352 2066 2273 2139 2298 2256 2346 2130 2306 2141 2280 2113 2282 2023 2270 2121 2137 2096 2292 1821 2142 1710 1599    0 
   0 1370 1922 1931 2140 2055 2309 2075 2277 2129 2308 2230 2405 2305 2562 2218 2525 2284 2617 2522 2665 2520 2769 2487 2745 2542 2847 2680 2821 2683 3002 2810 3025 2627 2994 2846 2994 2819 3062 2893 3135 2853 3094 2930 3229 2911 3171 2938 3251 2877 3172 2970 3195 2885 3223 2882 3278 3009 3117 2994 3159 2989 3251 2983 3142 3029 3175 2901 3081 2898 3182 2878 3176 2905 3138 2914 3113 2926 3210 2826 3063 2798 3146 2889 3156 2815 3131 2862 2980 2898 3159 2887 3050 2837 3066 2832 3069 2831 3033 2906 2910 2753 3003 2654 2917 2461 2268    0 
   0 1845 2350 2378 2645 2675 2636 2469 2659 2586 2748 2605 2811 2621 2848 2735 2850 2862 2861 2777 2906 2804 3131 2810 3128 3010 3131 3013 3154 2920 3170 3037 3193 2956 3250 3100 3253 3147 3314 3122 3263 3098 3258 2985 3235 3135 3309 3017 3210 3020 3197 3050 3151 2997 3315 3090 3225 3085 3242 3099 3247 3078 3221 3012 3175 2990 3205 2966 3146 2941 3240 2897 3093 2884 3064 2973 3177 2883 3114 2892 3074 2909 3125 2952 2967 2871 3021 2822 3045 2947 2930 2898 3047 2790 2997 2829 2965 2722 2950 2722 2887 2801 2897 2602 2786 2305 2234    0 
   0 1658 2230 2197 2428 2326 2502 2385 2491 2450 2589 2443 2717 2437 2745 2635 2741 2654 2743 2679 2833 2644 2959 2702 3003 2792 3060 2850 2994 2834 3149 2837 3082 2877 3182 2906 3154 3078 3162 2968 3178 2972 3146 2950 3147 2973 3152 2994 3124 3012 3098 2884 3257 2825 3083 2985 3092 2925 3094 2959 3163 2956 3072 2898 3124 2821 3152 2804 3152 2871 3099 2766 3114 2914 2989 2866 3029 2813 3066 2789 3030 2792 3021 2771 2929 2794 2916 2707 2931 2762 2905 2803 2925 2749 2988 2673 2883 2665 2878 2661 2823 2728 2819 2466 2774 2277 2081    0 
   0 1260 1803 1827 1989 2037 2013 1933 2126 1938 2217 1979 2301 2085 2325 2210 2258 2245 2258 2269 2346 2319 2564 2305 2660 2438 2613 2390 2658 2421 2711 2507 2748 2546 2756 2505 2748 2651 2755 2619 2820 2586 2750 2662 2803 2639 2863 2565 2718 2567 2778 2638 2711 2551 2753 2568 2724 2580 2836 2623 2730 2627 2747 2534 2771 2533 2699 2607 2732 2516 2739 2468 2650 2490 2668 2440 2693 2510 2710 2477 2685 2453 2617 2445 2541 2392 2534 2394 2549 2467 2552 2536 2588 2402 2690 2367 2669 2357 2602 2309 2529 2448 2518 2193 2410 1885 1833    0 
   0 1565 2197 2159 2387 2378 2485 2308 2491 2435 2554 2366 2740 2577 2738 2522 2757 2645 2757 2677 2857 2692 3026 2776 3078 2915 3104 2872 3202 2826 3268 3064 3224 2990 3295 3027 3269 3159 3333 3112 3331 3035 3301 3107 3346 3131 3427 3229 3326 3276 3470 3150 3389 3091 3517 3247 3377 3274 3442 3234 3434 3248 3393 3173 3464 3109 3434 3236 3340 3121 3441 3114 3310 3081 3298 3108 3272 3076 3386 3061 3362 3023 3340 3158 3313 3080 3273 3049 3227 3080 3229 3213 3330 3062 3349 2994 3264 2929 3270 2988 3185 3117 3178 2885 3102 2577 2621    0 
   0 1833 2323 2381 2566 2521 2706 2595 2754 2538 2739 2586 2884 2674 2903 2841 2964 2795 2933 2822 3037 2938 3054 2972 3030 2910 3156 2989 3117 2962 3150 3102 3203 3011 3258 3108 3234 3099 3248 3092 3305 3088 3223 3058 3284 3064 3253 3129 3257 3110 3333 3157 3290 3072 3306 3165 3249 3121 3229 3078 3348 3106 3349 3093 3268 3028 3217 3042 3287 2985 3220 2956 3203 2988 3159 2933 3178 2949 3109 2908 3082 2920 3030 2873 3069 2859 3061 2917 3036 2861 2987 2769 3027 2779 3021 2791 3021 2761 2992 2730 2984 2788 2942 2622 2754 2505 2196    0 
   0 1761 2313 2226 2509 2225 2546 2374 2613 2401 2606 2510 2672 2578 2638 2570 2781 2679 2847 2692 2905 2711 2804 2754 2907 2693 3068 2792 3061 2938 3134 2925 3135 2926 3196 2919 3134 2949 3186 3033 3243 2969 3140 2953 3195 2935 3076 3019 3169 3017 3209 3040 3181 2981 3265 3123 3123 2997 3124 2901 3189 2969 3149 2942 3146 3075 3185 2922 3141 2907 3171 3031 3046 2906 3142 2939 3044 2875 3053 2883 3018 2867 2986 2767 2925 2803 3041 2781 3022 2757 2963 2733 2908 2661 2922 2603 2934 2717 2892 2582 2850 2642 2864 2437 2670 2413 2177    0 
   0 1346 1830 1773 2038 1953 2029 1899 2146 2014 2214 2156 2294 2167 2364 2122 2386 2325 2510 2331 2525 2362 2477 2444 2527 2380 2578 2418 2557 2547 2745 2566 2726 2602 2884 2602 2709 2638 2733 2611 2916 2659 2802 2624 2811 2545 2842 2645 2831 2638 2848 2632 2830 2660 2850 2700 2832 2637 2858 2590 2914 2605 2850 2621 2858 2683 2862 2540 2866 2595 2857 2609 2841 2597 2850 2583 2761 2572 2681 2485 2646 2533 2685 2494 2673 2509 2671 2498 2662 2496 2658 2434 2712 2493 2649 2277 2659 2385 2627 2280 2561 2333 2447 2313 2362 1989 1862    0 
   0 1563 2154 2069 2261 2259 2451 2276 2483 2370 2573 2427 2684 2413 2636 2499 2729 2725 2853 2714 2916 2752 2814 2852 2921 2842 3029 2921 3176 2902 3181 3084 3309 2954 3317 3030 3239 3052 3278 3049 3394 3051 3269 3066 3325 3135 3370 3154 3398 3174 3437 3160 3402 3207 3486 3186 3399 3115 3373 3174 3514 3213 3432 3204 3420 3291 3342 3188 3417 3155 3405 3194 3450 3282 3441 3197 3416 3165 3354 3181 3335 3173 3373 3140 3365 3002 3330 3141 3354 3076 3269 3042 3289 3098 3304 2968 3301 2986 3313 2990 3203 2948 3147 2890 3033 2712 2498    0 
   0 1881 2397 2360 2722 2486 2737 2571 2880 2665 2945 2628 2909 2710 2945 2617 2916 2797 3029 2833 3076 2807 3101 2827 3118 2986 3213 2901 3187 2995 3183 3048 3253 3085 3291 3063 3355 3098 3309 2957 3333 3013 3321 3212 3389 3142 3338 3230 3334 3104 3380 3074 3423 3100 3371 3163 3330 3284 3391 3242 3351 3031 3329 3048 3261 3046 3221 3050 3238 3014 3267 3013 3137 3054 3226 3057 3204 2897 3161 2906 3157 2914 3064 3067 3114 2901 3129 2907 3016 2845 3028 2868 3070 2912 3159 2757 3069 2821 2973 2823 2965 2734 2941 2704 2846 2513 2258    0 
   0 1693 2216 2214 2564 2327 2625 2517 2578 2381 2879 2413 2683 2567 2824 2547 2782 2574 2833 2626 2966 2745 3018 2820 3017 2875 3045 2866 3108 2994 3133 2882 3097 2907 3125 2980 3242 2978 3173 3078 3259 2957 3254 3053 3190 3037 3269 3001 3188 2982 3262 2971 3242 3076 3258 3045 3326 3117 3209 3049 3200 2917 3209 2873 3131 2921 3156 3016 3197 2930 3189 2909 3176 2818 3152 2908 3098 2793 3043 2906 3093 2882 2980 2949 3026 2773 3028 2867 2957 2829 2925 2760 2945 2738 3066 2651 2953 2669 2891 2674 2845 2615 2870 2650 2746 2333 2194    0 
   0 1316 1811 1842 2131 2005 2221 2038 2293 1994 2335 2075 2259 2166 2326 2122 2386 2198 2461 2324 2489 2294 2544 2394 2565 2421 2682 2491 2738 2595 2730 2583 2692 2570 2758 2551 2704 2614 2821 2557 2830 2544 2884 2752 2798 2747 2890 2623 2897 2664 2891 2681 2869 2690 2923 2606 2922 2682 2798 2660 2884 2612 2907 2602 2710 2643 2737 2616 2726 2525 2833 2451 2743 2658 2730 2572 2679 2398 2681 2485 2753 2513 2690 2662 2682 2511 2764 2478 2606 2493 2639 2372 2610 2394 2679 2400 2578 2352 2482 2315 2594 2340 2526 2277 2450 2013 1826    0 
   0 1590 2179 2170 2520 2309 2586 2356 2666 2457 2756 2458 2817 2548 2829 2511 2836 2650 2921 2702 3011 2773 3020 2789 3129 2867 3227 3001 3172 3085 3165 3075 3268 3016 3313 3057 3360 3114 3361 3087 3367 3139 3392 3307 3467 3235 3426 3313 3451 3249 3447 3245 3529 3268 3576 3302 3551 3410 3577 3303 3602 3186 3582 3247 3450 3259 3486 3319 3490 3204 3557 3237 3478 3290 3514 3221 3448 3204 3443 3213 3434 3206 3418 3243 3488 3307 3447 3191 3350 3245 3307 3157 3339 3152 3421 3063 3340 3137 3290 2974 3297 3037 3353 3018 3213 2676 2515    0 
   0 1954 2437 2408 2693 2671 2825 2605 2774 2640 2875 2701 2939 2732 2869 2728 2928 2754 3040 2846 3096 2947 3129 2986 3150 2987 3178 3092 3265 3171 3266 3148 3350 3141 3341 3131 3378 3164 3398 3172 3349 3122 3383 3186 3391 3236 3337 3182 3353 3187 3389 3218 3328 3124 3368 3165 3300 3205 3412 3191 3356 3194 3430 3127 3316 3145 3317 3141 3287 3098 3307 2973 3246 2973 3266 3085 3149 2971 3098 3005 3251 2914 3173 2918 3178 2994 3213 2909 3140 2930 3123 3013 3074 2907 3081 2919 3021 2860 3004 2771 2954 2882 2975 2641 2895 2555 2314    0 
   0 1801 2341 2361 2587 2447 2690 2498 2677 2533 2607 2578 2889 2570 2851 2667 2858 2585 2888 2710 2984 2811 3081 2873 3055 2891 3159 2918 3215 3099 3174 3061 3233 2960 3331 3106 3277 3037 3284 3133 3314 3069 3397 3223 3332 3156 3306 3100 3238 3197 3309 3178 3294 3112 3343 3162 3302 3199 3389 3122 3370 3131 3317 3158 3278 3105 3217 3146 3230 2981 3253 2979 3162 2888 3139 2984 3131 2891 3069 2908 3204 2892 3110 2970 3122 2917 3173 2838 3101 2920 3082 2933 2926 2810 3040 2826 3012 2742 3003 2682 2884 2731 2972 2573 2766 2514 2279    0 
   0 1387 2005 1906 2128 2091 2210 2084 2305 2093 2225 2155 2349 2188 2332 2237 2397 2161 2442 2320 2592 2358 2565 2427 2578 2498 2661 2562 2723 2631 2665 2644 2740 2573 2877 2658 2825 2653 2859 2765 2923 2684 2877 2822 2931 2724 2954 2737 2887 2692 2818 2762 2826 2754 2821 2721 2970 2731 2962 2796 2972 2684 2950 2820 2811 2628 2846 2754 2854 2662 2904 2580 2782 2532 2825 2656 2664 2517 2674 2527 2807 2593 2678 2632 2658 2539 2750 2445 2778 2614 2628 2574 2564 2553 2643 2458 2676 2435 2521 2325 2513 2481 2641 2313 2410 2090 1924    0 
   0 1642 2210 2178 2434 2338 2526 2438 2650 2447 2570 2546 2729 2549 2685 2526 2884 2581 2914 2664 2924 2743 2997 2875 3045 3007 3242 2938 3159 3066 3194 3070 3234 3001 3330 3181 3261 3085 3356 3126 3421 3089 3437 3204 3346 3306 3556 3256 3452 3306 3541 3301 3472 3194 3514 3258 3404 3355 3485 3285 3556 3276 3578 3393 3497 3237 3432 3370 3485 3245 3572 3191 3426 3220 3546 3213 3387 3273 3378 3150 3546 3208 3377 3174 3351 3236 3419 3146 3470 3242 3355 3227 3310 3162 3330 3129 3281 3130 3300 3021 3243 3057 3346 3016 3153 2818 2676    0 
   0 1835 2423 2498 2741 2660 2874 2627 2814 2610 2879 2760 2920 2728 2896 2737 2965 2784 3014 2877 3070 2969 3117 3066 3256 2931 3322 3155 3272 3189 3293 3093 3391 3161 3319 3177 3326 3128 3264 3197 3405 3229 3320 3208 3473 3156 3380 3159 3494 3245 3354 3259 3406 3264 3414 3146 3341 3208 3368 3152 3398 3305 3363 3182 3248 3148 3349 3243 3369 3114 3284 3064 3253 3157 3201 3091 3269 2970 3220 3018 3231 2958 3110 2952 3153 2983 3165 2824 3174 2949 3104 2890 3111 2957 3117 2875 3004 2814 3171 2859 3083 2877 3061 2821 2838 2532 2309    0 
   0 1706 2264 2315 2621 2479 2765 2544 2793 2482 2669 2587 2865 2642 2781 2697 2882 2674 3010 2713 2994 2757 3052 2878 3057 2910 3218 2996 3125 3063 3157 3018 3291 3091 3195 3086 3320 3098 3301 3083 3326 3174 3323 3195 3345 3093 3325 3069 3390 3124 3373 3274 3376 3194 3351 3154 3426 3221 3454 3171 3269 3162 3289 3139 3268 3092 3248 3068 3214 3037 3257 3020 3177 2966 3181 3046 3165 2915 3214 2964 3093 2955 3194 2941 3108 2917 3046 2939 3102 2926 3079 2856 3030 2782 3126 2826 3003 2801 3032 2870 2918 2766 3019 2650 2798 2382 2178    0 
   0 1341 1910 1881 2083 2106 2322 2128 2257 2069 2299 2157 2393 2246 2410 2228 2387 2358 2514 2327 2532 2411 2557 2445 2709 2477 2646 2534 2726 2608 2741 2540 2813 2676 2868 2656 2850 2729 2875 2685 2994 2692 2898 2850 3069 2674 2862 2726 3032 2730 2949 2758 2981 2696 2933 2656 2928 2868 3045 2711 2953 2826 2980 2772 2864 2824 2975 2704 2857 2654 2835 2643 2877 2694 2774 2571 2827 2664 2862 2591 2798 2561 2800 2625 2721 2534 2764 2449 2714 2550 2741 2514 2592 2467 2699 2512 2578 2446 2722 2525 2637 2413 2594 2382 2316 2086 1940    0 
   0 1525 2258 2212 2509 2416 2678 2462 2681 2452 2721 2542 2733 2683 2885 2746 2966 2766 2973 2758 2993 2854 3053 2937 3222 2993 3368 2983 3179 3047 3284 3044 3457 3064 3347 3265 3426 3221 3408 3212 3487 3333 3464 3310 3602 3314 3633 3229 3645 3354 3453 3402 3628 3382 3634 3338 3575 3389 3589 3447 3568 3409 3580 3385 3480 3343 3511 3314 3502 3290 3579 3265 3562 3306 3496 3285 3485 3373 3590 3241 3477 3266 3486 3216 3425 3244 3471 3204 3461 3177 3513 3170 3292 3182 3496 3126 3313 3086 3380 3141 3309 3081 3310 2990 3065 2765 2594    0 
   0 1869 2326 2487 2746 2612 2788 2713 2889 2673 2903 2698 2901 2736 2926 2779 2930 2824 3058 2912 3072 2892 3112 2964 3186 2982 3280 3060 3267 2965 3301 3083 3313 3047 3377 3212 3378 3205 3335 3160 3438 3128 3395 3315 3506 3163 3414 3290 3426 3263 3386 3165 3459 3205 3500 3178 3353 3245 3412 3321 3333 3218 3219 3229 3387 3048 3299 3106 3272 3140 3274 2985 3257 2983 3229 3099 3245 3026 3086 2990 3156 2971 3186 2962 3155 2970 3139 2886 3047 2901 3149 2972 3093 2877 2981 2889 3104 2875 2993 2759 2942 2786 2952 2660 2770 2417 2214    0 
   0 1816 2299 2463 2620 2492 2749 2427 2659 2421 2769 2641 2890 2687 2923 2677 2942 2810 3000 2788 3069 2853 3069 2822 3022 2890 3217 2953 3149 2995 3252 3017 3167 3053 3284 3026 3301 3029 3311 3234 3304 3065 3333 3204 3265 3152 3373 3281 3511 3221 3435 3182 3465 3170 3380 3154 3350 3128 3405 3245 3315 3190 3352 3138 3290 3147 3261 3071 3293 3172 3306 2990 3231 2954 3163 3062 3243 2967 3124 3026 3122 2936 3138 3037 3098 2916 3058 2913 3069 2813 3192 2783 3071 2811 2983 2822 2987 2760 2946 2672 2914 2698 2874 2610 2675 2356 2212    0 
   0 1378 1940 1949 2192 2006 2291 2118 2277 2094 2306 2203 2496 2193 2471 2261 2494 2245 2565 2382 2567 2502 2566 2467 2667 2399 2750 2581 2673 2612 2756 2623 2775 2580 2908 2694 2857 2707 2876 2727 2919 2697 2847 2788 2912 2678 2922 2794 2980 2779 2945 2782 2953 2690 2978 2789 2978 2749 3031 2850 2853 2718 2961 2802 2928 2733 2891 2708 2827 2741 2895 2601 2800 2569 2922 2714 2833 2594 2725 2545 2843 2596 2789 2606 2829 2541 2717 2421 2637 2607 2782 2413 2712 2445 2661 2498 2597 2402 2607 2317 2589 2505 2541 2283 2305 1994 1850    0 
   0 1634 2266 2251 2494 2382 2637 2467 2593 2440 2762 2607 2873 2665 2826 2708 2939 2816 3037 2825 3066 2874 3169 2978 3137 3017 3220 3017 3221 3020 3342 3061 3277 3016 3426 3147 3359 3169 3337 3266 3492 3226 3430 3268 3585 3263 3578 3322 3569 3304 3534 3375 3630 3314 3554 3299 3559 3379 3565 3408 3542 3285 3501 3342 3557 3350 3557 3315 3509 3287 3580 3237 3503 3189 3444 3368 3480 3258 3397 3258 3450 3144 3461 3269 3389 3204 3401 3175 3351 3170 3384 3172 3284 3131 3321 3214 3300 3082 3286 3037 3254 3007 3178 3022 3083 2634 2507    0 
   0 1943 2473 2458 2709 2635 2791 2731 2807 2671 2865 2781 2907 2794 3013 2827 3017 2863 3081 2933 3073 2955 3186 2894 3294 3086 3275 3018 3277 3162 3438 3241 3501 3260 3449 3226 3371 3176 3378 3243 3426 3271 3499 3227 3538 3301 3438 3266 3442 3154 3478 3282 3406 3220 3345 3210 3429 3157 3381 3244 3369 3255 3263 3146 3341 3282 3335 3217 3246 3107 3284 3101 3345 3080 3215 3056 3231 2953 3184 3081 3333 2945 3184 2971 3138 2900 3234 2941 3194 2984 3109 2936 3149 2929 3122 2859 3041 2837 2979 2948 2981 2873 2998 2802 2809 2497 2313    0 
   0 1815 2393 2342 2546 2493 2668 2612 2670 2592 2705 2657 2810 2781 2882 2716 2877 2729 2967 2762 2901 2813 3053 2856 3080 2918 3158 2934 3185 3080 3286 3073 3282 3067 3317 3089 3322 3114 3275 3169 3316 3189 3396 3126 3430 3214 3330 3118 3434 3167 3418 3211 3383 3145 3403 3133 3350 3133 3282 3148 3370 3114 3265 3091 3265 3178 3285 3111 3337 3026 3301 3125 3235 2931 3113 2981 3244 2952 3177 3028 3214 2909 3181 2902 3122 2885 3147 2860 3117 2882 3034 2860 2997 2884 3031 2811 2870 2726 2958 2819 2861 2693 2887 2661 2781 2434 2245    0 
   0 1402 1946 2005 2102 2018 2304 2141 2292 2099 2290 2192 2425 2235 2439 2283 2446 2235 2564 2442 2527 2434 2708 2469 2678 2501 2666 2510 2711 2596 2822 2665 2901 2749 2853 2885 2968 2708 2921 2749 2907 2713 2935 2792 3074 2777 2935 2799 2986 2789 3007 2778 2984 2728 2967 2693 2946 2731 2933 2841 2969 2792 2821 2666 2927 2764 2859 2761 2926 2610 2874 2645 2783 2635 2747 2658 2828 2562 2851 2651 2875 2634 2817 2654 2764 2594 2892 2536 2770 2546 2698 2530 2715 2525 2647 2473 2581 2355 2589 2436 2565 2405 2666 2341 2468 2093 1926    0 
   0 1773 2234 2255 2397 2420 2649 2537 2632 2484 2644 2532 2817 2579 2764 2677 2799 2755 2997 2833 2983 2856 3056 2825 3257 2941 3190 3002 3246 3135 3354 3183 3398 3209 3397 3219 3453 3225 3445 3226 3427 3268 3569 3339 3611 3293 3499 3313 3582 3270 3593 3420 3606 3333 3524 3294 3561 3337 3633 3397 3521 3352 3558 3403 3554 3416 3546 3362 3482 3353 3511 3309 3452 3323 3525 3287 3500 3235 3586 3332 3542 3322 3514 3319 3482 3250 3576 3202 3450 3317 3447 3251 3443 3206 3433 3124 3317 3148 3338 3178 3305 3079 3316 3053 3224 2765 2632    0 
   0 1941 2469 2501 2664 2618 2794 2618 2850 2619 2956 2765 2981 2794 2995 2801 2956 2755 3021 2933 2967 3041 3098 2948 3102 3061 3145 3050 3245 3095 3350 3213 3300 3109 3437 3230 3410 3194 3361 3243 3422 3133 3388 3258 3387 3348 3449 3268 3396 3193 3421 3216 3433 3155 3348 3163 3333 3237 3426 3205 3368 3218 3352 3170 3380 3112 3269 3184 3310 3086 3322 3028 3233 2957 3205 3116 3151 3099 3256 2957 3202 3013 3130 3008 3106 3014 3241 3050 3119 2933 3173 2914 3139 2854 2998 2874 3075 2889 3061 2826 2968 2778 2941 2826 2839 2519 2351    0 
   0 1833 2350 2373 2664 2545 2698 2538 2721 2586 2750 2585 2903 2702 2827 2768 2951 2760 2966 2805 3023 2861 3035 2810 3130 2866 3117 3005 3236 3001 3282 3061 3301 3011 3373 3129 3282 3144 3383 3123 3403 3221 3396 3278 3474 3276 3404 3199 3376 3214 3377 3180 3449 3110 3402 3166 3384 3158 3371 3112 3394 3022 3354 3122 3302 3155 3442 3130 3258 3090 3387 3035 3242 3005 3154 3122 3162 2989 3261 3068 3233 2932 3094 2962 3129 2966 3242 3019 3081 2998 3199 2884 3083 2752 3070 2850 3058 2929 3064 2857 2989 2794 3019 2743 2788 2452 2229    0 
   0 1442 1970 2052 2218 2109 2235 2097 2330 2070 2370 2227 2469 2369 2450 2437 2478 2345 2486 2378 2597 2511 2596 2504 2690 2459 2666 2483 2747 2618 2839 2695 2906 2618 2902 2743 2934 2717 2868 2743 2941 2746 2933 2781 2994 2886 3006 2854 2944 2786 3028 2835 3076 2719 2935 2713 2991 2797 3011 2668 2935 2740 2957 2649 2917 2686 2934 2785 2944 2791 2935 2690 2828 2650 2826 2692 2879 2609 2822 2690 2823 2613 2772 2596 2724 2601 2809 2620 2834 2571 2804 2460 2745 2477 2691 2485 2688 2581 2678 2538 2619 2469 2666 2434 2541 2109 1851    0 
   0 1697 2266 2257 2490 2411 2594 2392 2622 2442 2745 2570 2803 2697 2828 2654 2913 2757 2997 2781 3019 2885 3015 2956 3147 3012 3185 3040 3266 3141 3277 3201 3357 3135 3485 3117 3370 3139 3432 3173 3390 3284 3463 3339 3516 3393 3575 3332 3478 3339 3558 3303 3567 3289 3594 3346 3599 3367 3567 3343 3596 3417 3610 3354 3500 3322 3586 3411 3590 3350 3627 3261 3490 3336 3577 3323 3458 3352 3605 3285 3459 3265 3503 3333 3419 3211 3546 3293 3469 3270 3590 3173 3421 3197 3378 3097 3390 3229 3335 3152 3352 3014 3287 3144 3146 2773 2717    0 
   0 1841 2473 2436 2618 2583 2852 2717 2826 2719 2896 2747 2953 2822 2966 2870 3061 2852 3040 2930 3203 2949 3278 3090 3201 3074 3277 3085 3388 3145 3381 3137 3402 3067 3430 3116 3434 3273 3394 3255 3394 3249 3401 3316 3494 3340 3444 3311 3449 3246 3395 3177 3418 3242 3400 3156 3330 3269 3373 3233 3410 3226 3410 3141 3309 3162 3322 3236 3316 3120 3300 3052 3163 3090 3161 3142 3262 2944 3192 3129 3224 3054 3227 2941 3269 3029 3252 2997 3253 3012 3273 2973 3097 2852 3149 2843 3037 2874 3114 2885 3047 2994 3105 2740 2921 2542 2404    0 
   0 1694 2378 2344 2491 2475 2725 2536 2826 2579 2773 2648 2875 2710 2920 2758 3013 2773 3010 2877 3053 2861 3077 2935 3149 2920 3215 3086 3274 3061 3245 3115 3273 2987 3353 3109 3299 3176 3283 3172 3360 3099 3210 3250 3257 3154 3346 3213 3348 3139 3283 3182 3318 3228 3315 3113 3323 3194 3320 3122 3211 3141 3346 3068 3255 3074 3349 3082 3149 3076 3302 2984 3123 3035 3117 3061 3162 2937 3159 3065 3186 2917 3072 2893 3105 2907 3148 2971 3048 2900 3141 2927 2996 2884 3130 2818 2989 2721 2957 2837 3019 2900 2917 2697 2730 2328 2307    0 
   0 1314 1993 1860 2066 2073 2254 2164 2386 2193 2347 2198 2454 2283 2538 2306 2562 2302 2598 2393 2647 2453 2669 2487 2794 2446 2827 2565 2746 2597 2767 2631 2804 2609 2888 2654 2843 2623 2826 2788 2900 2735 2938 2726 2924 2741 2909 2713 2915 2805 2852 2825 2961 2812 2973 2669 2971 2711 3033 2786 2825 2740 2929 2669 2893 2782 2981 2628 2868 2728 2906 2722 2775 2665 2841 2709 2866 2623 2873 2753 2825 2637 2836 2564 2834 2637 2825 2586 2826 2578 2772 2567 2692 2490 2844 2493 2660 2403 2610 2462 2651 2454 2631 2269 2408 2074 1976    0 
   0 1659 2277 2280 2457 2490 2663 2564 2787 2490 2705 2652 2812 2710 2912 2675 2934 2854 3108 2838 3207 2967 3178 3030 3245 2971 3265 3022 3321 3141 3341 3085 3386 3049 3442 3173 3312 3206 3404 3283 3538 3333 3467 3384 3546 3310 3579 3490 3595 3313 3534 3351 3622 3444 3623 3369 3537 3462 3603 3421 3542 3369 3581 3399 3542 3376 3570 3285 3509 3211 3545 3353 3515 3272 3565 3362 3511 3202 3567 3280 3466 3349 3479 3200 3497 3285 3477 3269 3465 3230 3434 3289 3385 3162 3437 3231 3400 3117 3441 3146 3369 3247 3357 3002 3116 2923 2732    0 
   0 1937 2484 2524 2757 2555 2833 2699 2893 2766 2862 2738 2954 2810 2939 2807 3069 2898 3201 2907 3140 3003 3218 3080 3309 3044 3147 3068 3274 3087 3351 3133 3338 3093 3333 3266 3381 3221 3510 3228 3383 3309 3382 3272 3429 3272 3410 3257 3435 3148 3349 3201 3331 3202 3404 3205 3347 3211 3405 3154 3432 3121 3330 3130 3379 3008 3266 3091 3227 3069 3308 3101 3224 3115 3113 3076 3248 3029 3187 2950 3161 2957 3078 2984 3087 3003 3127 2870 3051 2981 3163 3001 3023 2826 3070 2942 3134 2866 3035 2754 3019 2787 2990 2595 2909 2431 2258    0 
   0 1795 2471 2379 2659 2541 2749 2574 2774 2587 2869 2600 2861 2781 2803 2731 2973 2837 3066 2779 3057 2893 3056 3101 3300 2978 3157 2908 3318 3071 3317 3055 3348 3136 3289 3150 3371 3172 3363 3080 3339 3147 3329 3101 3301 3262 3334 3173 3430 3172 3318 3097 3255 3133 3345 3202 3281 3061 3343 3117 3313 3006 3352 3099 3288 3040 3306 2977 3120 3091 3213 3074 3213 3012 3124 2957 3225 3020 3210 2955 3045 3052 3171 2973 3147 2970 3118 2881 3098 2922 3133 2893 3009 2902 3028 2857 2981 2818 2984 2707 2975 2805 2898 2642 2836 2429 2230    0 
   0 1335 1948 1898 2229 2066 2253 2168 2413 2244 2381 2162 2418 2347 2501 2342 2485 2487 2636 2412 2603 2510 2674 2611 2691 2572 2650 2580 2826 2678 2878 2742 2911 2715 2895 2689 2937 2811 3010 2760 2954 2753 2992 2797 2916 2833 3005 2842 2945 2802 2952 2826 2925 2801 3004 2742 2910 2797 2920 2713 2950 2748 2914 2621 2932 2674 2915 2667 2876 2664 2895 2669 2807 2747 2701 2681 2757 2697 2857 2646 2758 2583 2785 2612 2777 2551 2761 2468 2775 2608 2786 2552 2658 2514 2616 2583 2696 2512 2670 2388 2645 2442 2572 2274 2432 2068 1867    0 
   0 1628 2245 2290 2501 2403 2647 2450 2713 2533 2798 2505 2826 2731 2794 2753 2925 2810 3058 2778 3045 2889 3134 2984 3220 3053 3182 3017 3316 3077 3370 3163 3350 3180 3405 3266 3407 3258 3444 3245 3476 3181 3542 3246 3450 3394 3474 3346 3574 3410 3525 3398 3447 3356 3568 3393 3509 3342 3558 3333 3528 3227 3683 3269 3546 3317 3482 3312 3439 3290 3617 3354 3451 3369 3428 3325 3501 3321 3444 3310 3429 3226 3562 3237 3404 3300 3511 3307 3461 3192 3457 3300 3387 3173 3356 3154 3340 3208 3336 3042 3349 3109 3339 2929 3219 2766 2580    0 
   0 1937 2470 2467 2726 2695 2754 2724 2833 2694 2856 2729 2888 2877 3016 2852 2967 2941 3018 2865 3085 2970 3175 2980 3261 3157 3279 3112 3329 3082 3413 3143 3318 3091 3355 3165 3416 3212 3388 3176 3435 3138 3365 3300 3359 3322 3402 3210 3389 3256 3399 3115 3385 3248 3393 3139 3378 3233 3387 3201 3359 3269 3304 3152 3333 3165 3145 3051 3248 3183 3282 3086 3265 3016 3266 3027 3260 3053 3135 2941 3176 2942 3176 2985 3083 2983 3209 2903 3118 3028 3210 2949 3100 2926 3041 2900 3098 2891 2964 2850 2982 2811 2907 2657 2826 2538 2225    0 
   0 1803 2314 2350 2557 2544 2699 2578 2758 2576 2857 2699 2822 2723 2901 2715 2874 2715 2919 2694 2949 2885 3056 2820 3056 2941 3154 2934 3284 3016 3259 3081 3202 3038 3370 3045 3273 3015 3302 3055 3314 3046 3314 3134 3266 3150 3269 3090 3265 3165 3354 3042 3247 3042 3236 3124 3325 3117 3243 3027 3176 3033 3244 3055 3213 3011 3074 3034 3208 3066 3293 3003 3227 2939 3195 2994 3185 2957 3198 2955 3210 2877 3144 2946 3125 2943 3220 2914 3026 2850 3081 2840 3153 2921 3017 2877 3029 2778 2930 2687 2941 2788 2919 2640 2862 2344 2210    0 
   0 1410 1937 1904 2233 2021 2159 2109 2217 2114 2255 2218 2336 2221 2437 2289 2378 2346 2597 2202 2533 2448 2586 2442 2709 2613 2738 2510 2770 2525 2815 2677 2743 2593 2829 2646 2793 2686 2862 2690 2929 2668 2842 2807 2896 2725 2860 2661 2865 2730 2901 2733 2892 2693 2785 2677 2922 2735 2990 2675 2857 2697 2851 2566 2809 2666 2828 2562 2909 2701 2881 2646 2858 2584 2871 2633 2766 2599 2856 2536 2779 2546 2752 2559 2687 2659 2777 2427 2819 2594 2743 2482 2682 2493 2685 2522 2744 2445 2700 2366 2569 2410 2525 2319 2398 2006 1853    0 
   0 1669 2226 2230 2525 2375 2518 2388 2551 2482 2751 2594 2816 2626 2810 2671 2927 2731 2957 2685 3035 2868 3032 2877 3117 2910 3238 2981 3266 2985 3285 3064 3250 3019 3347 3149 3442 3105 3468 3148 3434 3138 3463 3245 3441 3266 3485 3228 3432 3273 3549 3251 3442 3186 3489 3203 3509 3401 3551 3255 3530 3374 3497 3322 3480 3207 3380 3242 3473 3284 3477 3346 3491 3226 3389 3331 3600 3268 3506 3305 3536 3162 3445 3323 3387 3289 3504 3118 3445 3278 3498 3177 3437 3156 3338 3197 3361 3175 3341 3106 3333 3119 3255 3015 3191 2753 2550    0 
   0 1963 2409 2374 2618 2478 2751 2621 2743 2620 2914 2811 2946 2742 2979 2735 2946 2857 3013 2893 3022 2891 3170 2801 3018 2898 3178 2965 3146 3117 3300 3085 3204 3053 3258 3071 3293 3114 3230 3121 3246 3208 3397 3112 3314 3100 3365 3109 3270 3149 3390 3197 3246 3098 3197 3063 3242 3070 3320 3106 3218 3109 3197 3161 3275 3174 3302 2958 3287 3074 3205 2946 3209 3014 3262 3065 3158 2965 3186 2999 3210 3012 3192 2997 3145 2934 3178 3005 3066 2875 3174 2940 3066 2935 3061 2843 3049 2874 2982 2813 2960 2847 2982 2686 2776 2414 2299    0 
   0 1812 2274 2301 2641 2327 2610 2459 2668 2524 2660 2686 2760 2609 2862 2670 2842 2674 2891 2775 2963 2830 3163 2751 3010 2891 3146 2898 3125 2882 3198 2873 3222 3017 3173 3005 3186 3017 3225 3034 3130 3106 3397 3106 3294 3041 3342 3078 3178 3005 3390 3155 3322 3026 3261 3005 3240 3044 3277 3083 3227 3036 3177 2981 3183 3054 3177 2950 3240 3109 3173 3034 3257 2932 3201 3077 3109 2931 3188 2997 3266 2986 3168 3010 3216 2914 3202 2984 3095 2971 3077 2922 3006 2944 3003 2838 2975 2818 2958 2802 2967 2813 2914 2569 2605 2373 2217    0 
   0 1365 1825 1814 2126 1894 2097 2060 2209 1980 2227 2225 2352 2120 2416 2143 2331 2220 2438 2250 2466 2381 2543 2373 2571 2370 2665 2421 2622 2527 2792 2500 2697 2557 2808 2581 2715 2589 2730 2553 2733 2626 2818 2611 2835 2670 2878 2623 2868 2600 2873 2763 2906 2635 2788 2675 2794 2609 2866 2677 2803 2582 2828 2658 2766 2707 2797 2549 2826 2618 2821 2498 2795 2607 2765 2690 2761 2475 2761 2510 2802 2557 2786 2602 2717 2497 2749 2490 2610 2420 2661 2550 2683 2499 2530 2530 2626 2434 2685 2369 2597 2457 2471 2227 2378 1990 1844    0 
   0 1611 2131 2024 2399 2157 2466 2313 2575 2406 2586 2475 2693 2593 2874 2602 2710 2662 2867 2718 2905 2710 3097 2796 3027 2844 3163 2927 3083 3005 3270 2997 3292 3050 3333 3107 3290 3095 3352 3129 3298 3156 3413 3138 3354 3210 3489 3295 3361 3223 3482 3312 3354 3293 3438 3178 3395 3218 3509 3209 3368 3238 3403 3186 3317 3310 3500 3182 3439 3256 3474 3213 3472 3189 3483 3271 3393 3208 3523 3277 3528 3220 3429 3254 3494 3144 3504 3197 3389 3130 3377 3184 3394 3282 3355 3154 3350 3083 3249 3176 3317 3027 3283 2981 3082 2725 2619    0 
   0 1813 2330 2500 2691 2610 2811 2592 2798 2581 2807 2618 2916 2732 2924 2778 2966 2842 3029 2824 3016 2900 3121 2941 3157 2965 3213 3129 3269 3053 3293 3005 3206 3079 3274 3017 3262 3157 3282 3066 3323 3127 3294 3097 3345 3146 3293 3092 3300 3206 3396 3177 3353 3085 3317 3155 3356 3154 3317 3157 3323 3134 3361 3130 3322 3096 3321 3056 3268 3070 3309 3016 3238 3067 3240 3094 3269 3004 3059 2946 3177 2938 3065 2996 3241 3013 3117 2904 3107 3012 3070 3015 3085 2946 2998 2874 3042 2954 3064 2847 3037 2793 2957 2726 2781 2517 2358    0 
   0 1603 2206 2258 2504 2488 2561 2377 2663 2366 2644 2534 2744 2534 2768 2601 2860 2589 2932 2734 2909 2637 2974 2821 3034 2839 3082 2861 3130 2946 3118 2899 3129 2854 3216 3013 3178 3021 3174 2985 3172 2962 3174 3074 3204 3045 3140 3002 3141 3118 3309 2999 3188 2936 3157 3080 3185 3051 3183 3035 3149 3028 3195 2997 3181 2937 3142 3080 3204 2981 3138 2968 3140 2979 3104 2986 3058 2883 2949 2930 3128 2859 2947 2870 3147 2875 3070 2879 2993 2858 2999 2828 2958 2821 3005 2791 2981 2940 3049 2729 2928 2714 2847 2635 2778 2427 2164    0 
   0 1223 1745 1923 2053 2034 2186 2045 2233 1975 2223 2068 2323 2132 2271 2229 2381 2262 2442 2293 2511 2299 2602 2474 2619 2400 2642 2468 2701 2557 2839 2454 2712 2486 2773 2546 2729 2692 2717 2678 2805 2651 2782 2606 2854 2725 2896 2597 2820 2692 2890 2646 2832 2687 2864 2680 2823 2717 2843 2676 2878 2762 2809 2611 2837 2637 2826 2603 2874 2517 2867 2506 2821 2613 2794 2542 2833 2523 2623 2586 2763 2533 2672 2480 2770 2484 2742 2500 2651 2636 2647 2533 2645 2518 2728 2522 2547 2570 2746 2446 2576 2471 2537 2381 2398 2146 1919    0 
   0 1522 2100 2243 2372 2357 2589 2392 2617 2325 2550 2428 2677 2533 2707 2528 2847 2700 2959 2667 2954 2729 3105 2834 3173 2842 3154 3029 3289 3029 3277 3011 3277 3036 3274 3094 3301 3117 3284 3069 3317 3163 3369 3185 3499 3328 3409 3190 3371 3203 3518 3225 3370 3242 3486 3194 3410 3257 3458 3300 3439 3377 3593 3261 3522 3179 3498 3246 3426 3183 3478 3213 3439 3285 3422 3223 3473 3252 3282 3180 3381 3199 3371 3245 3422 3223 3452 3162 3347 3213 3342 3257 3384 3158 3357 3110 3272 3170 3386 3023 3385 3067 3221 2997 3138 2740 2541    0 
   0 1833 2262 2434 2726 2477 2699 2605 2859 2659 2773 2663 2850 2714 2957 2670 2946 2796 3069 2760 3015 2914 3165 2883 3106 3006 3106 3065 3218 3170 3263 3126 3287 3188 3358 3101 3304 3073 3313 3146 3377 3129 3315 3170 3336 3147 3418 3211 3389 3106 3373 3223 3278 3185 3305 3181 3357 3226 3285 3153 3306 3099 3280 3213 3308 3112 3259 3110 3250 3131 3226 3045 3212 2973 3256 3037 3220 3042 3095 3014 3138 2980 3108 2920 3153 2964 3162 2906 3077 2853 3129 2944 3089 2855 3017 2903 3044 2842 3050 2831 2957 2754 3034 2647 2879 2537 2331    0 
   0 1635 2221 2260 2518 2411 2638 2452 2602 2410 2697 2423 2772 2586 2846 2574 2717 2677 2825 2734 2900 2737 3056 2709 2954 2859 3055 2973 3116 3006 3092 2970 3172 3084 3229 3037 3221 2966 3180 3054 3223 3013 3266 3013 3197 3063 3282 3086 3186 3004 3306 3157 3116 3013 3236 2977 3150 2988 3252 3032 3165 3059 3156 3045 3245 3021 3145 2959 3197 2992 3222 3033 3149 2982 3208 2973 3099 2917 3056 2942 3130 2946 3006 2771 3108 2883 3075 2790 3042 2785 3058 2782 2984 2744 3000 2824 2965 2812 2958 2737 2810 2634 2877 2577 2717 2379 2265    0 
   0 1181 1805 1867 2057 1865 2109 1941 2294 2049 2204 2091 2247 2093 2341 2093 2413 2226 2447 2236 2511 2372 2576 2409 2639 2509 2699 2458 2606 2545 2729 2570 2726 2623 2752 2569 2728 2610 2786 2630 2813 2549 2806 2582 2705 2637 2789 2702 2846 2619 2852 2713 2762 2625 2842 2622 2821 2706 2866 2673 2778 2635 2850 2729 2792 2566 2846 2623 2755 2558 2752 2619 2820 2516 2831 2581 2765 2523 2682 2585 2626 2549 2670 2481 2734 2570 2757 2447 2627 2438 2667 2562 2711 2422 2586 2381 2553 2489 2678 2215 2487 2271 2485 2235 2403 2045 1873    0 
   0 1545 2066 2213 2460 2258 2455 2314 2561 2412 2605 2448 2686 2458 2716 2498 2774 2585 2882 2619 2878 2742 3056 2826 2989 2873 3154 2937 3087 3011 3168 3051 3174 3113 3210 3162 3343 3116 3325 3100 3355 3155 3393 3150 3366 3194 3450 3147 3453 3120 3453 3316 3430 3314 3451 3250 3414 3282 3418 3274 3394 3309 3451 3230 3451 3294 3437 3214 3400 3253 3435 3208 3476 3196 3450 3116 3292 3200 3390 3205 3380 3218 3346 3190 3418 3152 3404 3026 3277 3163 3342 3204 3292 3049 3372 3019 3259 2990 3251 2980 3154 2933 3223 2939 3150 2778 2493    0 
   0 1918 2447 2446 2667 2513 2715 2679 2857 2626 2833 2650 2818 2894 3016 2838 2989 2831 3066 2878 3109 2925 3081 2997 3208 3145 3185 3106 3240 3034 3259 3061 3212 3061 3319 3224 3385 3170 3259 3085 3301 3101 3349 3189 3362 3149 3208 3195 3282 3158 3334 3128 3358 3088 3337 3114 3321 3119 3326 3090 3290 3154 3263 3141 3293 3166 3240 3101 3214 3089 3242 2981 3222 3014 3253 3107 3189 3005 3205 2979 3188 2964 3254 2959 3157 2966 3190 3025 3148 2944 3085 2869 3076 3001 3101 2922 3061 2904 2994 2805 2916 2808 2986 2749 2905 2389 2205    0 
   0 1689 2242 2349 2381 2293 2568 2450 2717 2437 2674 2486 2766 2578 2802 2690 2827 2668 2925 2693 2932 2733 2906 2897 2966 2908 3062 2869 3154 2939 3185 2895 3150 2973 3219 3099 3257 3021 3065 3038 3263 3091 3192 3045 3277 3021 3157 3113 3170 2922 3261 3097 3236 2979 3214 2957 3181 2969 3255 3081 3223 3015 3242 3026 3159 2987 3253 2933 3117 2930 3154 2884 3173 2918 3130 3033 3162 2925 3142 2865 3052 2904 3111 2874 3074 2901 3094 2842 3034 2809 2984 2810 2954 2890 2949 2676 2997 2833 3018 2670 2858 2728 2910 2629 2770 2283 2129    0 
   0 1266 1857 1782 2011 1956 2133 2081 2266 2007 2270 2119 2261 2261 2494 2232 2421 2253 2494 2314 2510 2278 2572 2483 2598 2579 2551 2498 2725 2467 2734 2569 2646 2587 2791 2612 2763 2631 2740 2664 2866 2604 2790 2682 2868 2696 2823 2603 2865 2514 2861 2713 2811 2621 2909 2652 2858 2617 2802 2680 2925 2747 2817 2632 2818 2642 2855 2551 2859 2575 2784 2621 2832 2549 2761 2673 2762 2579 2757 2589 2704 2574 2752 2509 2726 2603 2718 2555 2712 2497 2588 2454 2645 2493 2603 2386 2618 2496 2683 2365 2561 2323 2565 2301 2463 1984 1753    0 
   0 1487 2127 2171 2348 2191 2417 2359 2565 2326 2686 2461 2733 2480 2792 2639 2890 2662 2918 2706 2916 2790 2999 2903 3140 2907 3034 2971 3225 3007 3237 3069 3185 3005 3271 3172 3283 3122 3223 3152 3315 3149 3329 3197 3410 3219 3376 3175 3284 3172 3378 3225 3316 3147 3386 3217 3460 3234 3437 3281 3486 3189 3441 3305 3416 3278 3400 3187 3365 3169 3407 3201 3407 3155 3419 3276 3444 3236 3312 3193 3395 3247 3453 3138 3316 3225 3378 3184 3373 3066 3366 3106 3402 3158 3255 3055 3268 3098 3276 3042 3216 3072 3309 2993 3186 2519 2333    0 
   0 1819 2317 2332 2677 2466 2712 2492 2743 2619 2778 2706 2842 2696 2913 2732 2913 2831 2952 2880 2893 2894 3163 2864 3182 2969 3177 2965 3259 3074 3227 3050 3229 3037 3237 3148 3246 3090 3189 3085 3376 3080 3326 3099 3214 3143 3293 3001 3311 3102 3216 3046 3283 3134 3252 3047 3322 3165 3338 3114 3302 3093 3287 2991 3172 3037 3182 3058 3117 3026 3268 3005 3186 3017 3147 2996 3163 2915 3051 2839 3126 2906 3125 2875 3105 2930 3138 2873 3020 2894 3088 2982 2958 2933 3008 2836 3022 2756 2986 2805 2905 2706 2958 2681 2806 2402 2285    0 
   0 1641 2165 2172 2566 2338 2521 2330 2584 2453 2603 2518 2679 2629 2843 2600 2834 2715 2882 2753 2896 2747 2973 2738 3085 2881 3054 2935 3095 2879 3247 2872 3144 2962 3114 2970 3189 2929 3106 2973 3262 2930 3143 3031 3122 3022 3218 2915 3234 2934 3102 3033 3226 2965 3228 2971 3198 2994 3139 3036 3213 3062 3226 3008 3210 2996 3248 2957 3059 3037 3165 2942 3202 2858 3082 2867 3026 2845 3030 2865 3109 2909 3094 2845 3023 2909 3045 2811 2952 2826 3053 2823 2948 2798 2949 2782 2900 2650 3018 2730 2918 2615 2853 2547 2740 2306 2124    0 
   0 1201 1672 1797 2146 1894 2142 1922 2156 1926 2173 2125 2311 2186 2326 2255 2373 2263 2469 2367 2511 2257 2587 2390 2530 2389 2644 2438 2697 2438 2619 2480 2658 2529 2724 2612 2732 2569 2608 2498 2750 2548 2702 2669 2771 2573 2801 2593 2888 2550 2731 2650 2865 2557 2801 2626 2826 2654 2733 2763 2727 2612 2774 2549 2852 2611 2792 2523 2628 2606 2804 2571 2806 2540 2698 2628 2713 2500 2737 2506 2726 2500 2718 2482 2687 2514 2686 2516 2594 2377 2672 2604 2601 2401 2621 2398 2652 2284 2634 2393 2562 2310 2468 2180 2394 1989 1813    0 
   0 1537 2039 2101 2438 2249 2410 2277 2449 2346 2555 2468 2707 2510 2766 2568 2791 2666 2839 2717 2897 2761 3056 2782 3109 2897 3109 2953 3201 2954 3228 3024 3221 3064 3255 3044 3225 3043 3149 3062 3311 3073 3317 3211 3340 3188 3342 3093 3439 3153 3359 3161 3437 3186 3519 3168 3493 3252 3379 3273 3429 3257 3434 3188 3450 3216 3396 3179 3339 3210 3426 3178 3436 3250 3438 3115 3209 3150 3273 3161 3414 3201 3381 3164 3389 3144 3390 3209 3305 3120 3387 3126 3306 3029 3350 3028 3250 2992 3208 3044 3238 2982 3186 2942 3062 2710 2628    0 
   0 1847 2336 2466 2631 2521 2690 2585 2806 2659 2861 2742 2839 2769 2965 2727 3029 2829 2999 3017 3161 2901 3094 2980 3083 3066 3246 2973 3151 3027 3205 3052 3153 3147 3289 3044 3232 3122 3261 3014 3312 3161 3214 3106 3317 3122 3290 3069 3307 3141 3230 3058 3281 3138 3369 3048 3251 3093 3319 3027 3258 3087 3211 2966 3262 2991 3210 3000 3238 2987 3154 3129 3242 2978 3108 2897 3117 2989 3212 2875 3016 2877 3035 2861 3025 2814 3074 2776 3108 2845 3085 2881 3022 2831 2984 2761 2956 2778 3074 2838 2933 2778 2883 2572 2728 2354 2198    0 
   0 1634 2194 2221 2441 2340 2538 2546 2594 2457 2685 2530 2818 2611 2693 2541 2807 2597 2884 2821 2991 2770 2910 2827 3006 2830 3074 2866 2945 2894 3090 2850 3065 2968 3161 2889 3108 2941 3099 2871 3260 2978 3164 3019 3221 3029 3187 2929 3235 2994 3136 2917 3108 2981 3264 2936 3121 2979 3201 3034 3114 2975 3137 2861 3181 2961 3103 2962 3066 2846 3029 2903 3058 2828 2997 2900 3032 2907 3119 2855 3069 2869 2950 2728 2932 2770 2954 2876 3062 2691 2864 2858 2991 2729 2855 2649 2897 2709 2922 2808 2796 2689 2837 2445 2635 2226 2107    0 
   0 1242 1740 1804 2166 1907 2166 2066 2147 2092 2231 2238 2306 2213 2381 2150 2448 2292 2354 2319 2631 2338 2620 2456 2575 2451 2646 2422 2630 2561 2618 2493 2741 2586 2826 2539 2739 2629 2820 2562 2890 2625 2788 2581 2749 2621 2835 2525 2795 2618 2889 2596 2820 2581 2798 2566 2764 2645 2845 2597 2811 2637 2749 2617 2747 2574 2770 2571 2818 2621 2749 2571 2798 2522 2670 2575 2750 2619 2764 2487 2685 2479 2692 2377 2642 2468 2668 2454 2705 2481 2590 2477 2594 2523 2612 2401 2539 2419 2679 2362 2522 2315 2450 2180 2333 1966 1798    0 
   0 1451 2077 2109 2290 2234 2474 2349 2554 2390 2570 2456 2634 2537 2741 2574 2834 2573 2869 2746 3050 2722 3084 2966 3013 2917 3118 2897 3074 2946 3228 2951 3210 3116 3273 3025 3249 3165 3310 3126 3427 3096 3298 3115 3355 3157 3330 3150 3330 3110 3386 3145 3435 3247 3453 3141 3311 3224 3393 3186 3370 3199 3407 3077 3398 3208 3428 3202 3342 3172 3342 3290 3499 3097 3362 3250 3381 3202 3387 3192 3389 3185 3363 2979 3337 3055 3387 3192 3378 3114 3290 3142 3410 3033 3229 2986 3236 3058 3381 3028 3198 3034 3146 2826 3002 2677 2515    0 
   0 1681 2270 2320 2501 2474 2642 2525 2791 2603 2785 2623 2742 2783 2952 2766 2988 2830 2962 2858 3122 2834 3065 2943 3122 2926 3165 3035 3175 3018 3308 2930 3208 3006 3310 3060 3146 3110 3285 3129 3240 3064 3250 3080 3309 3124 3237 3088 3316 3119 3229 3131 3254 3192 3258 3065 3250 3021 3222 2962 3194 3077 3228 3077 3248 3069 3278 2976 3236 2963 3152 3005 3178 3033 3273 3017 3089 2922 3105 2955 3114 2893 3003 2826 2997 2806 3082 2927 3087 2831 3053 2760 2916 2911 2972 2659 2919 2846 2882 2778 2885 2797 2770 2558 2733 2261 2149    0 
   0 1531 2213 2169 2389 2308 2582 2374 2651 2437 2634 2516 2609 2529 2722 2614 2795 2686 2882 2724 2914 2726 2890 2782 3005 2848 2996 2941 3119 2946 3177 2798 3095 2942 3225 2996 3077 2954 3127 2989 3086 2897 3123 2978 3120 2914 3129 2934 3282 3038 3085 2948 3142 2939 3117 3015 3197 2921 3182 2906 3134 2980 3111 2967 3079 2894 3134 2850 3106 2864 3078 2974 3066 2864 3193 2874 3030 2868 3056 2795 3037 2845 2992 2824 2877 2717 2959 2823 2941 2735 2986 2730 2948 2817 2825 2609 2793 2749 2738 2555 2750 2661 2738 2501 2620 2157 2090    0 
   0 1215 1654 1724 1942 1932 2091 1933 2173 2065 2263 2036 2242 2108 2281 2093 2262 2258 2365 2312 2458 2330 2485 2331 2484 2350 2621 2372 2630 2481 2714 2414 2726 2461 2789 2485 2600 2425 2646 2567 2692 2462 2619 2531 2651 2573 2781 2561 2833 2630 2681 2538 2665 2589 2725 2581 2746 2525 2725 2503 2674 2550 2653 2506 2659 2577 2775 2466 2673 2465 2636 2461 2605 2546 2702 2453 2501 2489 2606 2440 2610 2393 2578 2450 2475 2373 2575 2414 2605 2364 2565 2322 2436 2390 2452 2258 2397 2309 2493 2249 2396 2321 2365 2088 2232 1828 1791    0 
   0 1468 2017 2002 2276 2244 2398 2195 2525 2342 2553 2310 2541 2545 2749 2422 2762 2634 2819 2629 2871 2733 2942 2797 3048 2780 3069 2894 3082 2926 3144 2870 3146 2962 3211 3008 3186 2963 3177 3068 3279 3054 3278 3070 3331 3074 3330 3032 3319 3086 3342 3163 3322 3122 3292 3106 3372 3102 3272 3057 3265 3166 3370 3101 3176 3109 3341 3093 3286 3049 3236 3083 3317 3037 3359 3086 3208 3098 3317 3084 3318 3049 3181 3012 3143 3004 3277 3099 3246 3113 3237 3095 3266 3093 3284 2926 3180 3008 3161 2894 3101 2971 3044 2829 2948 2436 2491    0 
   0 1928 2273 2411 2644 2409 2549 2492 2698 2638 2805 2635 2794 2676 2854 2731 2875 2722 2910 2735 2878 2802 3005 2930 2969 2818 3127 2901 3084 2981 3100 2960 3181 2986 3183 2989 3131 3045 3186 2986 3185 3038 3245 3127 3179 3053 3244 3063 3172 3105 3315 3063 3157 2986 3202 3023 3182 2905 3258 3018 3242 2988 3218 2982 3155 2932 3214 2884 3205 2918 3211 2864 3066 2911 3118 2894 3058 2876 2994 2872 3019 2856 2997 2678 2982 2827 2959 2957 2980 2825 3021 2830 3081 2862 2980 2801 2886 2697 2824 2696 2808 2696 2866 2665 2713 2314 2106    0 
   0 1670 2111 2123 2442 2244 2457 2361 2605 2429 2581 2408 2666 2474 2676 2505 2772 2593 2747 2603 2827 2675 2827 2698 2766 2722 2925 2793 3002 2842 2971 2768 3010 2809 3046 2802 2958 2917 2977 2740 3077 2826 3023 2968 3046 2929 3218 2920 3027 2973 3144 3002 3069 2917 3068 2941 3189 2814 3113 2887 3090 2902 3102 2731 2978 2829 3085 2720 2935 2794 3042 2726 3026 2775 2965 2836 2968 2737 2818 2750 2885 2760 2918 2686 2854 2700 2938 2889 2948 2741 2822 2694 2778 2733 2821 2677 2749 2555 2760 2517 2707 2658 2756 2538 2569 2141 1932    0 
   0 1282 1765 1838 2065 1890 2084 2001 2266 2062 2253 2030 2214 2102 2266 2167 2347 2173 2317 2248 2412 2216 2405 2293 2466 2341 2538 2426 2581 2441 2600 2427 2651 2378 2649 2437 2602 2491 2642 2471 2691 2551 2692 2515 2579 2565 2792 2490 2723 2673 2776 2562 2625 2535 2693 2549 2729 2489 2744 2636 2805 2578 2708 2499 2643 2408 2681 2387 2711 2530 2738 2386 2617 2473 2617 2404 2617 2377 2513 2452 2612 2416 2530 2357 2518 2388 2559 2463 2587 2379 2516 2369 2505 2441 2506 2430 2434 2253 2448 2315 2374 2263 2493 2181 2279 1949 1709    0 
   0 1547 2062 2120 2403 2206 2392 2229 2469 2401 2575 2347 2565 2474 2582 2481 2682 2530 2725 2587 2876 2713 2922 2790 2902 2678 2966 2849 3040 2892 2990 2875 3115 2829 3166 2898 3112 3057 3173 2907 3200 2993 3245 3077 3222 3117 3292 3031 3223 3131 3294 3032 3269 3051 3221 3007 3277 3042 3242 3176 3284 3014 3261 3121 3268 3121 3361 2971 3268 3060 3310 2973 3316 3059 3255 3077 3257 3029 3193 3072 3212 3004 3261 2918 3181 3090 3187 3061 3171 2997 3204 2956 3145 3093 3131 2956 3097 2929 3018 2909 3026 2905 3163 2845 2920 2547 2330    0 
   0 1884 2341 2373 2547 2438 2731 2588 2712 2574 2733 2514 2808 2585 2819 2578 2840 2740 3080 2625 2916 2918 2923 2790 2999 2804 3109 2931 3037 2925 3068 2949 3136 2969 3100 3029 3149 2941 3145 2858 3159 2908 3170 3121 3188 2990 3163 2874 3163 2988 3099 2896 3142 2895 3191 2971 3060 2958 3216 3069 3150 2994 3164 2995 3067 2969 2988 2952 3058 2800 3048 2839 2991 2873 3021 2828 3008 2790 3020 2789 3071 2746 3016 2863 2997 2793 3044 2727 2943 2733 2930 2761 2983 2843 2885 2658 2869 2642 2755 2678 2811 2628 2773 2596 2626 2309 2194    0 
   0 1589 2172 2207 2394 2246 2465 2319 2530 2352 2581 2362 2569 2413 2574 2445 2629 2538 2832 2506 2757 2715 2902 2654 2753 2668 2881 2776 2850 2794 2962 2736 2933 2842 2980 2818 2970 2842 2994 2754 3036 2859 3108 2920 3067 2884 2991 2788 3120 2892 3077 2791 3025 2800 3004 2910 2996 2842 3042 2860 3028 2797 2995 2849 2903 2825 2901 2864 2896 2766 2925 2761 2913 2773 2803 2777 2951 2708 2931 2690 2925 2723 2871 2671 2856 2646 2933 2660 2873 2600 2882 2757 2854 2726 2852 2565 2796 2542 2698 2533 2674 2565 2685 2533 2639 2091 2010    0 
   0 1251 1736 1755 1949 1807 2110 1954 2077 1991 2033 1894 2146 1958 2233 2104 2221 2089 2345 2018 2306 2198 2257 2147 2340 2228 2429 2245 2471 2334 2490 2346 2550 2403 2558 2388 2452 2331 2522 2357 2599 2439 2643 2565 2615 2342 2600 2424 2613 2447 2618 2458 2618 2469 2479 2436 2594 2458 2699 2589 2670 2440 2525 2425 2577 2484 2605 2346 2489 2478 2567 2357 2561 2374 2500 2377 2519 2340 2546 2294 2563 2378 2516 2410 2554 2301 2519 2275 2470 2352 2475 2423 2448 2310 2511 2291 2472 2118 2361 2197 2333 2201 2387 2053 2114 1892 1730    0 
   0 1466 2043 2017 2217 2074 2397 2190 2438 2273 2448 2121 2564 2329 2609 2429 2583 2509 2824 2420 2727 2624 2746 2568 2769 2662 2858 2704 2996 2786 2916 2740 3058 2780 2982 2756 2990 2834 3066 2877 3095 2930 3157 2991 3159 3001 3157 2927 3153 3005 3216 2989 3259 2920 3165 3051 3155 2986 3315 3081 3300 3056 3287 3119 3142 3050 3220 2998 3221 3023 3206 2959 3205 2998 3132 2980 3157 2939 3170 2934 3179 3052 3180 2969 3146 2994 3253 2926 3128 2963 3198 2996 3139 2963 3112 2921 3035 2870 3048 2821 2999 2930 3000 2858 2829 2509 2389    0 
   0 1634 2155 2161 2324 2194 2461 2231 2533 2263 2373 2274 2455 2417 2602 2502 2611 2420 2728 2578 2618 2478 2752 2552 2703 2639 2786 2590 2837 2666 2869 2731 2843 2750 2946 2741 2856 2834 2904 2816 2933 2789 2985 2843 2882 2739 2960 2717 2892 2794 2861 2689 2947 2735 2910 2754 2970 2693 2884 2726 2813 2832 3010 2714 2905 2667 2850 2634 2923 2635 2829 2594 2741 2593 2829 2578 2747 2619 2825 2596 2783 2635 2760 2577 2729 2562 2769 2586 2749 2442 2712 2635 2698 2469 2653 2507 2601 2516 2649 2509 2600 2389 2653 2386 2585 2163 1929    0 
   0 1346 1882 1767 1969 1865 2089 1931 2161 1861 2091 1933 2139 2004 2179 2100 2228 2085 2347 2160 2314 2157 2379 2260 2468 2327 2432 2243 2539 2301 2490 2307 2434 2331 2553 2442 2609 2455 2507 2502 2614 2388 2638 2521 2566 2437 2679 2442 2606 2291 2639 2365 2579 2443 2672 2420 2666 2426 2641 2411 2583 2493 2600 2429 2602 2434 2619 2370 2653 2409 2540 2394 2570 2384 2580 2308 2512 2387 2631 2374 2437 2277 2468 2334 2327 2290 2384 2291 2427 2202 2524 2322 2465 2194 2381 2107 2359 2231 2407 2125 2299 2099 2286 2098 2242 1832 1657    0 
   0  570 1009 1064 1314 1110 1361 1136 1462 1156 1403 1247 1482 1335 1533 1413 1444 1337 1558 1366 1502 1434 1681 1490 1639 1593 1614 1474 1770 1636 1746 1645 1763 1689 1830 1713 1870 1718 1804 1742 1818 1705 1954 1731 1819 1665 1780 1653 1876 1678 1843 1613 1845 1721 1903 1676 1879 1714 1858 1705 1840 1783 1925 1677 1919 1733 1875 1676 1933 1649 1854 1738 1845 1666 1781 1657 1841 1564 1869 1655 1898 1733 1781 1582 1714 1557 1833 1643 1774 1573 1813 1621 1736 1491 1669 1507 1722 1559 1655 1458 1613 1499 1674 1495 1622 1201 1138    0 
   0    0    0    0    0    0    0    0    0    0    0    0    0    0    0    0    0    0    0    0    0    0    0    0    0    0    0    0    0    0    0    0    0    0    0    0    0    0    0    0    0    0    0    0    0    0    0    0    0    0    0    0    0    0    0    0    0    0    0    0    0    0    0    0    0    0    0    0    0    0    0    0    0    0    0    0    0    0    0    0    0    0    0    0    0    0    0    0    0    0    0    0    0    0    0    0    0    0    0    0    0    0    0    0    0    0    0    0 