P2
108 88
4095


   0    0    0    0    0    0    0    0    0    0    0    0    0    0    0    0    0    0    0    0    0    0    0    0    0    0    0    0    0    0    0    0    0    0    0    0    0    0    0    0    0    0    0    0    0    0    0    0    0    0    0    0    0    0    0    0    0    0    0    0    0    0    0    0    0    0    0    0    0    0    0    0    0    0    0    0    0    0    0    0    0    0    0    0    0    0    0    0    0    0    0    0    0    0    0    0    0    0    0    0    0    0    0    0    0    0    0    0 
   0 1079 1576 1654 1726 1611 1865 1706 1894 1738 1939 1866 2050 1865 2055 1838 1989 1895 2211 1997 2195 2017 2295 2059 2306 2026 2267 2117 2306 2098 2359 2225 2459 2121 2371 2324 2409 2266 2411 2308 2472 2260 2442 2267 2538 2389 2466 2317 2475 2220 2450 2282 2474 2293 2440 2288 2547 2164 2467 2347 2575 2183 2509 2299 2443 2254 2459 2266 2420 2229 2397 2228 2330 2091 2274 2118 2347 2122 2233 2074 2394 2111 2410 2114 2266 2080 2267 2126 2223 2036 2298 2102 2180 1974 2370 2170 2153 1961 2273 2010 2115 1947 2122 1894 2137 1698 1461    0 
   0  962 1514 1495 1722 1655 1937 1735 1828 1810 1826 1724 1867 1850 2027 1843 2021 1855 2147 2047 2186 1958 2209 2066 2211 1957 2274 2027 2243 2061 2446 2114 2314 2117 2367 2238 2426 2274 2418 2330 2500 2311 2397 2194 2532 2337 2481 2340 2577 2249 2442 2289 2413 2274 2467 2285 2506 2231 2465 2301 2600 2214 2453 2207 2377 2292 2493 2266 2415 2294 2484 2232 2364 2176 2356 2179 2413 2178 2286 2091 2256 2105 2325 2091 2347 2063 2278 2136 2297 2261 2348 2123 2308 2149 2285 2118 2287 2029 2281 2114 2134 2090 2292 1821 2139 1706 1598    0 
   0 1365 1919 1925 2145 2045 2310 2074 2270 2123 2294 2229 2404 2308 2560 2217 2523 2286 2608 2519 2657 2517 2763 2484 2749 2545 2844 2682 2821 2682 3001 2807 3017 2629 2993 2845 2996 2813 3059 2890 3127 2850 3096 2917 3226 2907 3162 2934 3246 2866 3172 2966 3200 2875 3222 2878 3273 3003 3114 2988 3151 2994 3249 2977 3137 3021 3167 2905 3078 2902 3182 2877 3175 2901 3125 2910 3110 2922 3214 2826 3055 2793 3149 2884 3145 2808 3125 2857 2971 2894 3162 2888 3056 2830 3062 2837 3072 2828 3041 2899 2916 2747 3011 2649 2909 2458 2270    0 
   0 1840 2345 2370 2640 2667 2629 2457 2658 2582 2739 2607 2813 2626 2836 2729 2847 2858 2858 2772 2907 2799 3124 2810 3125 3003 3127 3010 3144 2906 3164 3028 3190 2951 3240 3108 3250 3144 3303 3115 3250 3092 3244 2981 3237 3131 3302 3010 3204 3018 3195 3044 3146 2994 3311 3085 3224 3089 3234 3091 3237 3074 3211 3005 3164 2985 3206 2956 3140 2934 3231 2888 3088 2880 3058 2970 3164 2872 3099 2886 3076 2898 3122 2957 2963 2867 3013 2812 3037 2941 2922 2891 3044 2774 2989 2832 2955 2716 2945 2724 2882 2795 2884 2604 2779 2303 2226    0 
   0 1656 2229 2192 2418 2329 2504 2380 2500 2447 2583 2442 2711 2442 2742 2635 2741 2658 2743 2682 2837 2643 2961 2700 3013 2780 3052 2844 2989 2837 3147 2837 3080 2871 3175 2907 3154 3072 3157 2962 3170 2963 3144 2949 3142 2962 3149 2994 3121 3006 3092 2871 3257 2811 3076 2987 3090 2920 3089 2953 3154 2947 3072 2893 3125 2820 3154 2797 3150 2862 3092 2762 3102 2908 2986 2862 3029 2817 3054 2784 3020 2783 3016 2772 2924 2795 2908 2700 2923 2763 2907 2793 2921 2745 2994 2671 2883 2661 2875 2659 2826 2726 2821 2463 2778 2274 2069    0 
   0 1266 1796 1813 1988 2033 2021 1925 2123 1943 2216 1978 2310 2090 2329 2210 2258 2249 2255 2273 2344 2306 2571 2301 2658 2427 2606 2397 2655 2426 2724 2503 2745 2546 2755 2502 2753 2658 2757 2614 2812 2587 2754 2659 2802 2641 2858 2570 2721 2560 2775 2633 2701 2546 2749 2569 2713 2582 2833 2626 2725 2626 2741 2533 2779 2536 2700 2602 2731 2530 2743 2466 2644 2497 2665 2435 2697 2508 2708 2486 2682 2446 2614 2450 2541 2396 2542 2389 2554 2477 2553 2536 2582 2402 2685 2366 2661 2355 2601 2316 2537 2450 2517 2192 2413 1879 1833    0 
   0 1568 2194 2158 2389 2378 2491 2313 2486 2426 2560 2361 2734 2562 2730 2518 2758 2654 2750 2682 2856 2686 3025 2772 3069 2902 3104 2869 3202 2820 3267 3058 3232 2986 3291 3026 3265 3163 3332 3114 3329 3034 3298 3101 3348 3130 3430 3231 3325 3268 3464 3150 3394 3094 3515 3246 3378 3272 3441 3227 3438 3237 3390 3168 3461 3108 3433 3236 3333 3121 3437 3107 3300 3076 3288 3099 3277 3067 3382 3061 3357 3022 3341 3155 3309 3085 3271 3048 3226 3075 3229 3210 3322 3067 3345 2989 3259 2919 3261 2989 3182 3109 3171 2882 3099 2575 2625    0 
   0 1832 2322 2374 2569 2514 2703 2593 2756 2529 2738 2576 2881 2667 2890 2830 2962 2800 2929 2820 3035 2929 3053 2975 3030 2907 3147 2989 3110 2961 3150 3097 3201 3010 3259 3101 3230 3094 3242 3071 3297 3088 3222 3068 3283 3062 3259 3124 3257 3108 3319 3155 3279 3062 3302 3162 3241 3114 3229 3094 3340 3100 3345 3098 3262 3026 3210 3041 3288 2987 3214 2957 3202 2981 3152 2931 3176 2953 3101 2907 3078 2909 3021 2870 3067 2863 3062 2921 3031 2859 2987 2758 3025 2778 3010 2797 3021 2756 2987 2732 2981 2785 2941 2615 2748 2501 2190    0 
   0 1755 2315 2221 2511 2221 2543 2372 2610 2393 2611 2509 2671 2578 2637 2566 2779 2675 2837 2686 2897 2710 2818 2757 2899 2693 3058 2788 3057 2930 3124 2926 3133 2926 3197 2910 3134 2945 3185 3026 3238 2964 3138 2946 3196 2939 3080 3021 3162 3012 3216 3041 3178 2978 3262 3115 3126 2996 3125 2894 3178 2971 3141 2925 3146 3067 3174 2921 3142 2901 3165 3035 3045 2902 3146 2927 3041 2869 3054 2885 3013 2861 2984 2770 2929 2797 3037 2781 3022 2757 2968 2732 2916 2665 2917 2605 2935 2708 2889 2578 2841 2629 2858 2437 2666 2408 2178    0 
   0 1352 1834 1773 2039 1946 2032 1899 2143 2010 2212 2165 2297 2165 2359 2115 2381 2322 2506 2338 2525 2363 2477 2440 2521 2375 2581 2421 2549 2537 2746 2570 2716 2603 2881 2602 2708 2638 2733 2604 2914 2662 2802 2619 2810 2549 2849 2650 2836 2638 2841 2633 2831 2659 2857 2706 2835 2638 2861 2589 2906 2614 2845 2625 2853 2682 2861 2546 2859 2602 2854 2604 2843 2598 2842 2574 2758 2572 2678 2486 2654 2539 2685 2506 2673 2509 2668 2501 2653 2485 2649 2429 2713 2494 2642 2274 2661 2387 2617 2276 2555 2327 2446 2319 2365 1981 1861    0 
   0 1568 2146 2070 2259 2261 2443 2269 2481 2373 2570 2417 2682 2406 2638 2493 2729 2714 2856 2711 2914 2757 2810 2847 2917 2845 3025 2917 3180 2890 3181 3085 3316 2951 3314 3030 3230 3046 3274 3043 3385 3042 3268 3069 3327 3131 3364 3149 3400 3173 3439 3158 3405 3209 3483 3179 3392 3116 3368 3170 3512 3217 3435 3205 3413 3290 3338 3188 3417 3152 3410 3192 3453 3277 3446 3189 3410 3161 3347 3175 3335 3175 3375 3140 3362 2995 3332 3139 3346 3069 3269 3035 3284 3095 3301 2965 3301 2989 3314 2986 3196 2950 3146 2877 3026 2709 2500    0 
   0 1882 2398 2365 2724 2485 2731 2560 2882 2662 2949 2626 2899 2695 2939 2609 2906 2787 3019 2829 3074 2794 3092 2820 3118 2985 3218 2895 3190 2990 3179 3043 3246 3085 3298 3057 3349 3090 3305 2957 3329 3020 3308 3210 3386 3146 3341 3229 3333 3106 3376 3068 3413 3100 3369 3156 3321 3286 3397 3230 3350 3030 3320 3044 3258 3032 3223 3049 3239 3012 3269 3007 3131 3055 3221 3049 3202 2897 3161 2910 3150 2914 3063 3065 3116 2903 3125 2906 3005 2838 3029 2866 3063 2907 3163 2754 3069 2818 2967 2818 2962 2724 2933 2698 2841 2510 2254    0 
   0 1701 2201 2210 2550 2334 2626 2518 2579 2378 2889 2407 2682 2561 2820 2538 2780 2571 2832 2629 2954 2735 3013 2822 3014 2871 3044 2861 3101 2989 3127 2890 3091 2902 3123 2973 3240 2982 3168 3069 3258 2958 3252 3045 3184 3035 3262 3002 3190 2984 3267 2971 3238 3076 3255 3041 3320 3116 3212 3053 3193 2908 3203 2868 3120 2922 3161 3012 3194 2933 3187 2914 3163 2813 3152 2896 3101 2789 3042 2902 3097 2872 2981 2941 3018 2777 3034 2867 2960 2826 2926 2757 2957 2723 3061 2633 2941 2667 2889 2664 2841 2617 2869 2646 2742 2333 2194    0 
   0 1309 1806 1835 2126 2004 2220 2034 2285 1997 2333 2076 2250 2170 2324 2120 2380 2185 2465 2317 2489 2298 2539 2396 2562 2426 2685 2481 2739 2583 2731 2585 2685 2575 2761 2554 2704 2610 2816 2554 2823 2541 2874 2756 2802 2737 2890 2617 2898 2659 2889 2683 2873 2691 2918 2601 2917 2676 2799 2649 2873 2610 2906 2590 2715 2642 2732 2617 2724 2517 2827 2443 2739 2661 2726 2578 2677 2394 2683 2481 2744 2509 2679 2655 2685 2499 2765 2476 2604 2485 2642 2362 2600 2386 2666 2401 2574 2351 2481 2314 2586 2341 2533 2274 2450 2002 1817    0 
   0 1585 2166 2165 2522 2309 2582 2359 2664 2445 2757 2445 2813 2538 2833 2511 2830 2640 2920 2697 3002 2772 3020 2795 3127 2858 3225 2999 3177 3085 3162 3074 3263 3000 3311 3059 3357 3114 3356 3085 3361 3135 3386 3301 3462 3221 3425 3310 3447 3255 3442 3245 3515 3264 3563 3304 3542 3400 3572 3309 3605 3181 3584 3243 3446 3258 3485 3316 3484 3206 3547 3224 3472 3289 3511 3216 3444 3205 3438 3208 3426 3205 3412 3246 3483 3300 3443 3182 3350 3242 3312 3164 3336 3150 3419 3067 3331 3130 3283 2978 3294 3038 3349 3009 3213 2671 2511    0 
   0 1954 2437 2410 2690 2669 2826 2602 2779 2634 2878 2702 2931 2717 2864 2730 2923 2747 3039 2840 3095 2945 3125 2982 3149 2981 3178 3087 3257 3169 3262 3149 3347 3138 3337 3131 3370 3162 3382 3166 3337 3116 3383 3192 3389 3236 3341 3180 3350 3185 3386 3213 3325 3119 3365 3161 3300 3202 3415 3189 3349 3197 3422 3124 3310 3142 3322 3133 3290 3095 3301 2973 3244 2971 3265 3088 3133 2971 3099 3010 3246 2916 3174 2922 3176 2996 3218 2907 3133 2933 3125 3002 3076 2916 3069 2922 3013 2858 3013 2768 2955 2877 2972 2643 2885 2562 2313    0 
   0 1802 2333 2353 2575 2448 2683 2501 2668 2532 2603 2587 2886 2567 2850 2666 2866 2581 2885 2702 2971 2810 3076 2865 3055 2887 3155 2911 3208 3096 3173 3059 3227 2953 3325 3097 3282 3034 3280 3131 3310 3065 3391 3218 3325 3149 3316 3096 3236 3196 3304 3185 3295 3107 3333 3160 3301 3194 3383 3117 3366 3126 3318 3158 3273 3101 3222 3145 3221 2973 3249 2978 3163 2878 3139 2975 3129 2889 3075 2901 3198 2893 3095 2966 3122 2906 3170 2834 3099 2916 3084 2938 2926 2807 3034 2809 3014 2734 3003 2683 2877 2738 2971 2570 2757 2502 2269    0 
   0 1385 2001 1895 2123 2095 2210 2084 2290 2082 2217 2148 2347 2180 2333 2229 2394 2161 2442 2325 2587 2348 2550 2416 2568 2494 2658 2564 2716 2624 2653 2636 2743 2565 2871 2645 2820 2644 2852 2764 2920 2676 2874 2817 2921 2717 2956 2732 2874 2687 2815 2750 2828 2750 2820 2724 2958 2717 2953 2783 2964 2685 2951 2820 2801 2623 2842 2746 2847 2660 2893 2571 2776 2533 2825 2648 2653 2506 2663 2525 2797 2588 2670 2623 2661 2536 2742 2446 2776 2615 2620 2574 2561 2542 2637 2461 2666 2436 2517 2323 2504 2474 2632 2300 2414 2075 1915    0 
   0 1628 2205 2174 2434 2327 2529 2429 2642 2433 2570 2530 2737 2542 2677 2517 2877 2570 2908 2657 2921 2740 2986 2871 3041 3009 3239 2932 3162 3065 3187 3062 3221 3004 3325 3176 3254 3080 3349 3118 3420 3086 3430 3205 3332 3295 3557 3250 3444 3302 3531 3299 3465 3186 3502 3256 3400 3341 3480 3285 3556 3275 3574 3390 3483 3230 3433 3368 3474 3241 3564 3182 3421 3219 3541 3208 3386 3254 3373 3144 3541 3199 3371 3160 3341 3230 3413 3149 3467 3237 3344 3226 3302 3157 3318 3130 3278 3122 3290 3014 3236 3052 3338 3020 3150 2813 2670    0 
   0 1821 2416 2487 2738 2659 2875 2615 2813 2605 2866 2747 2909 2726 2890 2737 2953 2772 3009 2876 3063 2973 3116 3060 3243 2919 3323 3137 3269 3186 3289 3082 3377 3161 3315 3165 3309 3118 3254 3186 3401 3224 3312 3194 3474 3153 3378 3154 3488 3241 3343 3254 3402 3262 3403 3135 3339 3196 3364 3142 3386 3302 3351 3174 3248 3140 3343 3230 3358 3105 3277 3059 3248 3150 3197 3085 3266 2971 3217 3022 3226 2954 3110 2946 3155 2968 3156 2821 3159 2941 3093 2885 3109 2954 3105 2869 2999 2810 3160 2852 3074 2866 3056 2806 2834 2529 2298    0 
   0 1698 2258 2306 2611 2471 2754 2530 2783 2477 2666 2584 2856 2630 2769 2689 2866 2664 2996 2699 2984 2754 3054 2873 3050 2910 3210 2989 3116 3049 3149 3008 3290 3076 3201 3078 3314 3092 3292 3070 3324 3161 3318 3188 3340 3086 3322 3062 3390 3119 3366 3272 3365 3183 3338 3153 3419 3209 3457 3161 3266 3157 3274 3130 3259 3090 3239 3063 3211 3028 3259 3012 3163 2957 3178 3037 3150 2910 3198 2952 3073 2948 3193 2933 3103 2906 3035 2931 3100 2930 3070 2843 3014 2777 3116 2820 2995 2797 3026 2866 2905 2761 3006 2646 2794 2381 2164    0 
   0 1332 1908 1869 2070 2100 2325 2126 2250 2069 2295 2155 2391 2233 2409 2225 2382 2344 2511 2315 2533 2394 2553 2438 2702 2470 2647 2525 2716 2600 2738 2536 2809 2679 2861 2653 2846 2726 2869 2681 2992 2683 2897 2847 3067 2662 2855 2722 3032 2724 2942 2755 2973 2694 2937 2650 2925 2861 3033 2709 2939 2827 2974 2772 2861 2813 2977 2701 2857 2646 2834 2644 2874 2675 2765 2568 2813 2657 2864 2587 2789 2545 2799 2621 2721 2539 2760 2441 2701 2540 2740 2517 2585 2465 2704 2502 2568 2441 2715 2521 2633 2410 2580 2383 2309 2081 1938    0 
   0 1517 2251 2203 2514 2408 2676 2460 2677 2459 2714 2545 2733 2677 2880 2738 2958 2763 2974 2763 2985 2856 3051 2934 3216 2996 3369 2981 3182 3048 3273 3044 3460 3058 3346 3259 3422 3218 3400 3205 3498 3334 3464 3309 3602 3308 3630 3221 3643 3348 3451 3402 3634 3382 3624 3336 3568 3389 3586 3434 3560 3412 3574 3379 3483 3349 3509 3315 3492 3286 3576 3259 3559 3304 3493 3281 3485 3371 3597 3232 3476 3266 3485 3212 3418 3237 3471 3202 3465 3176 3507 3173 3290 3176 3494 3127 3313 3086 3373 3138 3298 3078 3304 2995 3064 2761 2584    0 
   0 1860 2325 2482 2742 2605 2794 2702 2893 2677 2901 2693 2897 2730 2921 2766 2922 2821 3061 2914 3066 2890 3101 2957 3176 2974 3278 3056 3266 2960 3292 3075 3309 3044 3371 3208 3369 3201 3332 3155 3440 3118 3381 3309 3502 3162 3406 3286 3418 3252 3386 3157 3447 3198 3499 3167 3353 3250 3405 3320 3325 3207 3204 3223 3380 3037 3291 3109 3259 3129 3272 2984 3253 2980 3221 3091 3243 3026 3083 2988 3162 2964 3182 2958 3142 2960 3138 2884 3053 2892 3146 2972 3086 2868 2970 2884 3093 2866 2994 2757 2934 2772 2949 2650 2771 2413 2205    0 
   0 1802 2289 2461 2619 2491 2742 2426 2657 2413 2760 2626 2889 2683 2916 2675 2939 2802 2998 2781 3064 2844 3060 2811 3014 2888 3209 2948 3138 2996 3258 3005 3173 3049 3269 3024 3285 3025 3299 3225 3302 3066 3337 3210 3258 3144 3374 3269 3510 3220 3428 3186 3460 3170 3376 3142 3346 3120 3400 3242 3303 3187 3354 3134 3293 3145 3261 3063 3289 3161 3292 2987 3233 2946 3162 3058 3238 2960 3118 3021 3112 2933 3122 3025 3100 2909 3056 2912 3065 2820 3193 2778 3074 2801 2974 2823 2981 2753 2934 2668 2906 2690 2866 2608 2677 2353 2211    0 
   0 1368 1936 1953 2194 2005 2283 2114 2271 2090 2290 2197 2497 2180 2473 2253 2477 2244 2556 2377 2570 2498 2570 2462 2658 2398 2746 2577 2665 2603 2750 2619 2772 2564 2893 2686 2856 2708 2879 2722 2917 2682 2839 2785 2905 2685 2915 2789 2979 2769 2945 2774 2947 2695 2972 2788 2965 2744 3028 2843 2856 2711 2954 2794 2924 2725 2887 2706 2821 2738 2895 2596 2792 2554 2911 2707 2820 2594 2713 2545 2842 2589 2779 2603 2826 2537 2710 2407 2629 2604 2778 2413 2710 2438 2652 2490 2596 2388 2597 2314 2579 2502 2534 2282 2308 1994 1839    0 
   0 1629 2257 2249 2492 2383 2644 2465 2587 2441 2756 2603 2869 2662 2827 2712 2939 2810 3031 2826 3058 2872 3174 2981 3122 3016 3221 3010 3213 3016 3337 3064 3273 3010 3428 3145 3365 3158 3334 3272 3492 3224 3427 3269 3581 3268 3574 3317 3563 3294 3528 3377 3626 3308 3560 3298 3558 3380 3561 3410 3535 3284 3496 3338 3565 3346 3557 3305 3509 3291 3577 3234 3497 3189 3440 3364 3475 3252 3394 3252 3444 3145 3461 3263 3389 3205 3394 3166 3350 3172 3386 3174 3286 3130 3322 3210 3300 3082 3275 3034 3250 3008 3180 3024 3078 2626 2506    0 
   0 1944 2467 2459 2706 2625 2791 2723 2803 2662 2861 2773 2905 2781 3008 2825 3011 2865 3077 2925 3067 2949 3186 2891 3284 3077 3265 3012 3267 3162 3432 3234 3498 3254 3445 3216 3371 3168 3377 3231 3417 3270 3488 3221 3531 3291 3423 3270 3436 3152 3471 3270 3403 3218 3339 3204 3420 3151 3379 3237 3362 3240 3259 3138 3332 3274 3337 3205 3240 3095 3269 3092 3336 3081 3210 3060 3214 2950 3179 3069 3329 2942 3177 2965 3134 2891 3224 2933 3191 2979 3099 2930 3139 2928 3113 2846 3035 2826 2984 2935 2973 2872 2989 2793 2801 2479 2308    0 
   0 1813 2390 2338 2545 2488 2669 2612 2666 2596 2693 2654 2809 2775 2877 2713 2871 2724 2966 2760 2894 2811 3048 2847 3066 2910 3149 2931 3186 3075 3284 3061 3272 3058 3311 3086 3307 3109 3275 3162 3314 3188 3387 3125 3422 3208 3316 3117 3429 3163 3412 3200 3381 3143 3398 3130 3345 3126 3274 3146 3369 3104 3260 3089 3256 3169 3293 3104 3333 3026 3294 3118 3239 2931 3110 2978 3236 2945 3178 3019 3205 2909 3174 2898 3117 2878 3147 2856 3100 2869 3034 2854 2986 2875 3027 2803 2872 2724 2952 2805 2857 2693 2878 2661 2779 2436 2252    0 
   0 1394 1937 1991 2101 2006 2292 2125 2285 2093 2280 2178 2422 2224 2432 2277 2436 2227 2550 2437 2523 2421 2702 2457 2670 2489 2663 2504 2712 2587 2820 2661 2898 2738 2845 2874 2965 2701 2922 2747 2904 2707 2930 2782 3067 2776 2925 2797 2980 2781 2998 2766 2987 2716 2957 2685 2932 2725 2922 2839 2966 2789 2817 2664 2920 2764 2850 2758 2925 2595 2865 2641 2774 2626 2741 2655 2820 2561 2849 2646 2866 2625 2812 2644 2749 2582 2893 2523 2761 2545 2692 2523 2703 2519 2637 2470 2578 2346 2573 2424 2561 2397 2658 2333 2452 2086 1922    0 
   0 1770 2229 2253 2395 2410 2632 2532 2618 2471 2629 2523 2805 2578 2757 2673 2794 2746 2987 2830 2970 2856 3053 2827 3249 2937 3186 2990 3242 3129 3345 3170 3396 3194 3400 3211 3454 3217 3445 3220 3420 3255 3561 3330 3599 3295 3492 3308 3573 3268 3588 3418 3605 3320 3514 3281 3553 3327 3633 3393 3507 3339 3551 3402 3546 3406 3546 3356 3481 3346 3501 3298 3448 3317 3515 3278 3501 3223 3581 3325 3547 3322 3510 3318 3471 3248 3569 3193 3440 3307 3436 3243 3439 3207 3424 3118 3304 3134 3324 3164 3300 3077 3313 3050 3212 2754 2630    0 
   0 1932 2454 2500 2662 2607 2790 2612 2847 2617 2949 2745 2972 2788 2977 2803 2947 2743 3021 2923 2965 3045 3096 2942 3087 3054 3138 3040 3233 3083 3349 3209 3292 3099 3423 3227 3409 3190 3349 3235 3426 3130 3389 3249 3386 3343 3445 3258 3389 3190 3421 3211 3424 3150 3341 3147 3318 3228 3416 3202 3368 3214 3353 3163 3374 3100 3247 3178 3301 3085 3320 3021 3229 2952 3197 3108 3147 3093 3239 2957 3202 3005 3124 3009 3100 3014 3234 3040 3115 2923 3161 2903 3127 2844 2990 2865 3064 2878 3061 2821 2967 2770 2935 2826 2837 2516 2341    0 
   0 1830 2349 2371 2650 2532 2697 2527 2711 2581 2738 2582 2893 2701 2819 2768 2942 2753 2954 2803 3018 2858 3021 2804 3126 2853 3120 2994 3229 3001 3271 3053 3291 2997 3364 3124 3273 3139 3374 3122 3396 3213 3390 3273 3466 3270 3399 3187 3362 3208 3364 3169 3448 3101 3395 3154 3375 3145 3356 3101 3375 3016 3336 3106 3293 3148 3435 3118 3248 3083 3380 3026 3237 2994 3144 3118 3158 2978 3260 3051 3222 2927 3094 2955 3119 2954 3233 3002 3071 2993 3197 2877 3072 2749 3061 2838 3042 2916 3042 2850 2980 2792 3005 2733 2781 2444 2229    0 
   0 1425 1962 2043 2217 2114 2235 2097 2321 2068 2354 2226 2465 2358 2445 2430 2469 2346 2482 2364 2590 2494 2589 2500 2687 2455 2656 2478 2739 2618 2836 2691 2894 2598 2893 2741 2925 2698 2865 2735 2946 2744 2925 2777 2994 2880 3004 2853 2943 2774 3022 2834 3066 2721 2924 2696 2985 2789 3002 2662 2930 2742 2947 2642 2904 2678 2925 2778 2939 2791 2930 2673 2824 2645 2823 2692 2867 2602 2810 2683 2814 2604 2769 2585 2720 2596 2805 2614 2832 2566 2802 2454 2738 2473 2690 2482 2676 2586 2674 2527 2611 2459 2660 2417 2525 2107 1846    0 
   0 1693 2260 2250 2484 2395 2589 2383 2617 2433 2735 2568 2803 2693 2823 2647 2902 2737 2992 2778 3014 2873 3001 2945 3147 3005 3174 3028 3259 3133 3279 3189 3350 3133 3490 3117 3367 3130 3417 3164 3385 3274 3469 3337 3505 3385 3564 3324 3466 3329 3558 3286 3557 3285 3585 3340 3586 3362 3557 3341 3596 3407 3605 3349 3490 3314 3584 3398 3578 3339 3620 3261 3483 3326 3562 3318 3451 3340 3587 3277 3455 3254 3497 3324 3418 3208 3539 3290 3450 3258 3578 3161 3418 3195 3371 3086 3378 3223 3325 3133 3337 3010 3280 3133 3139 2776 2711    0 
   0 1837 2465 2422 2604 2573 2844 2708 2824 2711 2887 2741 2942 2810 2962 2872 3053 2842 3030 2921 3193 2940 3268 3092 3205 3069 3269 3077 3375 3134 3376 3128 3389 3053 3414 3115 3433 3263 3387 3245 3379 3236 3390 3310 3483 3332 3437 3309 3440 3234 3389 3162 3415 3238 3396 3153 3321 3261 3365 3218 3407 3221 3394 3135 3298 3153 3311 3221 3310 3112 3290 3046 3156 3083 3156 3146 3253 2935 3178 3116 3217 3048 3214 2932 3264 3032 3241 2998 3245 3012 3264 2970 3085 2846 3145 2842 3026 2870 3110 2885 3044 2986 3091 2738 2916 2532 2394    0 
   0 1693 2376 2337 2490 2469 2717 2525 2819 2585 2772 2657 2870 2705 2920 2754 3007 2774 3013 2869 3053 2859 3073 2935 3141 2910 3210 3081 3273 3062 3246 3109 3269 2981 3352 3110 3288 3169 3281 3164 3363 3097 3218 3253 3253 3149 3343 3204 3342 3138 3285 3173 3306 3224 3321 3115 3320 3185 3316 3111 3211 3135 3343 3066 3250 3069 3346 3076 3145 3077 3294 2980 3122 3034 3114 3058 3160 2936 3154 3066 3192 2909 3066 2885 3094 2909 3142 2980 3050 2890 3131 2925 2994 2874 3122 2806 2986 2717 2948 2835 3028 2905 2912 2697 2730 2327 2293    0 
   0 1298 1989 1853 2066 2061 2244 2148 2377 2186 2340 2181 2449 2270 2526 2298 2554 2293 2600 2385 2636 2440 2660 2477 2790 2435 2817 2561 2739 2590 2761 2615 2797 2600 2874 2642 2839 2612 2810 2777 2885 2730 2926 2719 2916 2732 2901 2708 2907 2793 2845 2814 2954 2807 2965 2660 2955 2699 3028 2770 2811 2741 2912 2667 2884 2770 2966 2626 2863 2722 2899 2709 2768 2655 2839 2696 2859 2618 2858 2745 2818 2634 2826 2553 2821 2628 2805 2581 2811 2569 2758 2567 2678 2484 2843 2485 2654 2398 2602 2445 2642 2438 2623 2265 2397 2071 1972    0 
   0 1653 2267 2277 2451 2480 2661 2561 2776 2487 2705 2647 2813 2709 2917 2676 2929 2853 3109 2839 3202 2959 3176 3029 3242 2972 3261 3021 3317 3137 3334 3081 3389 3035 3445 3168 3306 3208 3404 3278 3536 3328 3463 3379 3551 3304 3582 3490 3604 3309 3534 3349 3624 3433 3614 3368 3533 3459 3604 3418 3535 3366 3582 3389 3540 3376 3569 3285 3502 3214 3537 3351 3513 3261 3564 3357 3513 3194 3565 3273 3464 3345 3474 3197 3494 3280 3476 3267 3460 3225 3419 3286 3387 3153 3435 3235 3402 3112 3430 3140 3368 3240 3352 2998 3117 2917 2720    0 
   0 1921 2473 2518 2745 2544 2839 2690 2887 2761 2856 2731 2946 2806 2932 2802 3053 2892 3195 2898 3128 2994 3210 3066 3293 3031 3140 3058 3271 3077 3343 3138 3330 3075 3322 3253 3370 3211 3499 3213 3372 3316 3378 3270 3414 3266 3394 3248 3425 3142 3342 3205 3330 3194 3396 3195 3338 3197 3389 3132 3429 3113 3322 3120 3366 3002 3258 3091 3213 3059 3300 3085 3222 3099 3110 3070 3245 3018 3174 2940 3148 2939 3070 2970 3079 2993 3114 2868 3045 2963 3156 2994 3012 2818 3063 2938 3134 2856 3033 2743 3013 2778 2984 2598 2902 2422 2250    0 
   0 1795 2466 2379 2650 2525 2742 2573 2772 2581 2855 2597 2852 2786 2801 2727 2963 2838 3058 2773 3058 2886 3052 3087 3298 2971 3149 2903 3316 3069 3310 3055 3343 3127 3282 3153 3362 3168 3357 3076 3330 3147 3320 3110 3295 3255 3325 3162 3425 3166 3313 3094 3256 3129 3345 3194 3266 3052 3333 3109 3313 2999 3342 3099 3282 3033 3300 2978 3114 3093 3203 3067 3206 3017 3116 2952 3228 3020 3207 2945 3037 3050 3165 2969 3144 2964 3114 2872 3085 2906 3118 2891 2997 2886 3018 2857 2980 2818 2981 2708 2967 2804 2893 2637 2829 2427 2223    0 
   0 1334 1946 1886 2219 2063 2238 2169 2409 2243 2379 2152 2423 2341 2496 2338 2478 2484 2627 2409 2599 2505 2669 2612 2693 2573 2634 2578 2821 2678 2874 2735 2907 2709 2889 2690 2938 2811 3012 2752 2949 2748 2981 2798 2909 2831 3003 2845 2941 2795 2954 2810 2920 2792 2997 2741 2916 2797 2922 2715 2946 2746 2902 2610 2923 2674 2906 2666 2870 2661 2890 2659 2798 2742 2694 2675 2755 2681 2858 2644 2757 2577 2787 2613 2772 2540 2754 2468 2777 2600 2774 2549 2655 2506 2613 2578 2692 2498 2667 2385 2639 2452 2579 2276 2423 2067 1865    0 
   0 1624 2233 2282 2491 2409 2646 2445 2703 2529 2790 2501 2818 2722 2785 2749 2920 2804 3055 2766 3044 2877 3130 2980 3219 3044 3171 3015 3310 3072 3365 3156 3348 3175 3391 3259 3402 3254 3438 3246 3471 3173 3542 3242 3442 3389 3462 3337 3573 3405 3525 3387 3445 3341 3570 3390 3499 3332 3562 3333 3522 3221 3669 3261 3535 3312 3475 3304 3425 3287 3613 3348 3449 3370 3418 3318 3500 3314 3439 3306 3419 3218 3550 3229 3396 3289 3511 3302 3461 3189 3449 3294 3375 3163 3346 3144 3327 3200 3334 3029 3342 3101 3336 2917 3217 2760 2574    0 
   0 1936 2465 2450 2715 2692 2746 2714 2833 2688 2843 2722 2891 2865 3005 2842 2962 2928 3018 2859 3081 2958 3158 2973 3257 3157 3262 3102 3313 3068 3407 3129 3314 3080 3354 3157 3410 3202 3381 3173 3430 3137 3358 3300 3353 3312 3401 3195 3386 3249 3387 3117 3381 3242 3382 3129 3374 3227 3378 3190 3355 3266 3298 3141 3325 3156 3136 3045 3239 3182 3277 3082 3252 3010 3254 3019 3247 3050 3135 2934 3172 2938 3165 2973 3083 2978 3194 2899 3109 3013 3202 2934 3097 2925 3035 2894 3085 2887 2963 2845 2981 2811 2898 2647 2816 2532 2217    0 
   0 1801 2306 2329 2555 2541 2694 2566 2755 2569 2842 2692 2811 2715 2900 2706 2861 2709 2909 2697 2943 2880 3043 2822 3058 2937 3156 2934 3272 3005 3254 3075 3202 3041 3371 3033 3265 3008 3298 3052 3304 3038 3309 3130 3259 3140 3268 3082 3259 3161 3345 3035 3234 3026 3222 3118 3322 3110 3234 3021 3174 3029 3234 3045 3205 2999 3066 3036 3205 3065 3293 2994 3218 2925 3195 2985 3178 2954 3193 2953 3205 2868 3140 2942 3125 2935 3206 2902 3016 2852 3071 2833 3148 2918 3010 2876 3013 2770 2925 2680 2938 2776 2916 2632 2854 2333 2213    0 
   0 1410 1932 1895 2229 2013 2151 2103 2215 2110 2252 2220 2324 2210 2426 2286 2372 2338 2594 2195 2526 2440 2578 2429 2702 2600 2725 2501 2770 2525 2808 2671 2734 2587 2817 2646 2794 2677 2839 2692 2929 2667 2843 2799 2886 2725 2856 2641 2845 2728 2891 2723 2882 2685 2780 2667 2907 2733 2984 2666 2850 2698 2840 2552 2802 2658 2820 2554 2899 2693 2876 2641 2850 2571 2867 2632 2763 2590 2858 2527 2778 2544 2747 2554 2687 2658 2765 2415 2799 2577 2727 2479 2680 2487 2677 2511 2739 2436 2692 2359 2564 2387 2518 2314 2401 2002 1850    0 
   0 1672 2226 2219 2518 2371 2511 2378 2551 2479 2736 2587 2809 2615 2806 2664 2925 2725 2947 2679 3025 2857 3018 2869 3115 2903 3235 2970 3255 2985 3278 3054 3237 3011 3336 3139 3433 3102 3464 3140 3433 3133 3460 3231 3433 3257 3478 3219 3421 3254 3545 3235 3440 3181 3483 3192 3501 3394 3544 3251 3525 3369 3487 3311 3474 3201 3373 3229 3460 3274 3469 3339 3484 3230 3384 3325 3590 3258 3504 3298 3528 3159 3445 3326 3380 3277 3505 3120 3443 3272 3498 3170 3434 3147 3326 3194 3364 3162 3336 3098 3322 3106 3247 2999 3179 2742 2553    0 
   0 1950 2407 2362 2603 2464 2740 2611 2738 2616 2910 2797 2933 2725 2965 2730 2940 2850 3002 2885 3021 2879 3154 2791 3013 2888 3165 2954 3139 3105 3293 3074 3194 3048 3253 3058 3288 3106 3229 3110 3245 3209 3394 3106 3307 3092 3355 3114 3259 3131 3377 3192 3242 3086 3180 3054 3234 3061 3309 3094 3206 3106 3192 3158 3261 3170 3306 2949 3278 3072 3197 2938 3201 3012 3250 3050 3152 2957 3182 2994 3201 3000 3189 2988 3133 2922 3165 2989 3058 2874 3172 2934 3053 2929 3052 2838 3043 2868 2967 2805 2955 2833 2972 2682 2776 2400 2287    0 
   0 1806 2265 2295 2637 2317 2606 2451 2666 2517 2653 2674 2752 2604 2856 2665 2830 2661 2884 2771 2962 2822 3161 2745 2997 2882 3142 2886 3118 2871 3188 2861 3218 3004 3157 3004 3170 3009 3224 3029 3125 3105 3396 3105 3283 3028 3333 3070 3162 3001 3383 3146 3312 3028 3258 2999 3232 3038 3267 3074 3223 3021 3165 2974 3179 3057 3170 2941 3237 3104 3163 3025 3244 2922 3188 3082 3098 2926 3176 2996 3256 2980 3165 3003 3209 2904 3194 2973 3086 2964 3069 2914 3001 2935 3001 2826 2973 2808 2962 2791 2967 2809 2910 2570 2594 2369 2212    0 
   0 1361 1826 1810 2121 1885 2098 2062 2210 1980 2218 2220 2345 2120 2415 2146 2326 2219 2427 2255 2451 2377 2543 2364 2571 2357 2661 2423 2618 2521 2783 2487 2701 2554 2800 2569 2701 2594 2722 2555 2732 2618 2810 2605 2830 2661 2866 2626 2863 2593 2875 2759 2901 2634 2780 2673 2797 2602 2858 2670 2794 2582 2821 2651 2778 2698 2791 2544 2813 2610 2817 2494 2796 2608 2758 2682 2758 2481 2754 2508 2802 2551 2786 2602 2710 2496 2740 2489 2613 2412 2661 2542 2674 2491 2524 2522 2619 2433 2673 2357 2596 2451 2464 2220 2365 1978 1841    0 
   0 1602 2125 2021 2393 2157 2457 2308 2570 2397 2586 2470 2685 2587 2869 2600 2710 2660 2857 2718 2904 2699 3095 2792 3023 2837 3162 2921 3078 3002 3268 2996 3295 3042 3332 3101 3282 3097 3354 3131 3291 3149 3406 3126 3354 3206 3486 3293 3361 3227 3487 3307 3357 3292 3429 3162 3386 3209 3502 3206 3367 3224 3399 3183 3306 3307 3495 3177 3432 3252 3476 3205 3462 3181 3476 3273 3394 3202 3522 3274 3520 3218 3432 3250 3489 3146 3499 3191 3390 3129 3377 3183 3394 3281 3357 3149 3339 3086 3249 3172 3310 3028 3275 2967 3073 2722 2615    0 
   0 1805 2325 2486 2676 2602 2801 2583 2792 2572 2805 2605 2909 2732 2913 2773 2956 2836 3023 2819 3014 2894 3112 2945 3156 2953 3203 3120 3261 3043 3290 2989 3210 3065 3273 3008 3256 3145 3270 3050 3319 3129 3291 3094 3337 3138 3282 3080 3294 3195 3388 3169 3344 3077 3316 3154 3354 3159 3318 3152 3318 3131 3353 3124 3317 3085 3318 3058 3261 3058 3301 3003 3228 3058 3227 3085 3250 2995 3050 2942 3172 2934 3069 2990 3225 3003 3112 2903 3102 2994 3061 3010 3086 2926 2989 2867 3029 2949 3055 2843 3034 2786 2949 2722 2776 2510 2348    0 
   0 1602 2210 2250 2491 2490 2562 2377 2650 2364 2637 2534 2741 2539 2762 2601 2861 2586 2934 2730 2903 2628 2966 2813 3030 2837 3071 2854 3126 2939 3115 2897 3123 2857 3216 3014 3175 3014 3168 2984 3176 2961 3171 3067 3203 3038 3130 3005 3141 3119 3317 3002 3181 2932 3153 3075 3188 3048 3183 3028 3149 3022 3189 3001 3177 2931 3137 3069 3203 2974 3132 2964 3144 2972 3097 2983 3051 2885 2947 2930 3132 2854 2945 2866 3144 2878 3068 2875 2990 2849 2989 2825 2954 2812 2998 2782 2978 2932 3044 2724 2923 2714 2851 2634 2776 2421 2166    0 
   0 1221 1745 1926 2053 2024 2186 2051 2226 1969 2213 2068 2317 2132 2265 2232 2376 2261 2443 2291 2510 2295 2605 2468 2619 2390 2634 2475 2701 2555 2835 2442 2702 2487 2770 2539 2733 2699 2709 2676 2807 2647 2774 2603 2846 2724 2898 2598 2818 2690 2893 2649 2828 2679 2865 2669 2820 2714 2850 2674 2875 2758 2810 2613 2836 2637 2815 2605 2866 2516 2866 2499 2825 2615 2797 2545 2829 2518 2617 2581 2765 2533 2667 2477 2770 2481 2741 2497 2660 2636 2650 2522 2646 2516 2721 2524 2544 2576 2738 2445 2578 2473 2534 2374 2397 2145 1916    0 
   0 1516 2106 2229 2357 2357 2585 2389 2610 2323 2553 2425 2659 2533 2710 2523 2845 2697 2962 2675 2953 2729 3094 2826 3162 2832 3145 3023 3285 3029 3270 3011 3272 3026 3275 3086 3304 3113 3279 3070 3313 3159 3360 3179 3487 3321 3397 3197 3373 3200 3508 3234 3371 3241 3479 3185 3410 3253 3455 3298 3428 3370 3592 3257 3522 3175 3490 3238 3422 3179 3477 3209 3428 3286 3418 3226 3469 3244 3288 3174 3377 3194 3367 3248 3417 3212 3446 3165 3346 3206 3337 3244 3378 3156 3354 3105 3276 3161 3386 3021 3382 3066 3218 2994 3137 2738 2536    0 
   0 1832 2259 2430 2726 2481 2690 2603 2850 2660 2778 2661 2850 2715 2958 2677 2945 2795 3058 2762 3026 2914 3170 2882 3109 3007 3109 3061 3217 3162 3256 3113 3288 3191 3362 3108 3298 3069 3308 3142 3378 3123 3313 3170 3336 3145 3426 3202 3396 3101 3372 3221 3271 3181 3304 3190 3366 3225 3287 3156 3305 3089 3279 3212 3310 3119 3266 3122 3247 3124 3221 3041 3204 2969 3245 3049 3218 3043 3094 3005 3129 2983 3101 2909 3149 2964 3161 2914 3077 2856 3124 2949 3095 2856 3013 2907 3035 2834 3041 2828 2952 2747 3027 2644 2876 2533 2328    0 
   0 1634 2210 2252 2518 2411 2634 2457 2594 2414 2699 2423 2768 2584 2839 2578 2715 2682 2822 2745 2901 2738 3053 2708 2954 2859 3053 2973 3117 2999 3094 2963 3173 3082 3230 3035 3219 2977 3179 3057 3213 3012 3264 3013 3198 3063 3290 3094 3194 3005 3309 3149 3120 3013 3222 2967 3154 2992 3250 3033 3161 3053 3160 3045 3241 3026 3146 2953 3194 2989 3229 3036 3150 2972 3217 2969 3110 2912 3049 2939 3131 2946 3005 2770 3113 2890 3074 2779 3042 2777 3058 2782 2984 2739 2993 2822 2962 2806 2948 2739 2820 2626 2878 2572 2721 2371 2269    0 
   0 1185 1798 1867 2050 1861 2111 1931 2289 2052 2203 2085 2244 2095 2341 2091 2412 2229 2449 2230 2515 2372 2578 2411 2633 2507 2699 2451 2605 2544 2722 2573 2714 2618 2741 2568 2722 2609 2781 2630 2813 2541 2799 2581 2698 2650 2780 2694 2837 2614 2844 2709 2756 2618 2837 2617 2808 2709 2870 2678 2778 2641 2853 2723 2785 2555 2842 2617 2759 2562 2747 2617 2818 2519 2831 2575 2771 2520 2683 2582 2622 2546 2660 2472 2723 2562 2748 2436 2622 2426 2662 2551 2701 2425 2583 2384 2548 2484 2668 2211 2486 2270 2477 2229 2402 2045 1870    0 
   0 1531 2059 2206 2458 2256 2452 2310 2554 2405 2597 2445 2685 2459 2704 2487 2763 2582 2889 2613 2866 2742 3052 2807 2981 2866 3151 2931 3085 3008 3165 3048 3169 3101 3201 3147 3334 3104 3325 3092 3350 3147 3380 3141 3362 3188 3442 3145 3444 3112 3448 3309 3419 3309 3436 3240 3402 3277 3402 3262 3385 3309 3438 3219 3451 3284 3429 3212 3391 3248 3429 3201 3460 3194 3435 3117 3290 3197 3382 3196 3373 3217 3340 3178 3409 3149 3398 3019 3270 3157 3338 3192 3285 3044 3365 3013 3254 2994 3242 2973 3142 2925 3217 2946 3142 2772 2485    0 
   0 1922 2438 2449 2665 2514 2701 2666 2846 2622 2824 2656 2811 2886 3006 2833 2981 2827 3064 2875 3099 2909 3076 2992 3197 3131 3173 3098 3237 3026 3252 3059 3202 3053 3312 3212 3377 3168 3254 3084 3289 3098 3345 3178 3358 3146 3205 3186 3276 3152 3329 3129 3360 3082 3337 3101 3318 3108 3325 3082 3289 3142 3263 3134 3291 3147 3241 3099 3207 3083 3226 2980 3227 3010 3251 3092 3173 2999 3205 2974 3178 2952 3249 2953 3153 2962 3182 3015 3147 2936 3081 2862 3065 2999 3089 2920 3053 2896 2982 2802 2901 2804 2976 2734 2900 2379 2209    0 
   0 1685 2241 2351 2376 2285 2564 2454 2707 2441 2672 2483 2758 2574 2797 2683 2822 2661 2923 2695 2931 2734 2903 2889 2962 2907 3063 2871 3151 2938 3181 2891 3152 2971 3213 3098 3252 3021 3057 3034 3261 3086 3193 3042 3275 3013 3146 3113 3163 2928 3265 3090 3237 2972 3204 2953 3174 2962 3258 3080 3213 3014 3236 3018 3153 2981 3249 2929 3110 2923 3146 2888 3176 2923 3123 3027 3157 2929 3137 2856 3049 2898 3110 2871 3073 2895 3087 2839 3024 2801 2972 2802 2952 2900 2940 2677 2989 2831 3014 2675 2848 2729 2904 2628 2766 2276 2132    0 
   0 1265 1849 1778 2003 1948 2128 2066 2262 2000 2272 2106 2261 2256 2490 2222 2417 2242 2503 2317 2508 2266 2569 2478 2586 2579 2549 2488 2724 2463 2728 2562 2641 2581 2789 2603 2763 2637 2738 2667 2870 2604 2788 2682 2866 2684 2820 2596 2853 2510 2862 2711 2809 2610 2905 2653 2857 2605 2795 2681 2930 2742 2820 2633 2816 2635 2852 2550 2852 2571 2770 2618 2828 2537 2753 2669 2756 2571 2755 2578 2707 2566 2745 2509 2722 2596 2710 2550 2708 2490 2585 2443 2645 2489 2600 2380 2619 2493 2686 2356 2549 2318 2557 2295 2458 1981 1747    0 
   0 1481 2120 2167 2346 2196 2418 2357 2556 2320 2685 2453 2731 2474 2786 2638 2894 2658 2903 2694 2907 2776 2991 2893 3136 2899 3028 2965 3220 3003 3223 3058 3182 2990 3266 3159 3277 3117 3212 3141 3314 3144 3325 3196 3405 3205 3364 3165 3277 3173 3380 3220 3309 3135 3381 3211 3438 3226 3426 3281 3481 3182 3432 3305 3404 3274 3396 3181 3366 3164 3395 3190 3391 3150 3413 3274 3434 3228 3310 3193 3393 3236 3451 3130 3311 3211 3370 3181 3368 3058 3362 3096 3380 3151 3243 3050 3269 3094 3271 3037 3221 3068 3300 2981 3181 2512 2330    0 
   0 1818 2313 2330 2674 2459 2711 2486 2740 2615 2771 2700 2845 2698 2909 2729 2912 2820 2957 2877 2890 2893 3157 2866 3178 2957 3170 2965 3258 3070 3222 3044 3225 3030 3230 3140 3245 3084 3178 3092 3368 3074 3325 3087 3201 3138 3285 3003 3302 3110 3212 3042 3282 3138 3244 3049 3321 3154 3336 3114 3300 3089 3281 2992 3172 3033 3183 3053 3115 3021 3253 2999 3182 3014 3144 2980 3157 2912 3049 2829 3114 2898 3126 2870 3099 2920 3142 2866 3018 2882 3077 2980 2957 2924 3002 2837 3009 2743 2986 2800 2897 2696 2955 2682 2803 2397 2288    0 
   0 1634 2167 2173 2563 2339 2516 2331 2586 2446 2598 2518 2677 2628 2850 2603 2829 2710 2875 2758 2895 2744 2969 2733 3080 2876 3049 2929 3096 2878 3248 2873 3133 2959 3104 2965 3185 2937 3092 2965 3257 2928 3140 3022 3125 3026 3217 2917 3227 2931 3095 3029 3221 2969 3222 2965 3195 2988 3133 3035 3218 3052 3224 3003 3209 2996 3238 2954 3061 3033 3163 2938 3194 2858 3090 2865 3016 2839 3022 2857 3093 2908 3097 2845 3013 2906 3040 2801 2950 2821 3051 2818 2937 2797 2948 2775 2901 2659 3013 2718 2914 2605 2853 2552 2742 2302 2126    0 
   0 1194 1669 1794 2156 1886 2148 1925 2150 1929 2170 2121 2313 2185 2326 2249 2372 2266 2461 2374 2519 2246 2587 2389 2530 2393 2637 2427 2696 2433 2618 2482 2650 2530 2722 2612 2729 2565 2598 2491 2745 2546 2700 2667 2772 2571 2795 2587 2893 2546 2728 2649 2861 2550 2800 2618 2832 2652 2725 2761 2724 2602 2772 2544 2853 2608 2792 2524 2623 2606 2792 2564 2805 2536 2692 2619 2709 2496 2738 2505 2716 2503 2715 2478 2683 2506 2687 2511 2584 2365 2676 2600 2600 2394 2621 2404 2651 2291 2629 2395 2559 2306 2466 2186 2378 1982 1812    0 
   0 1531 2039 2098 2428 2237 2415 2274 2446 2347 2560 2465 2699 2502 2770 2566 2784 2660 2836 2714 2894 2762 3050 2792 3106 2891 3099 2945 3188 2940 3228 3029 3226 3067 3249 3038 3217 3048 3146 3062 3306 3067 3317 3206 3336 3187 3349 3094 3444 3149 3349 3154 3437 3173 3516 3159 3493 3247 3374 3274 3426 3252 3441 3181 3444 3213 3395 3170 3334 3209 3418 3181 3434 3252 3442 3114 3202 3157 3275 3158 3407 3197 3378 3162 3394 3142 3384 3208 3293 3114 3384 3122 3300 3028 3351 3026 3249 2993 3197 3034 3223 2977 3177 2941 3054 2704 2618    0 
   0 1844 2328 2469 2626 2517 2691 2586 2810 2653 2863 2743 2836 2770 2955 2737 3035 2832 2997 3019 3161 2901 3098 2974 3084 3064 3250 2971 3141 3022 3194 3044 3152 3141 3289 3044 3224 3118 3255 3005 3311 3154 3220 3099 3304 3113 3283 3062 3314 3129 3236 3053 3284 3133 3354 3041 3241 3099 3308 3018 3253 3081 3213 2965 3259 2994 3210 2994 3229 2986 3147 3114 3241 2974 3101 2891 3116 2993 3205 2872 3010 2877 3025 2852 3019 2805 3069 2778 3096 2841 3092 2882 3022 2827 2981 2753 2952 2778 3073 2842 2925 2783 2882 2575 2723 2350 2200    0 
   0 1627 2186 2216 2436 2340 2540 2546 2589 2466 2680 2532 2824 2612 2693 2541 2806 2596 2877 2816 2996 2774 2905 2824 3008 2836 3076 2872 2945 2903 3094 2847 3058 2965 3158 2897 3114 2939 3094 2869 3266 2978 3169 3016 3224 3023 3180 2923 3240 2998 3133 2919 3104 2978 3258 2934 3131 2971 3191 3028 3119 2975 3133 2865 3178 2958 3105 2956 3061 2841 3022 2903 3058 2818 2992 2899 3025 2902 3120 2850 3074 2869 2950 2724 2929 2774 2957 2873 3058 2691 2862 2851 2994 2732 2844 2650 2895 2705 2923 2796 2795 2690 2834 2448 2636 2218 2107    0 
   0 1248 1748 1803 2165 1896 2166 2061 2148 2082 2229 2235 2303 2205 2381 2144 2443 2280 2350 2315 2629 2326 2624 2451 2571 2452 2650 2421 2626 2550 2615 2493 2737 2588 2822 2538 2728 2619 2822 2564 2881 2614 2777 2572 2744 2617 2821 2520 2785 2613 2886 2596 2823 2588 2798 2562 2773 2637 2850 2586 2801 2644 2747 2610 2753 2570 2763 2564 2814 2625 2748 2571 2799 2523 2666 2573 2749 2621 2758 2483 2675 2484 2696 2370 2634 2459 2665 2455 2715 2483 2589 2474 2593 2517 2607 2398 2534 2419 2683 2362 2518 2318 2449 2173 2327 1963 1786    0 
   0 1451 2082 2114 2292 2234 2479 2358 2557 2394 2570 2452 2633 2538 2742 2570 2829 2572 2869 2757 3048 2715 3074 2969 3006 2914 3108 2893 3076 2942 3227 2951 3205 3115 3272 3014 3254 3169 3314 3123 3437 3099 3295 3105 3357 3155 3334 3150 3334 3114 3387 3146 3439 3242 3461 3139 3305 3226 3388 3181 3370 3197 3412 3080 3400 3209 3426 3197 3348 3176 3338 3286 3501 3098 3365 3246 3379 3204 3390 3199 3387 3186 3362 2984 3339 3060 3386 3193 3376 3114 3292 3149 3411 3022 3230 2988 3234 3061 3382 3026 3190 3046 3145 2826 3002 2677 2511    0 
   0 1682 2265 2315 2501 2468 2636 2520 2781 2605 2778 2621 2740 2781 2951 2765 2981 2829 2958 2858 3114 2834 3060 2939 3120 2923 3158 3038 3177 3019 3305 2922 3203 3006 3302 3057 3142 3108 3284 3129 3240 3059 3254 3080 3307 3125 3234 3082 3311 3115 3219 3135 3262 3188 3257 3061 3250 3011 3217 2962 3189 3077 3226 3074 3244 3071 3270 2968 3228 2957 3153 3009 3174 3024 3277 3018 3080 2918 3093 2949 3109 2886 3007 2827 2996 2809 3081 2923 3082 2836 3050 2749 2919 2911 2971 2662 2915 2850 2874 2777 2885 2788 2761 2555 2742 2255 2142    0 
   0 1530 2211 2162 2386 2315 2578 2377 2653 2437 2635 2507 2610 2530 2714 2600 2791 2685 2882 2720 2915 2719 2882 2781 3010 2841 2989 2939 3114 2940 3177 2793 3092 2952 3216 2993 3068 2953 3116 2986 3084 2894 3123 2975 3117 2909 3122 2933 3266 3035 3087 2946 3137 2942 3107 3006 3195 2917 3178 2901 3133 2970 3112 2962 3066 2889 3130 2839 3106 2859 3077 2966 3058 2859 3188 2872 3020 2866 3059 2798 3026 2842 2987 2829 2879 2722 2959 2820 2941 2734 2984 2730 2940 2807 2826 2610 2790 2742 2743 2550 2741 2653 2741 2500 2619 2155 2087    0 
   0 1221 1642 1723 1946 1930 2100 1928 2176 2055 2253 2029 2237 2107 2277 2090 2262 2261 2360 2314 2452 2325 2478 2332 2481 2350 2623 2374 2639 2478 2709 2410 2728 2459 2782 2477 2602 2427 2642 2565 2694 2466 2618 2532 2644 2573 2774 2555 2833 2635 2675 2535 2662 2580 2725 2576 2737 2524 2729 2502 2671 2550 2647 2502 2650 2573 2778 2462 2667 2458 2636 2455 2597 2543 2704 2449 2503 2482 2606 2437 2603 2388 2583 2443 2472 2372 2576 2411 2604 2364 2565 2315 2432 2381 2448 2253 2395 2307 2492 2244 2394 2317 2362 2096 2226 1822 1785    0 
   0 1470 2017 2002 2273 2245 2402 2197 2528 2338 2557 2314 2539 2549 2747 2428 2762 2634 2817 2629 2872 2727 2946 2792 3051 2774 3065 2901 3090 2936 3141 2869 3141 2953 3210 3010 3185 2966 3172 3071 3286 3054 3278 3077 3326 3076 3331 3034 3316 3090 3351 3169 3323 3125 3285 3102 3371 3104 3270 3063 3259 3171 3370 3100 3182 3106 3335 3092 3273 3048 3237 3074 3314 3033 3358 3098 3204 3093 3316 3089 3318 3048 3183 3017 3140 3004 3277 3095 3241 3114 3237 3105 3266 3089 3289 2921 3178 3012 3159 2885 3110 2973 3049 2830 2942 2435 2493    0 
   0 1929 2269 2405 2634 2413 2545 2490 2698 2637 2802 2633 2794 2681 2850 2733 2877 2718 2922 2729 2883 2798 3003 2932 2963 2806 3125 2899 3079 2981 3105 2965 3185 2985 3178 2986 3130 3038 3181 2980 3186 3046 3240 3131 3179 3053 3237 3060 3170 3106 3318 3063 3156 2984 3201 3022 3173 2902 3250 3016 3249 2989 3220 2977 3156 2928 3206 2878 3194 2923 3213 2860 3058 2913 3117 2895 3058 2881 2989 2866 3018 2861 2994 2674 2974 2817 2964 2957 2977 2826 3019 2829 3069 2858 2974 2796 2889 2700 2826 2690 2813 2689 2865 2657 2701 2313 2098    0 
   0 1659 2110 2122 2436 2237 2454 2355 2604 2425 2581 2404 2661 2474 2674 2493 2768 2587 2746 2600 2818 2669 2820 2700 2761 2721 2925 2786 2996 2838 2970 2766 2999 2799 3042 2796 2966 2917 2970 2740 3074 2824 3015 2966 3046 2930 3216 2914 3024 2971 3137 3001 3067 2914 3065 2933 3186 2817 3118 2885 3083 2895 3090 2725 2971 2827 3084 2714 2928 2790 3038 2721 3017 2769 2961 2833 2961 2741 2814 2733 2883 2758 2909 2686 2852 2698 2932 2878 2938 2741 2821 2691 2772 2730 2818 2678 2747 2546 2760 2514 2709 2649 2745 2538 2568 2147 1929    0 
   0 1284 1746 1834 2059 1891 2085 1998 2263 2065 2251 2034 2211 2095 2260 2158 2337 2169 2313 2250 2405 2210 2398 2293 2453 2337 2536 2414 2570 2442 2592 2430 2650 2373 2645 2420 2600 2491 2636 2472 2686 2547 2686 2518 2573 2562 2790 2485 2715 2675 2778 2569 2622 2532 2687 2547 2729 2482 2741 2634 2806 2578 2713 2488 2637 2408 2682 2383 2715 2531 2735 2388 2618 2474 2621 2399 2618 2379 2516 2450 2613 2409 2516 2355 2519 2385 2558 2461 2593 2379 2508 2374 2497 2434 2507 2420 2429 2254 2434 2305 2365 2265 2490 2178 2290 1941 1704    0 
   0 1549 2067 2118 2399 2213 2400 2231 2465 2408 2579 2346 2571 2480 2593 2476 2677 2531 2729 2586 2870 2710 2921 2785 2897 2685 2969 2843 3039 2895 2988 2877 3117 2838 3170 2891 3112 3057 3173 2907 3197 2991 3254 3080 3219 3118 3294 3031 3223 3133 3298 3038 3274 3055 3226 3013 3283 3045 3252 3180 3282 3008 3269 3122 3263 3122 3350 2972 3268 3058 3316 2985 3316 3052 3251 3076 3266 3029 3190 3067 3207 3006 3264 2916 3182 3088 3195 3054 3172 3006 3201 2952 3141 3093 3132 2954 3102 2931 3021 2904 3022 2909 3161 2842 2921 2549 2333    0 
   0 1879 2341 2369 2554 2437 2730 2584 2701 2575 2739 2522 2800 2592 2820 2582 2835 2737 3081 2634 2917 2914 2921 2795 3003 2802 3100 2930 3040 2920 3074 2946 3140 2964 3094 3022 3149 2934 3149 2857 3165 2914 3172 3117 3194 2990 3165 2880 3156 2984 3105 2896 3141 2893 3190 2977 3070 2952 3211 3058 3153 2992 3162 2992 3074 2965 2985 2943 3060 2795 3046 2841 2990 2870 3017 2829 3016 2793 3021 2797 3076 2745 3018 2859 2989 2793 3040 2725 2939 2738 2933 2760 2970 2829 2892 2658 2870 2639 2761 2674 2821 2621 2766 2592 2628 2309 2190    0 
   0 1589 2170 2205 2381 2236 2466 2319 2521 2342 2580 2362 2568 2405 2569 2434 2626 2538 2838 2499 2755 2714 2897 2651 2749 2663 2877 2765 2846 2778 2968 2725 2929 2839 2974 2805 2967 2834 2989 2753 3023 2852 3099 2907 3056 2877 2993 2782 3110 2888 3077 2788 3024 2792 2997 2912 2984 2836 3030 2852 3024 2790 2993 2845 2891 2820 2903 2858 2894 2763 2921 2749 2909 2762 2802 2773 2942 2700 2922 2692 2919 2716 2873 2663 2852 2644 2938 2651 2862 2598 2874 2756 2853 2729 2858 2558 2786 2536 2697 2532 2670 2556 2687 2530 2637 2091 2010    0 
   0 1253 1734 1751 1941 1806 2101 1949 2073 1987 2037 1886 2141 1962 2220 2102 2214 2088 2338 2019 2302 2187 2260 2137 2336 2228 2433 2234 2459 2336 2482 2338 2548 2393 2549 2388 2442 2327 2514 2349 2600 2441 2637 2571 2609 2343 2590 2418 2617 2448 2609 2455 2613 2471 2482 2426 2594 2450 2692 2582 2664 2428 2522 2423 2583 2475 2604 2344 2487 2470 2564 2357 2557 2362 2494 2374 2510 2332 2545 2295 2554 2378 2508 2410 2548 2295 2510 2263 2468 2342 2468 2422 2442 2302 2503 2290 2466 2119 2357 2194 2325 2191 2385 2057 2118 1896 1717    0 
   0 1457 2039 2006 2218 2065 2404 2190 2434 2276 2448 2120 2550 2329 2605 2423 2578 2509 2828 2410 2725 2618 2738 2564 2773 2668 2845 2698 2996 2790 2907 2740 3062 2786 2973 2749 2986 2830 3058 2866 3090 2928 3154 2992 3159 2986 3153 2922 3144 3003 3204 2988 3252 2917 3156 3049 3140 2992 3298 3081 3298 3049 3285 3124 3130 3048 3218 3000 3222 3014 3205 2951 3207 2994 3127 2971 3148 2932 3170 2934 3179 3042 3163 2963 3148 2997 3243 2920 3127 2957 3197 2991 3141 2962 3114 2919 3034 2865 3035 2821 2999 2922 2996 2856 2836 2504 2390    0 
   0 1624 2153 2163 2321 2185 2452 2225 2525 2254 2365 2265 2447 2410 2594 2503 2611 2419 2722 2579 2613 2469 2753 2541 2698 2633 2773 2596 2831 2666 2860 2721 2842 2752 2938 2732 2848 2829 2899 2810 2922 2777 2982 2842 2884 2735 2954 2724 2891 2793 2855 2681 2937 2726 2905 2748 2962 2696 2881 2717 2803 2816 3008 2710 2890 2667 2846 2628 2918 2626 2821 2593 2739 2585 2827 2566 2738 2626 2818 2593 2786 2629 2756 2576 2722 2555 2763 2585 2745 2438 2699 2627 2693 2465 2651 2505 2594 2514 2639 2509 2600 2390 2647 2382 2585 2163 1930    0 
   0 1346 1875 1761 1969 1858 2093 1928 2155 1859 2098 1930 2130 2002 2178 2101 2214 2074 2341 2160 2310 2158 2381 2254 2472 2325 2421 2249 2537 2298 2487 2298 2435 2321 2546 2437 2610 2451 2506 2501 2612 2391 2636 2521 2565 2427 2674 2437 2598 2294 2628 2363 2573 2434 2666 2425 2663 2422 2634 2413 2575 2484 2603 2419 2596 2420 2608 2373 2651 2401 2538 2401 2570 2379 2578 2297 2509 2382 2620 2372 2432 2282 2464 2329 2322 2284 2378 2290 2421 2204 2517 2317 2468 2193 2374 2103 2361 2227 2397 2125 2300 2095 2282 2092 2245 1827 1654    0 
   0  565 1008 1062 1297 1098 1356 1130 1458 1146 1399 1238 1472 1325 1527 1410 1434 1325 1549 1350 1506 1428 1666 1477 1634 1572 1612 1466 1765 1626 1733 1638 1754 1680 1822 1714 1855 1713 1794 1745 1805 1690 1942 1716 1809 1653 1773 1642 1866 1661 1839 1608 1839 1712 1901 1668 1866 1709 1854 1693 1830 1774 1907 1669 1908 1729 1865 1666 1925 1638 1845 1723 1841 1660 1774 1653 1828 1557 1858 1652 1888 1726 1774 1574 1701 1549 1829 1634 1765 1563 1804 1609 1718 1469 1655 1497 1710 1549 1650 1450 1609 1494 1654 1493 1613 1196 1125    0 
   0    0    0    0    0    0    0    0    0    0    0    0    0    0    0    0    0    0    0    0    0    0    0    0    0    0    0    0    0    0    0    0    0    0    0    0    0    0    0    0    0    0    0    0    0    0    0    0    0    0    0    0    0    0    0    0    0    0    0    0    0    0    0    0    0    0    0    0    0    0    0    0    0    0    0    0    0    0    0    0    0    0    0    0    0    0    0    0    0    0    0    0    0    0    0    0    0    0    0    0    0    0    0    0    0    0    0    0 