P2
108 88
4095


   0    0    0    0    0    0    0    0    0    0    0    0    0    0    0    0    0    0    0    0    0    0    0    0    0    0    0    0    0    0    0    0    0    0    0    0    0    0    0    0    0    0    0    0    0    0    0    0    0    0    0    0    0    0    0    0    0    0    0    0    0    0    0    0    0    0    0    0    0    0    0    0    0    0    0    0    0    0    0    0    0    0    0    0    0    0    0    0    0    0    0    0    0    0    0    0    0    0    0    0    0    0    0    0    0    0    0    0 
   0  905 1385 1412 1405 1209 1402 1245 1461 1374 1625 1587 1794 1617 1795 1531 1604 1425 1642 1330 1456 1249 1566 1410 1755 1609 1925 1805 1964 1698 1867 1665 1851 1514 1766 1741 1819 1685 1882 1850 2055 1845 1963 1691 1826 1541 1522 1369 1617 1483 1838 1781 2054 1909 2068 1885 2077 1620 1854 1716 1976 1638 2020 1861 2032 1865 2078 1869 1985 1748 1870 1697 1813 1624 1846 1748 2017 1834 1971 1818 2135 1865 2167 1877 2041 1865 2069 1940 2058 1891 2170 1981 2067 1885 2279 2098 2081 1898 2213 1954 2059 1902 2081 1858 2100 1669 1435    0 
   0  774 1281 1193 1333 1188 1424 1233 1387 1444 1519 1444 1600 1586 1718 1458 1546 1313 1508 1353 1428 1193 1497 1443 1704 1555 1908 1661 1817 1532 1794 1343 1522 1355 1655 1570 1806 1705 1900 1867 2040 1794 1749 1416 1605 1303 1376 1264 1588 1408 1745 1745 1972 1851 1994 1739 1859 1498 1691 1568 1966 1680 1973 1778 1970 1875 2045 1772 1856 1651 1789 1565 1736 1618 1877 1783 2061 1857 1976 1774 1933 1787 2010 1805 2070 1809 2043 1932 2122 2094 2203 2002 2190 2049 2191 2042 2213 1958 2209 2058 2077 2041 2244 1773 2105 1674 1572    0 
   0 1134 1616 1541 1661 1517 1764 1586 1866 1794 2009 1958 2123 1997 2190 1764 1969 1666 1930 1837 1977 1872 2197 1992 2311 2162 2459 2245 2286 2011 2196 1925 2133 1784 2228 2180 2406 2293 2589 2430 2618 2218 2308 1985 2188 1804 2029 1837 2221 1995 2487 2425 2712 2370 2612 2157 2416 2082 2218 2198 2501 2452 2791 2562 2700 2540 2608 2247 2350 2097 2307 2013 2378 2222 2573 2443 2690 2508 2780 2359 2576 2329 2704 2472 2776 2477 2836 2597 2745 2697 2988 2730 2911 2705 2956 2738 2978 2746 2946 2828 2842 2679 2939 2593 2859 2416 2229    0 
   0 1484 1887 1798 2007 2034 2039 1954 2234 2229 2414 2267 2434 2197 2324 2139 2185 2134 2140 2097 2289 2248 2626 2353 2678 2537 2609 2390 2406 2029 2193 2011 2167 2006 2420 2405 2669 2637 2810 2585 2626 2315 2320 1942 2131 2013 2199 1977 2249 2189 2507 2441 2536 2287 2466 2088 2121 1966 2206 2202 2521 2482 2692 2490 2578 2285 2378 2063 2213 2002 2284 1949 2205 2133 2438 2426 2647 2322 2489 2218 2408 2271 2549 2442 2513 2474 2678 2517 2777 2711 2702 2701 2858 2610 2842 2689 2835 2597 2826 2610 2786 2698 2802 2530 2709 2246 2176    0 
   0 1166 1594 1449 1661 1645 1924 1911 2090 2095 2218 2036 2243 1892 2108 1936 2017 1934 2066 2074 2306 2179 2518 2249 2506 2196 2377 2063 2119 1866 2123 1757 2036 1931 2388 2251 2611 2570 2634 2342 2431 2107 2196 1947 2138 2001 2258 2185 2377 2340 2476 2240 2523 1945 2046 1807 1861 1746 2022 2051 2434 2342 2492 2270 2372 1899 2097 1712 2107 1914 2184 1870 2285 2197 2370 2282 2421 2106 2264 1926 2190 2055 2379 2221 2458 2402 2571 2403 2648 2511 2670 2580 2725 2562 2830 2523 2744 2533 2753 2545 2714 2613 2728 2381 2702 2214 2021    0 
   0  640 1008  922 1154 1333 1449 1474 1736 1557 1800 1464 1703 1408 1594 1441 1509 1556 1646 1754 1903 1890 2114 1778 1992 1624 1707 1444 1701 1464 1730 1509 1804 1694 2046 1918 2226 2122 2148 1866 1925 1620 1787 1748 1944 1865 2169 1954 2157 2011 2184 1940 1837 1501 1581 1302 1441 1402 1842 1798 2053 2024 2107 1774 1828 1419 1494 1450 1697 1628 1936 1732 1964 1866 2074 1813 1994 1681 1765 1482 1749 1650 1956 1893 2084 2001 2201 2088 2266 2202 2294 2297 2365 2203 2510 2210 2509 2213 2469 2186 2413 2336 2412 2106 2330 1818 1774    0 
   0  829 1313 1229 1556 1709 1963 1876 2098 2012 2050 1748 2010 1793 1941 1744 2063 2019 2221 2228 2441 2261 2507 2090 2178 1869 2014 1802 2229 1906 2394 2215 2443 2285 2705 2497 2762 2587 2636 2240 2338 2014 2357 2283 2653 2537 2902 2746 2843 2756 2855 2386 2435 1993 2327 2010 2167 2203 2571 2541 2841 2639 2690 2284 2358 1897 2228 2145 2402 2339 2787 2525 2752 2536 2717 2459 2521 2190 2402 2066 2423 2246 2706 2641 2874 2704 2938 2728 2917 2783 2949 2950 3082 2857 3155 2824 3098 2777 3130 2859 3061 3003 3073 2786 3021 2502 2557    0 
   0 1047 1448 1492 1797 1903 2217 2163 2325 2034 2118 1835 2049 1838 2077 2074 2296 2230 2463 2413 2616 2445 2412 2103 1941 1697 1973 1878 2131 2089 2373 2406 2577 2450 2726 2580 2642 2409 2418 2080 2219 2050 2341 2346 2705 2574 2820 2693 2781 2557 2667 2352 2324 2018 2181 2052 2216 2242 2536 2500 2776 2466 2570 2117 2099 1798 2052 2045 2474 2323 2665 2453 2705 2456 2564 2254 2408 2106 2210 2015 2268 2221 2473 2410 2679 2508 2727 2578 2701 2525 2674 2477 2776 2555 2824 2618 2861 2602 2842 2602 2858 2677 2838 2532 2674 2436 2138    0 
   0  993 1512 1442 1853 1681 2077 1915 2102 1783 1846 1655 1762 1706 1807 1794 2125 2146 2399 2279 2457 2158 2038 1719 1682 1408 1811 1648 2055 2086 2420 2325 2597 2401 2647 2308 2419 2101 2217 1962 2141 1963 2325 2320 2685 2484 2649 2562 2642 2393 2473 2213 2259 2013 2283 2197 2324 2309 2539 2333 2581 2261 2281 1888 1967 1881 2093 2005 2402 2309 2646 2540 2536 2324 2501 2238 2290 2088 2259 2114 2341 2280 2503 2345 2555 2428 2669 2393 2634 2379 2614 2418 2645 2427 2714 2420 2763 2545 2739 2441 2715 2516 2760 2349 2586 2344 2119    0 
   0  629 1128 1125 1480 1460 1556 1380 1533 1254 1306 1197 1339 1278 1519 1364 1764 1834 2088 1916 2045 1723 1602 1307 1249 1067 1345 1324 1611 1786 2120 2020 2194 2043 2230 1832 1828 1681 1709 1555 1882 1764 2097 2065 2329 2084 2347 2095 2200 1944 2083 1847 2026 1853 2084 2006 2220 2091 2304 1994 2192 1766 1879 1533 1730 1609 1914 1755 2212 2029 2323 2054 2237 1937 2137 1867 2046 1866 2000 1860 2093 2045 2255 2095 2294 2128 2264 2089 2237 2074 2274 2101 2434 2253 2435 2077 2485 2211 2466 2133 2426 2202 2333 2224 2290 1924 1805    0 
   0  918 1530 1507 1766 1783 1933 1653 1738 1477 1578 1413 1730 1546 1858 1819 2178 2280 2450 2289 2394 2061 1877 1693 1669 1585 1878 1937 2370 2253 2633 2555 2725 2268 2503 2088 2225 2029 2288 2098 2523 2324 2678 2570 2843 2601 2755 2453 2650 2419 2675 2446 2721 2566 2896 2654 2891 2596 2786 2459 2669 2262 2410 2141 2393 2393 2573 2533 2837 2589 2797 2517 2715 2514 2685 2481 2746 2538 2789 2674 2870 2735 2963 2737 2957 2584 2905 2712 2922 2650 2895 2715 3009 2865 3096 2773 3121 2821 3148 2850 3064 2827 3041 2792 2954 2642 2441    0 
   0 1264 1814 1837 2244 1971 2102 1773 1973 1705 1956 1650 2002 1922 2286 2058 2458 2388 2633 2381 2525 2103 2205 1750 1955 1874 2237 2074 2533 2433 2635 2426 2505 2199 2271 1956 2249 2050 2381 2149 2631 2436 2809 2706 2827 2450 2508 2293 2391 2236 2615 2414 2836 2581 2888 2687 2821 2706 2702 2378 2383 2026 2340 2131 2450 2333 2606 2474 2651 2341 2480 2133 2202 2144 2393 2325 2580 2349 2675 2456 2725 2463 2610 2615 2668 2460 2692 2474 2597 2444 2673 2556 2809 2685 2961 2577 2893 2661 2822 2678 2834 2611 2842 2616 2770 2442 2204    0 
   0 1066 1629 1693 2045 1732 1834 1563 1548 1367 1911 1497 1867 1885 2257 2068 2354 2172 2412 2146 2396 2064 2233 1919 2055 1965 2257 2205 2537 2442 2510 2097 2138 1797 1946 1787 2116 1973 2325 2378 2685 2446 2745 2470 2483 2133 2204 1872 2110 2058 2491 2334 2690 2585 2778 2516 2738 2410 2358 2097 2187 1960 2359 2129 2469 2330 2571 2394 2476 2084 2203 1818 2078 1801 2304 2191 2506 2276 2574 2428 2602 2360 2445 2426 2528 2290 2564 2436 2562 2449 2597 2466 2700 2504 2854 2449 2765 2498 2729 2521 2714 2501 2766 2555 2666 2267 2128    0 
   0  701 1253 1318 1588 1333 1339  994 1217  997 1427 1290 1582 1609 1850 1691 1961 1749 1981 1811 1936 1698 1894 1702 1850 1755 2090 1957 2210 1986 1974 1613 1544 1334 1540 1424 1673 1743 2105 1979 2333 2061 2328 2058 1909 1635 1698 1433 1834 1765 2181 2086 2353 2198 2386 2004 2210 1842 1865 1694 1988 1814 2225 2004 2158 2077 2123 1882 1853 1495 1677 1268 1597 1689 1947 1937 2147 1918 2209 1975 2174 1902 2068 2066 2134 1997 2299 2047 2221 2140 2334 2091 2356 2165 2462 2206 2390 2178 2315 2166 2453 2221 2426 2189 2363 1931 1765    0 
   0 1068 1671 1684 1965 1604 1705 1353 1636 1534 1968 1797 2280 2084 2413 2085 2358 2120 2363 2150 2476 2248 2504 2274 2626 2381 2761 2532 2633 2398 2261 1965 2020 1761 2131 2044 2504 2408 2784 2615 2930 2666 2810 2526 2467 2045 2205 2173 2469 2481 2822 2708 3010 2732 2948 2589 2745 2525 2682 2481 2888 2568 3034 2748 2945 2691 2809 2492 2513 2122 2418 2114 2457 2466 2854 2683 2985 2750 2971 2680 2825 2546 2769 2632 2924 2807 3001 2793 3002 2937 3037 2907 3104 2926 3219 2877 3152 2963 3142 2838 3179 2921 3255 2931 3134 2610 2459    0 
   0 1517 2017 1940 2103 1911 1940 1633 1858 1850 2234 2178 2493 2312 2438 2201 2293 2041 2331 2205 2538 2470 2705 2602 2777 2599 2767 2587 2621 2314 2181 1906 2057 1895 2253 2229 2637 2585 2911 2728 2905 2608 2739 2372 2372 2091 2194 2160 2520 2519 2827 2677 2738 2427 2609 2369 2484 2394 2670 2544 2798 2695 2943 2632 2772 2533 2602 2280 2309 2059 2276 2008 2413 2293 2714 2600 2687 2515 2597 2432 2598 2225 2490 2295 2616 2509 2786 2545 2824 2653 2861 2761 2847 2687 2868 2721 2840 2682 2849 2626 2833 2765 2879 2555 2811 2486 2254    0 
   0 1431 1930 1878 1951 1638 1755 1555 1852 1857 2052 2128 2470 2139 2338 2009 2046 1680 2015 1970 2397 2344 2696 2516 2713 2516 2707 2314 2409 2058 1962 1742 1906 1787 2319 2286 2642 2513 2818 2674 2813 2480 2693 2381 2401 2162 2349 2261 2548 2603 2742 2564 2547 2230 2425 2301 2529 2502 2779 2590 2877 2636 2805 2596 2650 2411 2445 2283 2323 2041 2334 2135 2454 2277 2615 2467 2622 2356 2505 2289 2539 2194 2427 2343 2574 2436 2764 2488 2786 2628 2805 2669 2669 2566 2810 2607 2818 2571 2850 2541 2762 2616 2869 2482 2675 2426 2212    0 
   0 1052 1604 1399 1470 1276 1309 1233 1586 1509 1749 1716 1918 1694 1723 1445 1430 1133 1482 1533 1972 1886 2186 2088 2235 2099 2146 1833 1765 1466 1360 1323 1506 1507 2011 1957 2264 2165 2382 2251 2349 2025 2130 2004 2091 1913 2220 2090 2305 2128 2193 1986 1890 1709 1810 1857 2253 2129 2453 2320 2480 2141 2326 2117 2053 1826 1986 1873 1982 1834 2122 1878 2154 1966 2258 2058 2043 1867 2023 1853 2132 1919 2030 2035 2144 2090 2357 2107 2466 2313 2329 2286 2286 2287 2400 2243 2475 2265 2363 2180 2378 2363 2530 2204 2319 2004 1853    0 
   0 1307 1801 1672 1810 1602 1778 1756 2078 1957 2119 2079 2229 1949 1948 1634 1853 1489 1910 1821 2282 2277 2617 2537 2698 2578 2653 2114 2125 1857 1913 1821 2137 2118 2645 2610 2765 2604 2839 2534 2738 2347 2647 2393 2569 2624 2973 2720 2926 2740 2834 2404 2390 2082 2473 2434 2749 2827 3016 2807 3004 2619 2781 2507 2558 2293 2470 2442 2622 2506 2910 2593 2847 2628 2881 2484 2638 2514 2658 2475 2903 2589 2798 2644 2894 2837 3062 2821 3150 2917 3034 2923 3012 2897 3083 2922 3097 2962 3148 2882 3123 2933 3237 2921 3062 2731 2606    0 
   0 1434 1959 1979 2184 2080 2307 2101 2346 2149 2366 2155 2218 1914 1956 1701 1849 1657 1970 2006 2425 2499 2733 2697 2827 2409 2642 2251 2153 1947 2040 1989 2487 2466 2774 2692 2838 2574 2614 2439 2573 2373 2491 2427 2778 2569 2862 2653 2944 2603 2546 2265 2293 2154 2444 2378 2738 2687 2858 2581 2716 2484 2388 2107 2141 2045 2266 2258 2554 2443 2697 2504 2651 2461 2385 2192 2369 2139 2471 2359 2623 2420 2631 2513 2762 2619 2822 2468 2810 2573 2733 2551 2804 2681 2861 2665 2820 2660 3025 2725 2958 2757 2952 2717 2744 2444 2235    0 
   0 1213 1717 1782 2109 1997 2310 2109 2361 1981 2031 1770 1915 1607 1666 1545 1725 1553 1980 1877 2360 2283 2642 2442 2538 2269 2421 2009 1956 1818 1967 2018 2521 2491 2709 2610 2764 2411 2446 2105 2326 2212 2475 2466 2711 2531 2787 2500 2758 2387 2496 2276 2315 2199 2519 2476 2855 2657 2858 2474 2473 2241 2244 2029 2122 1934 2137 2109 2450 2396 2690 2422 2492 2156 2246 2018 2157 2029 2450 2312 2521 2451 2749 2529 2724 2541 2661 2549 2701 2523 2680 2493 2692 2485 2873 2602 2820 2630 2872 2733 2773 2634 2893 2519 2685 2292 2085    0 
   0  791 1331 1346 1618 1709 1957 1757 1828 1492 1505 1142 1238 1054 1205 1061 1268 1354 1636 1610 1982 1949 2120 1937 2078 1704 1763 1523 1604 1472 1701 1706 2176 2167 2396 2139 2190 1867 1802 1506 1834 1655 2045 2162 2468 2092 2230 2018 2257 1904 2074 1851 2075 1877 2233 2042 2327 2225 2317 1888 2018 1866 1994 1754 1852 1801 2017 1894 2189 2062 2234 1970 2083 1757 1762 1498 1810 1798 2139 1970 2269 2095 2380 2220 2318 2122 2333 2006 2266 2109 2338 2148 2259 2170 2438 2288 2379 2269 2562 2362 2483 2269 2450 2258 2206 1978 1862    0 
   0  977 1695 1722 2107 2072 2363 2119 2245 1834 1857 1465 1559 1469 1707 1644 1973 1904 2258 2192 2527 2437 2596 2362 2485 2144 2453 2034 2221 2114 2474 2389 2930 2603 2866 2664 2630 2166 2165 1892 2243 2285 2648 2653 2997 2673 2869 2353 2721 2454 2613 2640 2930 2731 3009 2709 2891 2618 2744 2525 2601 2450 2651 2516 2663 2565 2782 2673 2933 2734 2935 2492 2658 2339 2489 2273 2545 2570 2932 2690 3003 2842 3068 2796 2978 2774 2995 2718 3003 2741 3116 2820 2988 2901 3252 2922 3125 2916 3209 2971 3145 2935 3171 2868 2957 2666 2511    0 
   0 1313 1811 2037 2376 2301 2485 2365 2441 2038 2041 1668 1787 1602 1842 1784 2050 2084 2472 2432 2642 2454 2583 2305 2357 2069 2362 2214 2492 2277 2714 2580 2862 2596 2836 2490 2401 2007 2005 1799 2205 2118 2609 2667 2852 2401 2479 2244 2383 2309 2581 2490 2857 2622 2874 2454 2517 2310 2429 2333 2336 2239 2325 2460 2724 2449 2754 2603 2750 2554 2574 2125 2283 1963 2210 2109 2330 2253 2450 2472 2697 2514 2718 2441 2570 2353 2525 2300 2521 2433 2746 2628 2788 2618 2753 2686 2920 2682 2813 2580 2765 2613 2809 2525 2661 2314 2126    0 
   0 1254 1794 2038 2280 2189 2426 2059 2184 1786 1954 1676 1851 1642 1934 1782 2166 2164 2485 2333 2637 2351 2452 2026 2114 1930 2324 2182 2502 2458 2790 2591 2744 2562 2651 2205 2228 1778 1972 1934 2176 2153 2619 2530 2524 2276 2353 2179 2463 2302 2690 2565 2890 2562 2682 2298 2364 2066 2361 2261 2344 2238 2513 2444 2731 2652 2800 2595 2780 2548 2524 2073 2207 1870 2092 2037 2327 2194 2491 2492 2621 2420 2557 2361 2342 2093 2246 2164 2435 2301 2794 2440 2791 2558 2763 2618 2797 2565 2745 2478 2725 2533 2717 2469 2562 2255 2122    0 
   0  834 1469 1562 1867 1697 1949 1701 1748 1419 1498 1300 1550 1252 1600 1501 1844 1698 2090 1936 2091 1923 1860 1618 1701 1461 1928 1909 2139 2163 2354 2221 2324 2050 2249 1850 1858 1584 1719 1630 1994 1918 2141 2049 2049 1699 1828 1734 2029 1975 2282 2185 2341 2029 2191 1892 1977 1733 2086 1953 1988 1880 2235 2211 2441 2288 2443 2226 2274 2062 2075 1623 1709 1425 1786 1686 1946 1862 2107 1999 2295 1984 2065 1774 1853 1473 1653 1480 1888 2043 2347 2061 2433 2193 2445 2286 2396 2195 2397 2114 2390 2333 2382 2148 2186 1901 1769    0 
   0 1130 1837 1901 2176 2058 2254 1986 1989 1701 1925 1715 1965 1796 2085 2076 2415 2340 2595 2349 2510 2195 2377 2093 2212 2165 2519 2454 2771 2627 2947 2619 2757 2409 2728 2359 2509 2260 2434 2442 2756 2541 2711 2436 2610 2196 2478 2352 2756 2609 2929 2756 2964 2565 2725 2419 2673 2518 2789 2674 2843 2637 2929 2861 3125 2924 3096 2775 2912 2593 2750 2276 2420 2069 2346 2402 2683 2602 2818 2696 2836 2422 2603 2255 2226 1974 2186 2117 2526 2570 2934 2828 3003 2902 3105 3005 3109 2871 3076 2835 3062 2827 3021 2890 2969 2543 2429    0 
   0 1494 2093 2134 2389 2250 2294 2095 2036 1815 1978 1886 2043 2018 2370 2306 2567 2429 2587 2325 2315 2074 2240 1931 2381 2306 2661 2543 2868 2765 2979 2675 2809 2508 2677 2463 2616 2443 2687 2602 2778 2550 2665 2281 2484 2210 2421 2429 2742 2517 2839 2581 2635 2393 2492 2363 2634 2429 2744 2653 2816 2756 2830 2730 2920 2817 2794 2601 2570 2376 2470 2190 2324 2064 2253 2225 2538 2341 2588 2440 2601 2088 2189 1866 1934 1649 2034 1898 2386 2385 2655 2594 2864 2681 2892 2628 2821 2613 2765 2734 2787 2698 2841 2661 2685 2386 2226    0 
   0 1439 2064 2035 2200 2044 2041 1805 1731 1613 1746 1776 2041 2122 2346 2265 2450 2249 2345 1922 1874 1690 1899 1765 2130 2186 2601 2484 2769 2628 2703 2333 2389 2125 2448 2285 2596 2458 2690 2577 2645 2354 2406 2089 2386 2234 2480 2390 2757 2478 2646 2358 2510 2261 2557 2324 2636 2508 2738 2660 2917 2693 2869 2692 2807 2645 2665 2409 2596 2255 2518 2309 2398 2102 2338 2267 2600 2320 2518 2298 2372 1953 2122 1819 2006 1795 2125 1965 2385 2322 2610 2517 2705 2621 2788 2554 2633 2486 2723 2598 2651 2514 2722 2523 2662 2333 2163    0 
   0 1093 1658 1693 1733 1492 1561 1189 1239 1014 1270 1343 1751 1686 1980 1865 1999 1661 1753 1369 1271 1107 1413 1300 1739 1804 2134 2054 2245 2037 2082 1722 1830 1666 1881 2029 2242 2090 2363 2182 2194 1793 1893 1795 2171 1979 2225 2145 2277 1945 2029 1717 1965 1821 2146 1969 2312 2197 2466 2426 2587 2412 2438 2237 2412 2173 2164 1998 2133 1821 2122 1928 2090 1972 2100 2002 2145 1834 2055 1796 1936 1613 1759 1610 1772 1668 2053 1802 2160 2059 2302 2186 2409 2231 2358 2198 2313 2097 2341 2197 2346 2205 2493 2189 2338 1991 1842    0 
   0 1515 1978 1950 1994 1838 1842 1570 1597 1433 1680 1765 2237 2120 2367 2277 2309 2065 2028 1620 1630 1492 1741 1675 2361 2282 2693 2529 2698 2419 2414 2048 2223 2066 2378 2354 2745 2649 2922 2651 2714 2362 2613 2483 2886 2658 2894 2644 2770 2267 2419 2217 2504 2403 2765 2654 3011 2880 3226 3016 3149 2973 3147 2916 2993 2756 2818 2573 2692 2606 2845 2706 2887 2745 2903 2587 2720 2357 2645 2352 2565 2324 2495 2317 2546 2420 2858 2606 2937 2897 3080 2920 3119 2885 3106 2817 3016 2874 3081 2933 3089 2886 3150 2914 3095 2661 2550    0 
   0 1708 2185 2125 2170 1962 1992 1706 1900 1686 2110 2100 2495 2399 2613 2385 2382 1941 1931 1613 1604 1687 1851 1893 2291 2455 2638 2510 2553 2164 2178 1917 1997 1907 2413 2421 2762 2674 2869 2712 2778 2382 2643 2589 2807 2802 2853 2537 2481 2064 2157 1973 2317 2254 2652 2596 2851 2801 3006 2788 2925 2741 2826 2573 2698 2363 2466 2372 2552 2405 2735 2500 2703 2374 2510 2292 2185 2039 2170 1897 2200 2034 2133 2045 2217 2251 2600 2532 2680 2541 2794 2538 2747 2465 2615 2517 2751 2596 2807 2589 2760 2596 2777 2687 2721 2422 2261    0 
   0 1579 2018 1917 2026 1773 1846 1641 1830 1771 2034 2039 2475 2339 2450 2307 2301 1853 1800 1489 1644 1549 1890 1898 2433 2312 2613 2404 2422 1943 2024 1717 1969 1821 2404 2391 2703 2681 2948 2651 2850 2617 2782 2715 2942 2714 2761 2402 2383 2065 2150 2024 2438 2298 2764 2643 2923 2700 2896 2583 2809 2381 2648 2344 2478 2282 2541 2276 2498 2440 2828 2502 2689 2357 2360 2154 2049 1811 2105 1982 2226 1958 2119 2008 2241 2225 2629 2509 2633 2580 2768 2427 2607 2293 2629 2443 2698 2612 2786 2618 2793 2621 2856 2605 2670 2340 2141    0 
   0 1139 1562 1477 1435 1188 1293 1202 1512 1365 1778 1765 2096 2013 2051 1917 1766 1391 1328 1113 1320 1350 1636 1757 2105 1951 2127 1814 1837 1510 1596 1402 1658 1539 2053 2099 2445 2301 2489 2338 2490 2254 2413 2269 2462 2298 2313 2018 1968 1703 1943 1874 2246 2034 2370 2217 2522 2280 2434 2002 2178 1901 2018 1670 1917 1674 1970 1925 2222 2186 2384 2138 2212 1925 1927 1586 1634 1335 1604 1573 1766 1590 1780 1668 1901 1901 2221 2126 2370 2095 2281 1901 2171 1934 2202 2038 2299 2258 2401 2301 2404 2295 2517 2290 2411 2006 1761    0 
   0 1354 1797 1562 1588 1374 1581 1477 1845 1819 2257 2171 2459 2336 2390 2088 2136 1785 1882 1647 1948 1964 2284 2375 2667 2545 2637 2310 2295 2019 2118 2042 2280 2224 2776 2581 2954 2781 3092 2817 2981 2821 2954 2790 2903 2734 2818 2468 2505 2380 2693 2562 2936 2750 3103 2877 3094 2801 2889 2540 2685 2392 2509 2221 2388 2271 2664 2626 2939 2772 3059 2672 2786 2493 2562 2114 2131 2023 2337 2100 2338 2202 2518 2468 2687 2597 3021 2821 2986 2746 2986 2508 2756 2582 2839 2631 2989 2899 3058 2923 3157 2860 3140 3011 3030 2668 2619    0 
   0 1430 1898 1633 1621 1499 1802 1797 2094 2172 2468 2375 2578 2378 2405 2140 2138 1786 1911 1861 2310 2248 2725 2634 2776 2608 2667 2235 2286 1946 2201 2006 2412 2272 2797 2637 3052 2925 3051 2878 2953 2702 2763 2594 2714 2518 2559 2391 2524 2414 2700 2613 2918 2780 2914 2629 2722 2575 2546 2291 2376 2121 2210 1958 2170 2109 2426 2512 2685 2517 2636 2303 2305 2110 2037 1868 1902 1579 1889 1881 2060 1967 2295 2170 2637 2507 2770 2526 2724 2404 2557 2183 2291 2126 2555 2341 2613 2519 2832 2651 2856 2821 2940 2596 2786 2412 2290    0 
   0 1218 1712 1438 1435 1390 1709 1661 2134 2069 2358 2269 2441 2148 2170 1809 1897 1557 1819 1842 2261 2271 2611 2533 2730 2397 2502 2090 2061 1755 2001 1988 2297 2190 2738 2639 2893 2806 2898 2701 2789 2391 2365 2322 2265 2133 2331 2230 2478 2408 2707 2693 2864 2762 2786 2474 2581 2345 2379 2066 2100 2005 2180 1915 2162 2077 2507 2370 2466 2345 2463 2034 2083 1921 1932 1794 1842 1604 1850 1833 2066 1938 2267 2242 2565 2426 2668 2463 2455 2206 2327 2025 2092 2095 2486 2280 2556 2358 2662 2600 2830 2722 2743 2529 2571 2186 2178    0 
   0  809 1284  925 1036 1037 1287 1352 1761 1713 1942 1769 1934 1577 1594 1163 1301 1021 1424 1426 1929 1938 2255 2100 2340 1854 2025 1491 1466 1258 1483 1474 1822 1807 2270 2165 2446 2229 2354 2205 2170 1851 1892 1610 1808 1629 1840 1759 2128 2187 2330 2349 2483 2273 2343 1914 2093 1722 1986 1657 1670 1591 1815 1638 1937 1931 2235 1938 2118 1847 1892 1630 1665 1522 1682 1498 1621 1367 1639 1622 1833 1818 2187 2025 2353 2187 2330 2027 2178 1853 1942 1669 1783 1690 2199 1972 2234 2060 2319 2212 2432 2248 2438 2085 2226 1918 1841    0 
   0 1148 1560 1365 1437 1459 1730 1807 2200 2042 2299 2189 2219 1878 1843 1426 1637 1593 1986 1979 2584 2505 2800 2642 2749 2293 2365 1906 2050 1844 2109 1991 2453 2281 2846 2724 2912 2773 2875 2594 2678 2321 2347 2234 2446 2273 2651 2693 2966 2781 3052 2834 3036 2765 2845 2475 2518 2340 2452 2251 2365 2241 2577 2533 2778 2687 2922 2614 2705 2245 2441 2225 2428 2204 2475 2248 2365 2047 2482 2311 2641 2681 2938 2747 3069 2842 2984 2693 2814 2507 2637 2452 2542 2413 2839 2758 3030 2802 3171 2895 3142 3022 3133 2796 2916 2750 2581    0 
   0 1361 1716 1609 1749 1540 1949 1989 2362 2338 2438 2226 2251 1861 1749 1513 1764 1701 2221 2171 2617 2610 2852 2656 2726 2250 2128 1898 2041 1882 2245 2180 2514 2418 2795 2820 2953 2741 2893 2421 2432 2267 2306 2235 2468 2448 2694 2658 2934 2662 2821 2531 2510 2272 2380 2085 2129 1929 2124 1933 2269 2062 2434 2402 2762 2431 2669 2408 2369 2063 2213 2045 2261 2146 2118 2034 2199 2039 2280 2166 2509 2414 2610 2557 2651 2509 2586 2272 2383 2253 2410 2227 2278 2177 2549 2538 2807 2569 2774 2494 2754 2533 2736 2352 2689 2234 2081    0 
   0 1138 1617 1382 1599 1543 1913 1940 2295 2181 2415 2027 2072 1773 1598 1451 1716 1752 2218 2171 2606 2516 2677 2626 2656 2105 2075 1723 2154 2025 2405 2274 2685 2551 2798 2704 2897 2609 2660 2190 2317 2105 2332 2218 2533 2614 2799 2705 2984 2682 2682 2231 2213 1947 2134 1917 1931 1677 2018 1885 2197 2018 2556 2466 2744 2499 2699 2241 2238 2098 2165 2087 2297 2115 2185 1964 2281 2149 2453 2303 2482 2562 2689 2492 2630 2399 2496 2209 2385 2189 2394 2188 2347 2341 2568 2497 2671 2531 2706 2419 2673 2506 2600 2360 2585 2209 2047    0 
   0  574 1003  826 1138 1103 1490 1605 1967 1835 1908 1535 1580 1291 1322 1149 1387 1578 1946 1901 2203 2146 2269 2084 1972 1649 1565 1468 1785 1769 2114 2095 2349 2214 2418 2186 2374 2153 2208 1806 1890 1708 2050 2010 2274 2317 2573 2447 2520 2290 2258 1861 1771 1535 1717 1445 1567 1426 1605 1537 1917 1877 2205 2052 2410 2122 2250 1852 1909 1589 1827 1685 1890 1837 1780 1758 1902 1937 2216 2080 2234 2058 2233 2011 2101 1826 1995 1691 1992 1851 2075 1897 2094 2037 2221 2244 2382 2194 2352 2056 2302 2116 2257 1978 2146 1832 1661    0 
   0  850 1298 1237 1448 1501 1967 1954 2306 2121 2295 1856 1966 1690 1655 1682 2006 2088 2511 2357 2692 2515 2697 2384 2433 2118 2185 2037 2426 2319 2741 2635 2893 2714 2882 2661 2718 2490 2599 2286 2429 2153 2631 2517 2890 2959 3089 2976 3157 2877 2825 2482 2373 2192 2370 2170 2250 2058 2296 2203 2601 2477 3074 2758 3025 2732 2752 2417 2402 2186 2536 2308 2470 2414 2526 2505 2773 2709 2898 2785 2882 2622 2881 2465 2542 2389 2593 2418 2621 2426 2777 2721 2898 2766 3001 2831 3001 2874 2981 2674 2980 2760 3002 2613 2930 2505 2361    0 
   0 1209 1605 1518 1810 1932 2183 2281 2421 2231 2285 2005 1964 1795 1884 1835 2154 2311 2562 2485 2718 2550 2632 2277 2381 2200 2329 2235 2554 2433 2889 2697 2888 2601 2758 2402 2522 2285 2453 2186 2392 2110 2469 2613 2845 2918 3037 2808 2939 2691 2684 2266 2420 2218 2306 2010 2216 2028 2234 2194 2565 2649 2781 2661 2789 2493 2335 2110 2226 2110 2173 1982 2142 1960 2329 2274 2621 2514 2604 2367 2513 2173 2290 1996 2000 1862 2107 1885 2212 2237 2560 2419 2658 2545 2685 2539 2706 2484 2544 2427 2575 2434 2546 2311 2516 2261 2005    0 
   0 1138 1557 1568 1852 1945 2225 2138 2301 2030 2169 1864 1837 1613 1789 1738 2116 2156 2477 2309 2527 2377 2415 2026 2117 1963 2254 2152 2596 2453 2797 2665 2772 2509 2674 2129 2214 1941 2268 2007 2230 2013 2449 2487 2781 2745 2882 2647 2733 2522 2603 2196 2318 2069 2210 2070 2250 2027 2233 2170 2508 2484 2745 2541 2604 2255 2194 2077 2196 2017 2180 1844 2043 1828 2249 2265 2587 2405 2621 2288 2396 1933 2090 1850 1925 1705 2020 1826 2090 2066 2453 2335 2728 2529 2614 2452 2555 2299 2450 2225 2506 2375 2548 2294 2541 2075 1994    0 
   0  809 1318 1309 1722 1568 1759 1692 1711 1460 1452 1307 1318 1131 1377 1391 1694 1830 2154 1750 2013 1810 1845 1585 1766 1668 1875 1794 2199 2050 2391 2282 2290 2021 2051 1637 1633 1517 1741 1593 1853 1680 2034 2202 2422 2301 2402 2100 2189 1943 2001 1784 1913 1693 1762 1636 1879 1759 2157 1978 2280 2186 2337 1989 2133 1850 1906 1579 1885 1639 1794 1541 1739 1554 2037 1979 2197 2004 2192 1723 1841 1477 1634 1426 1527 1460 1578 1301 1850 1812 2129 1988 2229 2052 2203 1994 2181 1884 2156 1869 2095 1973 2133 1969 2092 1750 1637    0 
   0 1141 1730 1776 2133 2028 2157 1961 2001 1765 1883 1646 1813 1625 1875 1906 2345 2256 2498 2158 2386 2109 2194 1989 2201 2012 2446 2344 2753 2570 2907 2660 2761 2369 2482 2078 2237 1901 2288 2004 2370 2257 2758 2693 2973 2800 2953 2568 2610 2286 2466 2130 2345 2136 2427 2141 2482 2518 2843 2669 3004 2853 2921 2664 2737 2340 2428 2207 2404 2220 2459 2370 2560 2427 2722 2765 3042 2629 2738 2367 2486 2053 2355 2246 2301 2189 2405 2058 2513 2546 2933 2685 2957 2650 2757 2570 2716 2548 2758 2565 2845 2682 2874 2670 2905 2509 2357    0 
   0 1515 2015 2027 2298 2165 2392 2161 2134 1850 2026 1861 1992 1860 2214 2120 2442 2372 2450 2198 2191 1974 2221 1849 2066 1965 2370 2338 2669 2716 2916 2633 2607 2286 2292 1937 2061 1897 2024 1956 2229 2414 2779 2597 2809 2539 2673 2251 2213 1949 2132 1942 2024 1956 2134 2053 2317 2315 2706 2558 2657 2474 2478 2333 2386 2198 2254 1859 2169 2022 2261 2133 2499 2385 2705 2519 2573 2234 2269 1938 2076 1867 2092 1950 2118 1946 2206 2077 2257 2213 2627 2416 2487 2260 2296 2033 2263 2149 2336 2226 2442 2382 2600 2357 2498 2177 2106    0 
   0 1430 1936 1996 2340 2008 2212 1940 1992 1701 1745 1722 1858 1828 2225 2141 2346 2129 2187 1893 1947 1759 2101 1700 1959 1877 2293 2244 2632 2470 2770 2344 2521 2107 2107 1870 2018 1864 2087 1924 2201 2398 2825 2564 2700 2336 2474 2005 1948 1689 2035 1833 2053 1890 2270 2145 2484 2404 2722 2517 2578 2238 2243 1957 2115 1949 2033 1778 2073 2045 2282 2315 2658 2390 2671 2506 2434 2105 2159 1852 2069 1820 2065 1949 2224 2008 2381 2230 2415 2365 2508 2318 2327 2119 2074 1878 2082 2021 2261 2174 2433 2346 2516 2241 2323 2133 2006    0 
   0 1038 1539 1538 1813 1518 1621 1437 1410 1062 1242 1276 1506 1442 1873 1670 1830 1583 1578 1194 1304 1197 1376 1212 1419 1274 1755 1762 2139 2100 2332 1908 1914 1579 1722 1462 1646 1571 1733 1644 1980 2018 2279 2038 2154 1815 1853 1434 1574 1248 1553 1486 1700 1602 1940 1971 2181 2068 2341 2083 2060 1655 1736 1462 1590 1481 1591 1352 1669 1588 1995 1842 2244 2095 2218 2069 2006 1561 1680 1337 1618 1394 1665 1562 1765 1687 2045 1879 2047 1865 2062 1867 1899 1584 1545 1506 1674 1583 1944 1739 2065 2012 2097 1901 2078 1725 1605    0 
   0 1330 1858 1741 2054 1721 1872 1556 1646 1365 1564 1562 1938 2007 2410 2157 2194 1948 1905 1585 1716 1501 1883 1597 1842 1730 2273 2292 2613 2598 2802 2386 2478 2051 2258 2018 2301 2245 2580 2445 2716 2651 2897 2530 2582 2259 2411 2093 2103 1977 2292 2202 2377 2459 2741 2582 2865 2705 2961 2585 2571 2252 2269 1964 2065 2087 2308 2061 2397 2360 2760 2618 2925 2632 2892 2589 2554 2197 2404 2128 2377 2086 2314 2218 2628 2437 2907 2661 2866 2558 2724 2433 2539 2346 2382 2171 2390 2232 2523 2576 2827 2612 2926 2659 2779 2435 2344    0 
   0 1551 2050 2167 2247 2024 2043 1659 1732 1492 1794 1767 2259 2219 2502 2346 2406 2054 2010 1692 1858 1722 1945 1819 2055 1966 2422 2553 2829 2626 2792 2342 2346 2041 2154 1940 2325 2397 2651 2545 2874 2686 2787 2453 2501 2117 2137 1889 2103 2082 2373 2269 2568 2434 2746 2646 2840 2605 2698 2423 2444 2107 2190 1870 2056 1878 2221 2074 2395 2334 2678 2427 2622 2409 2503 2267 2306 1909 1891 1797 2043 1818 1976 2006 2422 2357 2573 2393 2550 2346 2277 2102 2106 1926 1994 1889 2093 2107 2369 2280 2582 2399 2596 2373 2422 2155 2018    0 
   0 1343 1896 1835 1921 1730 1635 1325 1541 1270 1654 1757 2148 2075 2348 2157 2269 1766 1863 1565 1765 1476 1861 1797 2106 2037 2436 2366 2697 2477 2535 2138 2159 1749 2050 1908 2254 2309 2629 2535 2773 2547 2661 2395 2302 1933 1909 1743 1947 2051 2357 2173 2492 2344 2642 2554 2602 2363 2405 2149 2132 1905 1986 1739 1921 1754 2120 2223 2497 2352 2546 2330 2417 2153 2205 2006 1974 1725 1750 1777 2013 1758 1882 1932 2379 2265 2522 2312 2338 2066 2057 1758 1841 1714 1928 1773 2043 2124 2401 2199 2484 2324 2458 2218 2341 2004 1757    0 
   0  946 1373 1387 1322 1117 1158  974 1117  930 1326 1378 1805 1701 1859 1748 1721 1390 1355 1124 1331 1175 1540 1554 1853 1768 2125 2029 2269 2026 2156 1553 1604 1275 1585 1479 1870 2057 2226 2263 2409 2226 2258 1913 1934 1577 1617 1296 1592 1586 1926 1829 2154 2130 2346 2107 2130 1874 1879 1588 1719 1557 1613 1402 1636 1537 1914 1874 2258 1954 2269 1796 1957 1609 1730 1437 1661 1321 1423 1446 1700 1530 1741 1692 2104 1891 2141 1849 1898 1730 1578 1357 1446 1345 1589 1464 1625 1821 2155 1962 2150 2050 2077 1876 1858 1611 1434    0 
   0 1230 1670 1582 1485 1341 1525 1327 1548 1357 1771 1836 2204 2125 2269 1960 2117 1774 1868 1512 1797 1613 2068 1966 2501 2321 2721 2609 2800 2414 2472 2011 2127 1837 2143 2155 2566 2569 2839 2669 2901 2706 2807 2474 2544 2186 2142 1902 2130 2058 2517 2409 2730 2723 2988 2626 2660 2325 2366 2114 2234 2199 2473 2156 2433 2218 2721 2619 2873 2626 2841 2426 2461 2158 2240 2038 2259 2018 2095 2083 2432 2357 2629 2602 2836 2637 2805 2422 2469 2206 2216 2069 2197 1998 2229 2050 2411 2477 2847 2550 2935 2587 2689 2377 2490 2133 1997    0 
   0 1498 1722 1644 1737 1400 1629 1540 1818 1770 2090 2139 2418 2281 2416 1963 2061 1776 1942 1588 1846 1812 2186 2108 2537 2565 2695 2612 2642 2408 2338 2061 2165 2091 2389 2330 2690 2577 2864 2690 2867 2557 2668 2381 2377 2010 2198 1939 2170 1968 2373 2433 2674 2674 2801 2592 2603 2261 2162 1945 2122 1947 2190 2172 2352 2310 2606 2540 2682 2490 2473 2164 2170 1805 2024 1810 1961 1773 1893 1965 2285 2286 2512 2359 2573 2309 2372 1979 2041 1722 1946 1777 1974 1764 1972 1974 2258 2213 2506 2297 2410 2157 2375 1913 2141 1848 1760    0 
   0 1250 1629 1399 1490 1317 1557 1371 1596 1595 2087 1946 2341 2088 2195 1722 1705 1592 1707 1595 1749 1674 2159 2036 2443 2437 2633 2470 2456 2141 2068 1851 2090 2078 2383 2379 2689 2492 2665 2475 2541 2252 2453 2120 2187 1936 2102 1939 2074 1985 2421 2452 2562 2506 2683 2350 2373 2045 2154 1860 2008 1957 2125 2092 2389 2321 2534 2366 2531 2197 2288 1997 2057 1817 2002 1738 1840 1672 1915 1984 2374 2333 2455 2210 2478 2098 2122 1684 1838 1525 1790 1593 1888 1746 2091 2018 2290 2216 2366 2105 2129 1898 2096 1770 1911 1652 1672    0 
   0  785 1211 1018 1046  799 1020  878 1370 1331 1668 1649 1814 1541 1608 1166 1365 1156 1381 1195 1492 1458 1842 1869 2200 2107 2253 1906 1875 1625 1654 1446 1645 1689 1997 1984 2232 2116 2174 1882 1961 1634 1837 1586 1658 1549 1680 1688 1924 1796 2133 2122 2220 2077 2221 1898 1972 1764 1826 1579 1694 1611 1919 1906 2069 1945 2260 1989 1999 1609 1638 1450 1629 1332 1613 1354 1543 1342 1641 1730 1958 1977 2113 1867 1998 1672 1676 1258 1386 1163 1382 1330 1619 1500 1805 1718 1954 1875 1989 1443 1640 1393 1597 1352 1571 1296 1270    0 
   0 1098 1445 1394 1497 1205 1369 1309 1744 1794 2132 2033 2221 1861 1918 1541 1754 1559 1908 1693 2031 2029 2492 2387 2593 2469 2680 2325 2286 2030 2061 1934 2126 2229 2520 2624 2861 2574 2620 2218 2343 2098 2345 2117 2314 2139 2444 2270 2706 2487 2884 2778 2873 2672 2690 2381 2459 2288 2408 2255 2394 2405 2666 2541 2847 2731 2859 2557 2556 2195 2227 1941 2196 1954 2197 1890 2093 2099 2465 2459 2769 2647 2744 2486 2559 2159 2269 1840 2068 1958 2085 1986 2202 2163 2664 2424 2651 2330 2448 2043 2138 1922 2236 2011 2273 2010 1878    0 
   0 1374 1701 1554 1666 1470 1655 1768 2137 2102 2412 2243 2298 2211 2122 1818 1928 1810 2138 2088 2437 2376 2650 2608 2813 2673 2599 2357 2297 1942 2098 1961 2227 2253 2689 2705 2890 2589 2487 2103 2168 1957 2238 2118 2314 2157 2321 2452 2670 2614 2806 2557 2694 2285 2402 2060 2231 2062 2301 2130 2386 2359 2586 2554 2749 2608 2639 2410 2333 2006 1986 1643 1860 1685 1977 1863 2036 2001 2365 2295 2570 2327 2531 2088 2135 1840 2004 1829 1947 1730 1856 1679 1999 2148 2410 2312 2405 2104 2011 1679 1750 1665 1885 1729 2001 1636 1636    0 
   0 1026 1360 1354 1369 1290 1638 1665 2115 1987 2274 2046 2197 1802 1805 1563 1698 1612 2029 1978 2373 2285 2516 2502 2519 2346 2362 1977 2058 1721 1957 1787 2226 2237 2621 2585 2738 2413 2258 2023 2115 1916 2033 1909 2255 2109 2382 2473 2605 2396 2709 2410 2407 1970 2057 1730 1970 1858 2276 2184 2389 2303 2620 2461 2601 2380 2581 2166 2197 1837 1878 1514 1775 1552 1845 1847 2114 2033 2379 2190 2386 2161 2241 1850 1906 1686 1887 1655 1813 1580 1782 1678 1962 2074 2274 2037 2245 1892 1885 1431 1594 1496 1723 1561 1868 1563 1597    0 
   0  526  913  791 1049 1076 1365 1454 1785 1610 1883 1662 1649 1414 1440 1065 1267 1222 1663 1698 2032 1872 2189 2051 2065 1910 1698 1431 1481 1170 1510 1518 1801 1921 2243 2117 2234 2004 1925 1681 1781 1465 1629 1557 1860 1882 2162 2034 2350 1992 2250 1942 1824 1454 1602 1302 1575 1502 1867 1875 2206 2105 2238 2058 2196 1946 2059 1685 1896 1466 1514 1254 1446 1221 1547 1635 1861 1810 2065 1934 2006 1734 1741 1349 1485 1346 1497 1355 1496 1307 1490 1467 1806 1787 1970 1735 1829 1477 1470 1058 1256 1079 1397 1261 1626 1360 1297    0 
   0  708 1193 1221 1490 1445 1795 1868 2164 1965 2308 1981 2088 1609 1740 1503 1807 1734 2184 2164 2486 2391 2589 2389 2485 2077 2036 1818 1947 1707 2057 2099 2434 2412 2754 2665 2711 2429 2364 2164 2274 2053 2193 2106 2468 2477 2791 2657 2766 2619 2711 2367 2247 1898 2045 1834 2145 2121 2532 2523 2819 2577 2854 2684 2705 2441 2466 2199 2329 2034 2148 1868 2053 1914 2345 2377 2658 2519 2638 2525 2661 2327 2346 1902 2033 1917 2121 1971 2177 1932 2378 2283 2715 2551 2647 2371 2426 2033 2029 1756 1958 1851 2203 2057 2462 1988 1934    0 
   0 1034 1419 1485 1935 1837 2212 2089 2383 2255 2351 2156 2130 1802 1898 1713 1953 2028 2336 2400 2470 2497 2677 2226 2342 1963 2053 1754 1975 1832 2141 2195 2573 2496 2710 2586 2580 2257 2205 2042 2293 1982 2248 2102 2382 2490 2744 2490 2756 2477 2453 2107 2168 1876 1914 1715 2042 2042 2397 2310 2572 2434 2641 2287 2333 2034 2091 1937 1989 1837 1996 1693 1922 1877 2207 2200 2423 2188 2341 2117 2308 1899 1947 1597 1813 1641 1849 1641 1864 1840 2226 2284 2372 2357 2374 2101 2089 1641 1742 1527 1685 1544 1946 1876 2203 1940 1931    0 
   0  896 1330 1383 1885 1794 2075 1968 2218 2042 2097 1878 1897 1706 1859 1632 1957 2012 2322 2288 2471 2286 2407 1972 2098 1762 1839 1690 1879 1725 2290 2114 2531 2410 2538 2298 2373 1949 2001 1819 2101 1796 2100 2153 2419 2426 2685 2352 2581 2171 2208 1978 2030 1699 1937 1706 1988 1898 2152 2114 2382 2330 2523 2221 2253 1858 2037 1737 1847 1797 1877 1633 1979 1819 2220 2102 2273 2072 2259 2077 2195 1835 1901 1623 1826 1707 1819 1616 1898 1922 2309 2202 2382 2197 2257 1958 1905 1525 1783 1466 1709 1529 1944 1839 2210 1877 1750    0 
   0  509  880 1047 1526 1398 1742 1562 1765 1452 1562 1353 1431 1203 1307 1287 1562 1611 1934 1895 2054 1723 1917 1501 1452 1197 1422 1218 1525 1394 1757 1797 2059 1961 2083 1812 1744 1448 1389 1273 1540 1418 1738 1905 2157 2033 2254 1949 2084 1621 1682 1490 1623 1298 1586 1467 1766 1626 1699 1754 1850 1842 2034 1702 1825 1412 1513 1241 1371 1312 1470 1256 1621 1540 1882 1901 1975 1751 1938 1652 1738 1371 1542 1346 1641 1483 1647 1522 1728 1632 2056 2039 2029 1755 1858 1507 1609 1155 1433 1162 1387 1303 1668 1562 1898 1559 1409    0 
   0  842 1262 1386 1845 1788 2043 1934 2029 1789 1813 1573 1723 1446 1679 1586 1987 2038 2308 2218 2378 2145 2282 1795 1963 1700 1924 1793 2127 2030 2472 2379 2641 2470 2541 2145 2131 1880 1932 1840 2105 1994 2439 2523 2773 2683 2773 2373 2525 2103 2215 1962 2237 2004 2415 2171 2592 2335 2411 2305 2594 2531 2688 2300 2370 2010 2099 1874 2023 1879 2100 1930 2330 2345 2698 2458 2550 2452 2488 2228 2363 2037 2230 2123 2473 2289 2568 2459 2642 2540 2851 2583 2703 2325 2517 2093 2213 1878 2050 1864 2150 2090 2488 2409 2589 2263 2157    0 
   0 1098 1529 1751 2054 2093 2334 2213 2340 2009 1992 1718 1725 1616 1811 1745 2253 2221 2453 2479 2564 2153 2133 1856 1865 1849 2122 1926 2217 2216 2507 2437 2554 2493 2482 2042 2086 1925 2066 1828 2172 2143 2408 2480 2794 2618 2713 2314 2352 2044 2074 1896 2141 2036 2331 2137 2438 2301 2492 2228 2522 2380 2426 2010 2115 1741 1869 1632 1854 1615 1847 1941 2280 2191 2461 2304 2518 2310 2387 1865 1873 1672 1885 1877 2178 2069 2405 2186 2567 2352 2580 2299 2326 1994 2045 1742 1886 1690 1974 1762 1969 1999 2270 2070 2252 1842 1643    0 
   0  826 1338 1477 1878 1911 2178 2152 2077 1749 1737 1396 1624 1412 1562 1590 2052 1996 2329 2238 2298 1869 1797 1591 1753 1653 2005 1931 2134 2181 2448 2246 2435 2230 2255 1828 1965 1757 1958 1728 2164 2004 2386 2408 2709 2514 2585 2171 2308 1943 2008 1802 1979 1868 2219 2037 2359 2278 2507 2356 2446 2248 2274 1814 1955 1617 1721 1522 1626 1450 1747 1819 2194 2139 2406 2324 2428 2181 2242 1794 1882 1637 1796 1708 2069 2045 2325 2330 2573 2203 2322 2187 2171 1767 1786 1543 1778 1602 1849 1803 1949 2009 2276 1947 2107 1618 1463    0 
   0  445  917 1089 1617 1482 1793 1642 1581 1323 1241 1093 1146 1098 1377 1324 1796 1734 1810 1693 1841 1301 1402 1162 1319 1321 1707 1627 1940 1922 2026 1891 2066 1786 1890 1486 1631 1510 1706 1450 1830 1702 2057 2014 2242 2089 2204 1773 1894 1622 1850 1533 1742 1467 1730 1660 2041 2026 2253 1973 2107 1836 1804 1523 1493 1226 1362 1146 1397 1265 1546 1617 2066 1918 2111 2002 2110 1869 1864 1439 1543 1290 1520 1300 1709 1700 2050 1931 2236 1993 2004 1714 1654 1434 1460 1225 1373 1282 1634 1453 1772 1713 1922 1656 1770 1305 1076    0 
   0  682 1293 1423 1771 1821 2095 1885 1947 1578 1590 1376 1567 1574 1909 1898 2281 2069 2341 2094 2192 1638 1861 1701 1805 1879 2281 2233 2488 2373 2673 2346 2493 2276 2341 2034 2202 2074 2196 2029 2433 2261 2655 2593 2854 2589 2645 2349 2437 2150 2409 2181 2430 2194 2468 2333 2657 2651 2827 2523 2582 2290 2398 1984 2202 1914 2072 1813 1974 1910 2276 2473 2844 2526 2810 2632 2678 2405 2474 2197 2298 2027 2139 1844 2352 2282 2777 2696 2922 2626 2665 2309 2370 1876 2043 1788 2054 1938 2370 2178 2529 2489 2634 2283 2377 1971 1799    0 
   0  934 1483 1654 1986 2069 2237 2020 2105 1738 1783 1608 1794 1949 2266 2207 2492 2346 2386 2120 2164 1717 1880 1747 2005 2000 2429 2422 2630 2485 2763 2301 2459 2141 2356 2059 2090 1979 2164 2059 2321 2339 2690 2589 2777 2500 2443 2199 2373 2182 2310 2247 2372 2312 2437 2395 2679 2479 2613 2210 2273 2012 2122 1959 2081 1848 1998 1659 1932 1812 2198 2250 2550 2434 2616 2255 2221 2020 2153 1969 2036 1738 1818 1714 2032 2052 2500 2451 2626 2324 2366 1885 1845 1746 1765 1461 1730 1739 1911 1997 2265 2258 2222 1944 2018 1475 1397    0 
   0  762 1435 1498 1883 1893 2171 1849 1941 1530 1601 1482 1684 1765 2090 2059 2292 2170 2252 1893 1900 1619 1751 1647 1941 1960 2276 2344 2558 2405 2586 2110 2256 2007 2210 1918 1926 1756 1970 1943 2235 2244 2587 2468 2530 2186 2235 1941 2265 2082 2179 2101 2357 2218 2470 2437 2653 2341 2468 2020 2061 1803 1923 1804 1888 1666 1893 1594 1876 1761 2153 2198 2386 2178 2389 1906 1962 1813 2053 1793 1961 1682 1833 1795 2006 2034 2413 2347 2454 2167 2273 1837 1890 1682 1649 1398 1593 1626 1797 1812 2144 2106 2141 1778 1781 1271 1277    0 
   0  434  872 1085 1446 1522 1685 1405 1473 1158 1256 1049 1362 1396 1673 1541 1731 1683 1643 1403 1386 1198 1340 1218 1456 1509 1930 1773 2081 1910 2058 1638 1807 1421 1698 1310 1401 1210 1522 1627 1950 1864 2097 1974 1979 1742 1791 1485 1751 1626 1752 1722 1967 1986 2199 2076 2199 1875 1885 1475 1509 1326 1438 1297 1418 1341 1589 1306 1549 1435 1716 1651 1878 1786 1770 1323 1308 1349 1564 1434 1565 1296 1507 1506 1720 1766 2063 1932 2084 1744 1788 1412 1422 1316 1299 1065 1213 1237 1600 1541 1812 1756 1725 1293 1309  894  939    0 
   0  701 1273 1403 1809 1861 2002 1702 1861 1514 1638 1418 1742 1869 2130 1855 2202 1993 2040 1659 1759 1571 1778 1666 2041 1962 2401 2314 2538 2333 2421 1984 2136 1865 2062 1821 1973 1800 2181 2283 2661 2524 2745 2446 2563 2155 2283 1907 2181 2028 2391 2370 2687 2605 2821 2623 2811 2359 2317 1935 2085 1949 2184 1893 1932 1878 2194 2054 2328 2147 2366 2291 2580 2224 2348 1924 1964 1941 2281 2125 2325 2011 2189 2160 2477 2459 2794 2596 2663 2415 2393 2149 2244 2030 2169 1781 2058 2024 2370 2245 2549 2422 2398 2021 2005 1489 1646    0 
   0 1160 1554 1832 2190 2028 2135 1973 2031 1844 1944 1798 2035 1992 2213 2133 2286 2045 2066 1705 1754 1600 1787 1778 1957 2019 2493 2340 2525 2340 2274 1943 2066 1842 2033 1805 1957 1985 2319 2309 2637 2524 2652 2400 2279 2045 2153 1929 2007 1974 2277 2226 2538 2477 2749 2532 2551 2057 2192 1819 2050 1815 2038 1749 1898 1684 2098 1915 2349 2120 2437 2141 2324 2052 2056 1677 1817 1735 1979 1897 2000 1797 2007 1875 2356 2295 2442 2365 2253 1973 2061 1781 1990 1757 1874 1732 1879 1819 2104 2118 2291 2146 2218 1842 1773 1369 1282    0 
   0  890 1385 1547 1984 1842 2004 1782 1862 1558 1679 1547 1890 1770 2013 1885 2148 1868 1833 1511 1633 1443 1578 1533 1801 1972 2320 2244 2442 2158 2072 1645 1786 1606 1853 1622 1862 1961 2213 2122 2526 2262 2348 2109 2029 1821 2111 1787 1871 1814 2058 2133 2429 2393 2585 2388 2483 1878 2004 1714 1924 1765 1943 1514 1730 1589 1978 1772 2133 2054 2338 2041 2277 1862 1845 1578 1708 1577 1769 1691 1774 1621 1883 1884 2234 2171 2352 2166 2061 1714 1730 1538 1595 1553 1697 1669 1843 1774 2117 1978 2199 2113 2074 1696 1596 1188 1109    0 
   0  511 1036 1277 1610 1474 1587 1334 1406 1085 1263 1101 1418 1405 1620 1556 1708 1397 1325 1083 1158  952 1157 1206 1567 1645 1978 1905 2019 1728 1644 1253 1378 1119 1456 1315 1593 1649 1956 1886 2128 1931 1922 1556 1474 1455 1693 1406 1625 1609 1797 1769 2013 2011 2186 1957 1942 1477 1597 1464 1693 1512 1605 1307 1444 1218 1602 1469 1956 1854 2091 1732 1864 1544 1496 1146 1349 1197 1429 1343 1445 1272 1545 1617 1940 1845 1934 1633 1562 1229 1326 1159 1270 1219 1371 1426 1584 1572 1880 1817 1890 1707 1789 1300 1278  970  882    0 
   0  797 1374 1571 1949 1766 1845 1489 1526 1355 1522 1405 1802 1828 2017 1917 2031 1709 1659 1364 1602 1453 1709 1732 2057 2042 2442 2353 2473 2159 2010 1677 1821 1584 2032 1885 2246 2323 2535 2325 2605 2321 2397 2082 2163 2090 2267 1978 2171 2155 2460 2354 2717 2564 2697 2352 2402 1968 2061 1998 2189 1963 2165 1969 2089 1969 2325 2132 2568 2444 2728 2362 2559 2129 2149 1861 2018 1864 2101 1961 2069 1941 2402 2266 2649 2569 2550 2205 2116 1844 2028 1774 1935 1882 2000 1995 2326 2323 2534 2482 2565 2344 2440 1933 1909 1598 1546    0 
   0 1137 1659 1823 2089 1963 2124 1768 1691 1494 1694 1634 2105 2005 2294 2036 2185 1866 1971 1403 1670 1690 1744 1753 2178 2179 2589 2413 2433 2121 2036 1736 1872 1783 2064 2165 2403 2261 2498 2228 2495 2133 2223 2097 2212 2032 2186 1822 2085 2006 2327 2281 2629 2394 2618 2231 2060 1752 1949 1832 2027 1909 2027 1813 1897 1853 2004 2140 2421 2235 2501 2213 2220 1946 1957 1677 1846 1643 1924 1725 2019 1814 2290 2298 2507 2297 2420 1885 1890 1582 1780 1624 1832 1672 1805 1735 2149 2089 2314 2267 2366 2061 2026 1685 1627 1387 1431    0 
   0  837 1501 1657 1924 1735 1800 1427 1462 1282 1618 1569 1933 1877 2077 1901 1933 1618 1696 1286 1556 1518 1757 1668 1968 2065 2349 2204 2149 1885 1858 1513 1709 1723 2020 2020 2253 2139 2294 2067 2282 1978 2065 1845 2083 1941 1979 1684 1991 1876 2297 2176 2506 2276 2376 2090 1924 1595 1714 1588 1888 1684 1844 1655 1716 1719 1961 2098 2277 2220 2362 2082 2078 1789 1733 1650 1789 1544 1832 1668 1997 1941 2250 2167 2403 2164 2331 1850 1862 1438 1723 1613 1704 1609 1821 1678 2094 1999 2256 2113 2194 1953 1898 1606 1647 1182 1266    0 
   0  548 1108 1238 1472 1264 1381  997 1005  984 1167 1202 1586 1485 1751 1545 1486 1118 1202  810 1135 1060 1234 1279 1656 1658 1879 1608 1665 1321 1324 1124 1352 1319 1658 1629 1734 1618 1817 1650 1794 1466 1532 1499 1634 1382 1571 1294 1485 1452 1833 1844 2078 1905 1829 1589 1535 1237 1412 1379 1569 1396 1417 1252 1386 1375 1679 1606 1893 1925 1974 1618 1646 1313 1389 1242 1338 1130 1402 1314 1733 1725 1972 1946 2099 1813 1933 1525 1538 1265 1332 1279 1312 1204 1473 1412 1765 1582 1914 1780 1839 1553 1554 1106 1133  967  982    0 
   0  822 1493 1537 1753 1515 1642 1195 1361 1298 1655 1506 2059 1876 2150 1843 1815 1515 1686 1246 1590 1589 1861 1869 2194 2153 2290 1985 2053 1661 1697 1508 1877 1722 2093 2001 2288 2154 2386 2164 2274 1934 2059 1930 2177 2039 2111 1809 2068 2089 2491 2395 2692 2308 2445 2178 2131 1853 2134 1992 2337 2129 2275 1999 1957 1940 2277 2277 2636 2475 2571 2148 2216 1899 1997 1814 1954 1725 2046 1979 2441 2458 2672 2497 2671 2484 2673 2224 2293 1987 2149 1915 2041 1858 2050 2021 2321 2314 2581 2395 2505 2265 2141 1890 1861 1588 1649    0 
   0 1153 1733 1789 1939 1674 1706 1286 1514 1354 1669 1742 2029 2029 2180 1954 1874 1479 1674 1505 1595 1605 2054 2018 2261 2197 2249 1860 1866 1545 1687 1595 1756 1789 2141 2069 2253 2261 2325 2173 2153 1846 1957 1874 1982 1841 1995 1747 1981 2042 2259 2146 2391 2106 2162 1886 2029 1709 1901 1849 2047 2066 2133 1693 1818 1622 1946 1949 2373 2109 2204 1790 1751 1514 1741 1475 1625 1537 1829 1801 2174 2125 2290 2104 2210 2021 2187 1945 2045 1656 1861 1723 1731 1448 1655 1643 1915 1987 2225 2125 2170 1828 1919 1542 1733 1364 1259    0 
   0  974 1547 1446 1596 1348 1365 1022 1174  985 1399 1421 1734 1636 1784 1562 1499 1175 1348 1165 1377 1360 1769 1787 2083 1914 1881 1470 1529 1172 1337 1231 1461 1459 1836 1850 2098 1957 1997 1893 1845 1470 1661 1588 1705 1589 1816 1581 1845 1668 2095 1829 1989 1726 1842 1510 1741 1525 1818 1701 1930 1811 1776 1445 1546 1413 1732 1686 2106 1881 1914 1602 1611 1346 1541 1235 1457 1380 1761 1692 1876 1780 1948 1764 1705 1649 1718 1604 1762 1524 1800 1530 1603 1277 1463 1282 1685 1699 1954 1727 1889 1618 1701 1421 1512 1100 1018    0 
   0  296  758  797  981  644  719  338  615  385  806  797 1118 1002 1157  926  784  540  685  501  700  757 1163 1089 1300 1218 1102  741  829  602  712  724  973 1019 1278 1265 1465 1332 1366 1189 1099  853 1066  870 1032  923 1073  998 1309 1180 1381 1120 1249  990 1078  805 1027  924 1178 1124 1303 1194 1195  832  989  806 1051 1026 1403 1155 1294 1019  982  746  875  743  909  698 1131 1079 1408 1250 1230  951 1020  836 1109  955 1154  994 1211  981 1026  740  893  752 1058 1024 1202 1061 1245 1114 1239  994 1050  595  550    0 
   0    0    0    0    0    0    0    0    0    0    0    0    0    0    0    0    0    0    0    0    0    0    0    0    0    0    0    0    0    0    0    0    0    0    0    0    0    0    0    0    0    0    0    0    0    0    0    0    0    0    0    0    0    0    0    0    0    0    0    0    0    0    0    0    0    0    0    0    0    0    0    0    0    0    0    0    0    0    0    0    0    0    0    0    0    0    0    0    0    0    0    0    0    0    0    0    0    0    0    0    0    0    0    0    0    0    0    0 